; generated by PrusaSlicer 2.3.3+win64 on 2022-01-30 at 22:01:25 UTC

; 

; external perimeters extrusion width = 2.81mm
; perimeters extrusion width = 2.81mm
; infill extrusion width = 2.81mm
; solid infill extrusion width = 2.81mm
; top infill extrusion width = 2.50mm
; first layer extrusion width = 1.00mm

M73 P0 R1
M73 Q0 S1
M201 X3000 Y3000 Z100 E10000 ; sets maximum accelerations, mm/sec^2
M203 X200 Y200 Z12 E120 ; sets maximum feedrates, mm/sec
M204 P1250 R1250 T1250 ; sets acceleration (P, T) and retract acceleration (R), mm/sec^2
M205 X8.00 Y8.00 Z0.40 E4.50 ; sets the jerk limits, mm/sec
M205 S0 T0 ; sets the minimum extruding and travel feed rate, mm/sec
M107
M104 S200 ; set temperature
;TYPE:Custom
G90 ; use absolute coordinates
M83 ; extruder relative mode
G92 E0.0
M109 S200 ; set temperature and wait for it to be reached
G21 ; set units to millimeters
G90 ; use absolute coordinates
M83 ; use relative distances for extrusion
; Filament gcode
;LAYER_CHANGE
;Z:0.5
;HEIGHT:0.5
;BEFORE_LAYER_CHANGE
;
;WITNESS ME
;AND DELETE AFTER HERE FOR PANCAKES
;
G92 E0.0
;0.5


G1 E-0.80000 F2100.000
G1 Z0.400 F1200.000
G1 Z0.500
;AFTER_LAYER_CHANGE
;0.5
G1 Z0.900
M73 P1 R1
G1 X23.926 Y40.137
M73 P8 R0
M73 Q8 S0
G1 Z0.500
G1 E0.80000 F2100.000
;TYPE:External perimeter
;WIDTH:1
M73 P9 R0
G1 F1200.000
G1 X23.694 Y39.834 E0.07082
G1 X23.492 Y39.469 E0.07744
M73 Q9 S0
G1 X23.319 Y39.077 E0.07947
G1 X23.132 Y38.417 E0.12734
G1 X23.035 Y37.875 E0.10212
G1 X22.985 Y37.339 E0.09987
G1 X22.981 Y36.808 E0.09855
G1 X23.021 Y36.283 E0.09768
G1 X23.100 Y35.767 E0.09703
G1 X23.217 Y35.258 E0.09689
G1 X23.368 Y34.757 E0.09713
G1 X23.551 Y34.264 E0.09754
G1 X23.768 Y33.772 E0.09979
M73 P10 R0
G1 X23.911 Y33.506 E0.05599
M73 Q10 S0
G1 X24.247 Y33.072 E0.10189
G1 X24.462 Y32.866 E0.05532
G1 X24.882 Y32.550 E0.09749
G1 X25.538 Y32.191 E0.13877
G1 X26.165 Y31.926 E0.12625
G1 X26.957 Y31.673 E0.15441
G1 X27.728 Y31.501 E0.14658
G1 X28.456 Y31.396 E0.13644
G1 X29.242 Y31.345 E0.14617
M73 P11 R0
G1 X30.655 Y31.372 E0.26230
M73 Q11 S0
G1 X31.808 Y31.472 E0.21473
G1 X32.892 Y31.644 E0.20369
G1 X33.921 Y31.887 E0.19614
G1 X34.430 Y32.039 E0.09858
G1 X35.261 Y32.332 E0.16350
M73 P12 R0
G1 X36.244 Y32.770 E0.19981
M73 Q12 S0
G1 X36.881 Y33.132 E0.13584
G1 X37.201 Y33.346 E0.07144
G1 X37.790 Y33.814 E0.13958
G1 X38.315 Y34.352 E0.13957
G1 X38.540 Y34.656 E0.07016
G1 X38.726 Y34.969 E0.06753
G1 X38.873 Y35.298 E0.06698
G1 X38.981 Y35.639 E0.06629
G1 X39.050 Y35.990 E0.06638
G1 X39.078 Y36.350 E0.06697
G1 X39.067 Y36.711 E0.06706
M73 P13 R0
M73 Q13 S0
G1 X39.018 Y37.074 E0.06801
G1 X38.934 Y37.434 E0.06857
G1 X38.806 Y37.842 E0.07931
G1 X38.646 Y38.231 E0.07816
G1 X38.456 Y38.601 E0.07712
G1 X38.235 Y38.949 E0.07652
G1 X37.981 Y39.280 E0.07749
G1 X37.433 Y39.838 E0.14503
G1 X36.840 Y40.335 E0.14368
G1 X36.511 Y40.581 E0.07622
G1 X35.986 Y40.908 E0.11470
G1 X35.445 Y41.184 E0.11264
G1 X34.897 Y41.415 E0.11046
M73 P14 R0
M73 Q14 S0
G1 X34.340 Y41.607 E0.10937
G1 X33.774 Y41.760 E0.10868
G1 X33.203 Y41.878 E0.10832
G1 X32.626 Y41.962 E0.10823
G1 X32.045 Y42.015 E0.10828
G1 X31.455 Y42.042 E0.10958
G1 X30.253 Y42.016 E0.22309
G1 X29.625 Y41.962 E0.11702
G1 X28.416 Y41.780 E0.22683
M73 P15 R0
M73 Q15 S0
G1 X27.228 Y41.513 E0.22599
G1 X26.061 Y41.176 E0.22536
G1 X24.736 Y40.716 E0.26021
G1 X24.534 Y40.616 E0.04178
G1 X24.200 Y40.393 E0.07461
G1 X23.555 Y40.223
M73 Q16 S0
G1 E-0.80000 F2100.000
M73 P16 R0
G1 Z0.900 F1200.000
G1 X14.832 Y35.869
M73 P18 R0
M73 Q18 S0
G1 Z0.500
G1 E0.80000 F2100.000
G1 F1200.000
G1 X14.687 Y36.141 E0.05732
G1 X14.486 Y36.309 E0.04853
G1 X14.196 Y36.413 E0.05713
G1 X12.900 Y36.437 E0.24057
G1 X12.391 Y36.423 E0.09451
M73 P19 R0
G1 X11.856 Y36.333 E0.10077
M73 Q19 S0
G1 X11.408 Y36.190 E0.08718
G1 X11.202 Y36.093 E0.04222
G1 X10.873 Y35.872 E0.07353
G1 X10.586 Y35.574 E0.07686
G1 X10.367 Y35.217 E0.07765
G1 X10.228 Y34.832 E0.07613
G1 X9.958 Y33.599 E0.23408
G1 X9.765 Y32.386 E0.22791
G1 X9.619 Y31.178 E0.22592
M73 P20 R0
M73 Q20 S0
G1 X9.481 Y29.709 E0.27379
G1 X9.372 Y28.106 E0.29821
G1 X9.309 Y26.498 E0.29859
G1 X9.300 Y24.706 E0.33251
M73 P21 R0
M73 Q21 S0
G1 X9.331 Y23.399 E0.24260
G1 X9.383 Y22.516 E0.16410
G1 X9.529 Y21.196 E0.24653
G1 X9.769 Y19.935 E0.23823
G1 X9.971 Y19.331 E0.11805
G1 X10.200 Y18.924 E0.08668
M73 P22 R0
M73 Q22 S0
G1 X10.371 Y18.705 E0.05166
G1 X10.741 Y18.371 E0.09236
G1 X11.065 Y18.159 E0.07185
G1 X11.665 Y17.861 E0.12444
G1 X11.997 Y17.740 E0.06549
G1 X12.622 Y17.578 E0.11982
G1 X13.254 Y17.484 E0.11855
G1 X13.697 Y17.449 E0.08244
G1 X13.934 Y17.436 E0.04415
G1 X14.249 Y17.481 E0.05894
G1 X14.506 Y17.636 E0.05577
G1 X14.688 Y17.881 E0.05667
G1 X14.754 Y18.196 E0.05964
G1 X14.656 Y20.102 E0.35427
M73 P23 R0
M73 Q23 S0
G1 X14.578 Y22.666 E0.47601
G1 X14.546 Y25.233 E0.47639
M73 P24 R0
M73 Q24 S0
G1 X14.550 Y27.388 E0.39988
G1 X14.586 Y29.600 E0.41041
G1 X14.644 Y31.366 E0.32790
M73 P25 R0
M73 Q25 S0
G1 X14.867 Y35.498 E0.76789
G1 X15.039 Y36.098
G1 E-0.80000 F2100.000
G1 Z0.900 F1200.000
M73 P26 R0
M73 Q26 S0
G1 X29.128 Y15.420
M73 P30 R0
M73 Q30 S0
G1 Z0.500
G1 E0.80000 F2100.000
G1 F1200.000
G1 X29.002 Y15.131 E0.05852
G1 X28.879 Y14.649 E0.09226
G1 X28.842 Y14.309 E0.06355
M73 P31 R0
M73 Q31 S0
G1 X28.814 Y13.686 E0.11572
G1 X28.863 Y12.762 E0.17176
G1 X28.967 Y12.129 E0.11894
G1 X29.087 Y11.682 E0.08600
G1 X29.209 Y11.418 E0.05389
G1 X29.467 Y11.092 E0.07712
G1 X29.814 Y10.878 E0.07565
G1 X30.237 Y10.724 E0.08351
G1 X30.823 Y10.576 E0.11213
G1 X31.271 Y10.501 E0.08443
G1 X31.944 Y10.437 E0.12541
G1 X32.490 Y10.421 E0.10133
M73 P32 R0
M73 Q32 S0
G1 X33.307 Y10.481 E0.15195
G1 X33.873 Y10.600 E0.10731
G1 X34.306 Y10.744 E0.08486
G1 X34.592 Y10.907 E0.06111
G1 X34.838 Y11.142 E0.06299
G1 X35.011 Y11.425 E0.06154
G1 X35.112 Y11.720 E0.05795
G1 X35.567 Y14.420 E0.50797
M73 P33 R0
M73 Q33 S0
G1 X36.027 Y17.527 E0.58290
G1 X36.393 Y20.278 E0.51494
M73 Q34 S0
G1 X36.514 Y21.391 E0.20793
M73 P34 R0
G1 X36.609 Y22.510 E0.20840
G1 X36.695 Y24.143 E0.30335
G1 X36.723 Y26.582 E0.45261
M73 Q35 S0
G1 X36.672 Y29.010 E0.45068
M73 P35 R0
G1 X36.615 Y30.660 E0.30645
G1 X36.559 Y30.966 E0.05776
G1 X36.438 Y31.184 E0.04614
G1 X36.243 Y31.358 E0.04857
G1 X35.984 Y31.464 E0.05194
G1 X35.656 Y31.457 E0.06086
G1 X34.817 Y31.170 E0.16459
M73 Q36 S0
G1 X34.175 Y30.976 E0.12454
M73 P36 R0
G1 X33.529 Y30.810 E0.12371
G1 X32.880 Y30.672 E0.12318
G1 X32.226 Y30.562 E0.12298
G1 X31.568 Y30.479 E0.12312
G1 X30.905 Y30.424 E0.12333
G1 X30.238 Y30.397 E0.12395
G1 X29.567 Y30.396 E0.12457
G1 X28.891 Y30.423 E0.12545
M73 Q37 S0
G1 X28.211 Y30.482 E0.12668
M73 P37 R0
G1 X27.200 Y30.640 E0.18999
G1 X26.241 Y30.889 E0.18391
G1 X25.612 Y31.117 E0.12416
G1 X25.202 Y31.299 E0.08309
G1 X24.812 Y31.499 E0.08139
G1 X24.447 Y31.717 E0.07885
G1 X24.108 Y31.955 E0.07682
G1 X23.797 Y32.213 E0.07505
G1 X23.513 Y32.494 E0.07409
M73 Q38 S0
G1 X23.257 Y32.798 E0.07385
G1 X23.029 Y33.130 E0.07471
G1 X22.828 Y33.493 E0.07705
M73 P38 R0
G1 X22.655 Y33.895 E0.08109
G1 X22.415 Y34.626 E0.14273
G1 X22.318 Y34.986 E0.06918
G1 X22.163 Y35.732 E0.14140
G1 X22.071 Y36.485 E0.14079
G1 X22.051 Y36.851 E0.06805
G1 X22.060 Y37.617 E0.14215
G1 X22.134 Y38.296 E0.12670
G1 X22.277 Y38.941 E0.12265
M73 Q39 S0
G1 X22.494 Y39.562 E0.12209
M73 P39 R0
G1 X22.622 Y39.842 E0.05726
G1 X22.955 Y40.417 E0.12311
G1 X23.346 Y40.928 E0.11949
G1 X23.535 Y41.119 E0.04987
G1 X23.740 Y41.283 E0.04864
G1 X23.959 Y41.416 E0.04763
G1 X24.222 Y41.529 E0.05308
G1 X26.098 Y42.177 E0.36835
G1 X26.557 Y42.313 E0.08890
M73 Q40 S0
G1 X27.615 Y42.577 E0.20225
M73 P40 R0
G1 X28.674 Y42.781 E0.20009
G1 X29.735 Y42.918 E0.19855
G1 X30.805 Y42.983 E0.19906
G1 X31.334 Y42.985 E0.09813
G1 X31.982 Y42.960 E0.12035
G1 X34.215 Y42.754 E0.41597
M73 P41 R0
M73 Q41 S0
G1 X33.673 Y43.992 E0.25067
G1 X33.476 Y44.248 E0.05994
G1 X33.022 Y44.736 E0.12362
G1 X32.545 Y45.178 E0.12082
G1 X32.043 Y45.579 E0.11923
G1 X31.515 Y45.936 E0.11821
M73 Q42 S0
G1 X30.963 Y46.247 E0.11755
G1 X30.388 Y46.513 E0.11769
G1 X29.788 Y46.731 E0.11828
M73 P42 R0
G1 X29.169 Y46.899 E0.11913
G1 X28.528 Y47.017 E0.12087
G1 X27.879 Y47.083 E0.12104
G1 X27.273 Y47.117 E0.11275
G1 X25.497 Y47.154 E0.32953
M73 Q43 S0
G1 X24.303 Y47.120 E0.22171
G1 X23.110 Y47.034 E0.22202
M73 P43 R0
G1 X21.908 Y46.887 E0.22462
G1 X21.316 Y46.772 E0.11201
G1 X20.745 Y46.609 E0.11009
G1 X20.203 Y46.396 E0.10806
G1 X19.693 Y46.132 E0.10654
M73 Q44 S0
G1 X19.217 Y45.818 E0.10584
G1 X18.778 Y45.452 E0.10615
G1 X18.377 Y45.037 E0.10703
M73 P44 R0
G1 X18.018 Y44.574 E0.10873
G1 X17.696 Y44.061 E0.11236
G1 X17.309 Y43.248 E0.16711
G1 X17.004 Y42.438 E0.16063
G1 X16.681 Y41.354 E0.21000
G1 X16.548 Y40.796 E0.10648
M73 Q45 S0
G1 X16.342 Y39.749 E0.19793
G1 X16.110 Y38.184 E0.29353
M73 P45 R0
G1 X15.988 Y37.139 E0.19538
G1 X15.839 Y35.578 E0.29093
G1 X15.724 Y34.090 E0.27699
M73 Q46 S0
G1 X15.634 Y32.599 E0.27707
M73 P46 R0
G1 X15.540 Y30.364 E0.41511
G1 X15.477 Y27.147 E0.59722
M73 Q47 S0
G1 X15.473 Y25.174 E0.36600
M73 P47 R0
G1 X15.495 Y23.201 E0.36620
G1 X15.547 Y21.228 E0.36635
M73 Q48 S0
G1 X15.631 Y19.252 E0.36690
M73 P48 R0
G1 X15.844 Y15.939 E0.61610
M73 Q49 S0
G1 X16.023 Y14.186 E0.32712
G1 X16.188 Y13.014 E0.21949
M73 P49 R0
G1 X16.397 Y11.799 E0.22892
G1 X16.491 Y11.431 E0.07042
G1 X16.647 Y11.043 E0.07759
G1 X16.890 Y10.668 E0.08300
G1 X17.376 Y10.154 E0.13114
M73 Q50 S0
G1 X17.917 Y9.725 E0.12823
G1 X18.514 Y9.382 E0.12771
G1 X19.158 Y9.138 E0.12786
M73 P50 R0
G1 X19.840 Y9.009 E0.12877
G1 X20.538 Y9.007 E0.12963
G1 X21.245 Y9.129 E0.13311
G1 X21.947 Y9.399 E0.13954
G1 X22.618 Y9.819 E0.14684
M73 Q51 S0
G1 X23.251 Y10.393 E0.15859
G1 X23.437 Y10.651 E0.05899
G1 X23.545 Y11.023 E0.07188
G1 X23.589 Y13.154 E0.39557
M73 P51 R0
G1 X23.699 Y15.255 E0.39045
G1 X23.772 Y15.990 E0.13708
M73 Q52 S0
G1 X23.890 Y16.700 E0.13353
G1 X24.022 Y17.192 E0.09450
G1 X24.150 Y17.449 E0.05326
G1 X24.293 Y17.607 E0.03957
G1 X24.500 Y17.710 E0.04277
G1 X24.620 Y17.740 E0.02302
G1 X24.860 Y17.750 E0.04449
G1 X25.129 Y17.708 E0.05055
M73 P52 R0
G1 X27.703 Y16.956 E0.49758
G1 X28.208 Y16.830 E0.09664
M73 Q53 S0
G1 X28.742 Y16.736 E0.10071
G1 X29.285 Y16.709 E0.10078
G1 X29.762 Y16.716 E0.08859
G1 X30.226 Y16.666 E0.08664
G1 X30.741 Y16.642 E0.09567
G1 X31.081 Y16.652 E0.06313
M73 P53 R0
G1 X31.182 Y16.228 E0.08080
G1 X30.880 Y16.087 E0.06180
G1 X30.375 Y15.925 E0.09842
G1 X29.570 Y15.761 E0.15256
G1 X29.399 Y15.671 E0.03579
G1 X28.816 Y15.466
M73 Q54 S0
G1 E-0.80000 F2100.000
G1 Z0.900 F1200.000
M73 P54 R0
G1 X27.817 Y15.211
G1 Z0.500
G1 E0.80000 F2100.000
M73 Q55 S0
G1 F1200.000
G1 X27.879 Y14.865 E0.06514
G1 X27.931 Y13.210 E0.30732
M73 P55 R0
G1 X28.000 Y12.396 E0.15159
G1 X28.067 Y12.014 E0.07202
G1 X28.158 Y11.650 E0.06965
G1 X28.271 Y11.318 E0.06498
G1 X28.411 Y11.023 E0.06067
G1 X28.580 Y10.757 E0.05851
G1 X28.780 Y10.518 E0.05778
G1 X29.009 Y10.305 E0.05796
G1 X29.268 Y10.120 E0.05918
M73 Q56 S0
G1 X29.563 Y9.965 E0.06186
G1 X29.910 Y9.837 E0.06866
G1 X30.558 Y9.672 E0.12390
G1 X31.305 Y9.542 E0.14073
G1 X32.103 Y9.465 E0.14893
M73 P56 R0
G1 X32.914 Y9.459 E0.15033
G1 X33.692 Y9.536 E0.14521
G1 X34.400 Y9.705 E0.13511
G1 X34.999 Y9.969 E0.12142
G1 X35.466 Y10.323 E0.10873
M73 Q57 S0
G1 X35.802 Y10.783 E0.10576
G1 X36.023 Y11.438 E0.12821
G1 X36.536 Y14.441 E0.56539
M73 P57 R0
G1 X36.899 Y16.896 E0.46058
M73 Q58 S0
G1 X37.368 Y20.541 E0.68194
M73 P58 R0
G1 X37.575 Y22.764 E0.41431
M73 Q59 S0
G1 X37.650 Y24.430 E0.30947
G1 X37.666 Y26.529 E0.38946
M73 P59 R0
G1 X37.635 Y28.630 E0.38996
M73 Q60 S0
G1 X37.505 Y31.598 E0.55129
M73 P60 R0
G1 X37.532 Y31.920 E0.05999
G1 X37.632 Y32.249 E0.06383
G1 X37.801 Y32.537 E0.06198
G1 X37.928 Y32.688 E0.03655
G1 X38.703 Y33.381 E0.19292
G1 X39.148 Y33.892 E0.12574
M73 Q61 S0
G1 X39.500 Y34.428 E0.11894
G1 X39.763 Y34.986 E0.11457
G1 X39.938 Y35.566 E0.11232
G1 X40.025 Y36.165 E0.11231
G1 X40.025 Y36.782 E0.11451
M73 P61 R0
G1 X39.934 Y37.415 E0.11878
G1 X39.749 Y38.064 E0.12512
G1 X39.466 Y38.725 E0.13341
G1 X39.239 Y39.123 E0.08518
G1 X38.981 Y39.489 E0.08301
M73 Q62 S0
G1 X38.701 Y39.826 E0.08127
G1 X38.069 Y40.466 E0.16697
G1 X36.962 Y41.395 E0.26812
G1 X36.569 Y41.754 E0.09886
M73 P62 R0
G1 X36.182 Y42.155 E0.10335
G1 X35.530 Y42.949 E0.19068
G1 X34.385 Y44.536 E0.36318
M73 Q63 S0
G1 X34.105 Y44.893 E0.08417
G1 X33.498 Y45.578 E0.16975
G1 X33.180 Y45.876 E0.08097
G1 X32.740 Y46.237 E0.10562
M73 P63 R0
G1 X32.278 Y46.564 E0.10504
G1 X31.797 Y46.861 E0.10484
G1 X31.299 Y47.124 E0.10447
G1 X30.786 Y47.354 E0.10442
G1 X30.258 Y47.552 E0.10464
G1 X29.716 Y47.716 E0.10507
M73 Q64 S0
G1 X29.163 Y47.847 E0.10542
G1 X28.600 Y47.946 E0.10606
G1 X28.024 Y48.011 E0.10759
G1 X26.731 Y48.092 E0.24036
M73 P64 R0
G1 X26.091 Y48.109 E0.11884
G1 X24.795 Y48.097 E0.24058
G1 X24.157 Y48.067 E0.11849
G1 X22.869 Y47.955 E0.23998
M73 Q65 S0
G1 X21.588 Y47.774 E0.24000
G1 X20.700 Y47.574 E0.16891
G1 X20.278 Y47.441 E0.08209
M73 P65 R0
G1 X19.872 Y47.285 E0.08074
G1 X19.481 Y47.104 E0.07998
G1 X19.107 Y46.897 E0.07935
G1 X18.748 Y46.664 E0.07946
G1 X18.405 Y46.403 E0.08000
G1 X18.078 Y46.112 E0.08121
M73 Q66 S0
G1 X17.764 Y45.788 E0.08367
G1 X17.526 Y45.505 E0.06866
G1 X17.082 Y44.877 E0.14278
G1 X16.894 Y44.563 E0.06783
G1 X16.544 Y43.875 E0.14324
G1 X16.395 Y43.530 E0.06978
G1 X16.121 Y42.792 E0.14599
M73 P66 R0
G1 X15.795 Y41.686 E0.21401
G1 X15.619 Y40.958 E0.13897
G1 X15.424 Y39.988 E0.18365
M73 Q67 S0
G1 X15.347 Y39.145 E0.15712
G1 X15.264 Y38.578 E0.10630
G1 X15.176 Y38.262 E0.06093
G1 X15.029 Y37.940 E0.06569
G1 X14.779 Y37.630 E0.07395
G1 X14.429 Y37.415 E0.07616
M73 P67 R0
G1 X14.068 Y37.330 E0.06884
G1 X13.758 Y37.314 E0.05753
G1 X12.165 Y37.338 E0.29574
G1 X11.789 Y37.299 E0.07001
M73 Q68 S0
G1 X11.409 Y37.198 E0.07307
G1 X11.043 Y37.066 E0.07218
G1 X10.714 Y36.909 E0.06762
G1 X10.421 Y36.727 E0.06402
G1 X10.161 Y36.519 E0.06185
G1 X9.930 Y36.282 E0.06135
G1 X9.727 Y36.013 E0.06246
G1 X9.551 Y35.707 E0.06550
G1 X9.403 Y35.358 E0.07039
G1 X9.280 Y34.953 E0.07860
M73 P68 R0
G1 X9.123 Y34.263 E0.13126
G1 X8.987 Y33.556 E0.13363
G1 X8.819 Y32.476 E0.20277
M73 Q69 S0
G1 X8.683 Y31.384 E0.20426
G1 X8.574 Y30.302 E0.20178
G1 X8.417 Y28.121 E0.40587
M73 P69 R0
G1 X8.355 Y26.485 E0.30376
M73 Q70 S0
G1 X8.341 Y25.339 E0.21274
G1 X8.370 Y23.536 E0.33463
G1 X8.441 Y22.348 E0.22085
M73 P70 R0
G1 X8.496 Y21.764 E0.10873
G1 X8.657 Y20.587 E0.22057
G1 X8.763 Y20.018 E0.10735
M73 Q71 S0
G1 X8.883 Y19.536 E0.09211
G1 X9.036 Y19.108 E0.08437
G1 X9.223 Y18.719 E0.08008
G1 X9.443 Y18.369 E0.07677
G1 X9.696 Y18.052 E0.07534
G1 X9.986 Y17.765 E0.07571
G1 X10.314 Y17.506 E0.07748
G1 X10.681 Y17.274 E0.08055
G1 X11.090 Y17.068 E0.08494
M73 P71 R0
G1 X11.544 Y16.889 E0.09065
G1 X12.010 Y16.746 E0.09044
G1 X12.485 Y16.635 E0.09060
G1 X12.968 Y16.559 E0.09061
M73 Q72 S0
G1 X13.460 Y16.514 E0.09165
G1 X14.182 Y16.491 E0.13409
G1 X14.487 Y16.392 E0.05959
G1 X14.746 Y16.161 E0.06444
G1 X14.858 Y15.966 E0.04170
G1 X14.921 Y15.727 E0.04576
G1 X15.119 Y13.845 E0.35132
M73 P72 R0
G1 X15.268 Y12.807 E0.19460
G1 X15.434 Y11.920 E0.16729
M73 Q73 S0
G1 X15.562 Y11.351 E0.10833
G1 X15.728 Y10.826 E0.10213
G1 X15.869 Y10.510 E0.06422
G1 X15.936 Y10.392 E0.02523
G1 X16.494 Y9.647 E0.17268
G1 X17.144 Y9.061 E0.16248
G1 X17.882 Y8.612 E0.16018
G1 X18.686 Y8.302 E0.16000
M73 P73 R0
G1 X19.538 Y8.130 E0.16131
M73 Q74 S0
G1 X20.419 Y8.099 E0.16356
G1 X21.281 Y8.212 E0.16133
G1 X22.130 Y8.469 E0.16459
G1 X22.929 Y8.865 E0.16544
G1 X23.667 Y9.408 E0.17014
G1 X23.835 Y9.574 E0.04373
M73 P74 R0
G1 X23.990 Y9.763 E0.04533
G1 X24.237 Y10.183 E0.09041
G1 X24.431 Y10.700 E0.10248
G1 X24.498 Y10.959 E0.04971
M73 Q75 S0
G1 X24.601 Y11.565 E0.11408
G1 X24.670 Y12.612 E0.19466
G1 X24.667 Y14.922 E0.42859
G1 X24.706 Y15.667 E0.13850
M73 P75 R0
G1 X24.753 Y15.993 E0.06118
G1 X24.845 Y16.219 E0.04515
G1 X25.068 Y16.463 E0.06143
G1 X25.376 Y16.572 E0.06064
G1 X25.609 Y16.572 E0.04328
M73 Q76 S0
G1 X26.731 Y16.278 E0.21523
G1 X26.991 Y16.184 E0.05132
G1 X27.257 Y16.040 E0.05616
G1 X27.510 Y15.819 E0.06226
G1 X27.681 Y15.560 E0.05769
G1 X28.160 Y15.139
G1 X28.422 Y15.359
