; generated by PrusaSlicer 2.3.3+win64 on 2022-02-06 at 00:09:20 UTC

; 

; external perimeters extrusion width = 6.75mm
; perimeters extrusion width = 6.75mm
; infill extrusion width = 6.75mm
; solid infill extrusion width = 6.75mm
; top infill extrusion width = 6.00mm
; first layer extrusion width = 2.00mm

M73 P0 R0
M73 Q0 S0
M201 X400 Y400 Z400 E400 ; sets maximum accelerations, mm/sec^2
M203 X40 Y40 Z40 E50 ; sets maximum feedrates, mm/sec
M204 P400 R400 T400 ; sets acceleration (P, T) and retract acceleration (R), mm/sec^2
M205 X8.00 Y8.00 Z0.40 E4.50 ; sets the jerk limits, mm/sec
M205 S0 T0 ; sets the minimum extruding and travel feed rate, mm/sec
M107
M104 S200 ; set temperature
;TYPE:Custom
G90 ; use absolute coordinates
G28
M83 ; extruder relative mode
G92 E0.0
M109 S200 ; set temperature and wait for it to be reached
G21 ; set units to millimeters
G90 ; use absolute coordinates
M82 ; use absolute distances for extrusion
G92 E0
; Filament gcode
;LAYER_CHANGE
;Z:1
;HEIGHT:1
;BEFORE_LAYER_CHANGE
;
;WITNESS ME
;AND DELETE AFTER HERE FOR PANCAKES
;
G92 E0.0
;1


G1 Z1.000 F1200.000
;AFTER_LAYER_CHANGE
;1
G1 X25.097 Y16.319
;TYPE:External perimeter
;WIDTH:2.57445
M73 P10 R0
M73 Q10 S0
G1 F900.000
G1 X25.262 Y16.701 E0.40772
;WIDTH:2.56761
G1 X25.273 Y16.725 E0.43385
;WIDTH:2.56565
G1 X25.313 Y16.806 E0.52231
;WIDTH:2.56354
G1 X25.447 Y17.066 E0.80797
;WIDTH:2.56355
M73 P11 R0
M73 Q11 S0
G1 X25.520 Y17.196 E0.95387
;WIDTH:2.55443
G1 X25.579 Y17.296 E1.06680
;WIDTH:2.55796
G1 X25.646 Y17.404 E1.19034
;WIDTH:2.55796
G1 X25.818 Y17.659 E1.48993
;WIDTH:2.54709
G1 X25.859 Y17.717 E1.55854
;WIDTH:2.54673
G1 X25.921 Y17.793 E1.65369
;WIDTH:2.55379
G1 X26.094 Y17.996 E1.91360
;WIDTH:2.55379
G1 X26.204 Y18.113 E2.06961
;WIDTH:2.54991
G1 X26.344 Y18.251 E2.26065
;WIDTH:2.55062
G1 X26.363 Y18.267 E2.28386
;WIDTH:2.56383
G1 X26.619 Y18.474 E2.60555
;WIDTH:2.56383
G1 X26.699 Y18.532 E2.70268
;WIDTH:2.56301
G1 X26.861 Y18.640 E2.89305
;WIDTH:2.56971
M73 P12 R0
M73 Q12 S0
G1 X26.914 Y18.673 E2.95350
;WIDTH:2.57144
G1 X27.054 Y18.749 E3.10950
;WIDTH:2.57615
G1 X27.136 Y18.792 E3.20103
;WIDTH:2.58656
G1 X27.240 Y18.843 E3.31523
;WIDTH:2.58656
G1 X27.584 Y18.992 E3.68440
;WIDTH:2.58362
G1 X27.598 Y18.998 E3.69976
;WIDTH:2.5836
G1 X27.647 Y19.016 E3.75120
;WIDTH:2.58039
G1 X28.103 Y19.176 E4.22639
;WIDTH:2.56135
G1 X28.175 Y19.200 E4.30015
;WIDTH:2.564
G1 X28.296 Y19.238 E4.42478
;WIDTH:2.564
G1 X28.626 Y19.332 E4.75930
;WIDTH:2.55423
G1 X28.633 Y19.334 E4.76657
;WIDTH:2.55357
G1 X28.709 Y19.352 E4.84242
;WIDTH:2.54934
G1 X29.171 Y19.453 E5.30176
;WIDTH:2.54076
M73 P13 R0
M73 Q13 S0
G1 X29.254 Y19.470 E5.38383
;WIDTH:2.5453
G1 X29.340 Y19.485 E5.46824
;WIDTH:2.5453
G1 X29.719 Y19.538 E5.83930
;WIDTH:2.5341
G1 X29.809 Y19.548 E5.92654
;WIDTH:2.54595
G1 X30.061 Y19.573 E6.17147
;WIDTH:2.54595
G1 X30.278 Y19.587 E6.38260
;WIDTH:2.54371
G1 X30.373 Y19.591 E6.47458
;WIDTH:2.54487
G1 X30.392 Y19.592 E6.49271
;WIDTH:2.54487
G1 X30.845 Y19.588 E6.93232
;WIDTH:2.54682
G1 X30.945 Y19.584 E7.02922
;WIDTH:2.56115
G1 X31.121 Y19.575 E7.20065
G1 X31.422 Y19.545 E7.49616
;WIDTH:2.5589
M73 P14 R0
M73 Q14 S0
G1 X31.521 Y19.533 E7.59277
;WIDTH:2.5748
G1 X31.750 Y19.500 E7.82032
;WIDTH:2.57481
G1 X32.001 Y19.449 E8.07120
;WIDTH:2.56502
G1 X32.106 Y19.426 E8.17619
;WIDTH:2.57741
G1 X32.342 Y19.367 E8.41489
;WIDTH:2.57742
G1 X32.635 Y19.276 E8.71718
;WIDTH:2.55651
G1 X32.772 Y19.228 E8.85788
;WIDTH:2.56442
G1 X32.920 Y19.172 E9.01288
G1 X33.049 Y19.116 E9.15040
;WIDTH:2.56103
G1 X33.155 Y19.066 E9.26465
;WIDTH:2.56102
G1 X33.157 Y19.065 E9.26630
;WIDTH:2.56097
G1 X33.535 Y18.854 E9.68857
;WIDTH:2.55683
M73 P15 R0
M73 Q15 S0
G1 X33.694 Y18.757 E9.86991
;WIDTH:2.55841
G1 X33.704 Y18.750 E9.88185
;WIDTH:2.56711
G1 X33.914 Y18.595 E10.13722
;WIDTH:2.56807
G1 X33.932 Y18.582 E10.15902
;WIDTH:2.57735
G1 X34.060 Y18.470 E10.32607
;WIDTH:2.58893
G1 X34.127 Y18.408 E10.41640
;WIDTH:2.595
G1 X34.252 Y18.278 E10.59473
;WIDTH:2.59756
G1 X34.285 Y18.244 E10.64203
;WIDTH:2.60438
G1 X34.396 Y18.100 E10.82193
;WIDTH:2.60438
G1 X34.410 Y18.077 E10.84932
;WIDTH:2.60327
G1 X34.560 Y17.816 E11.14822
;WIDTH:2.59462
G1 X34.614 Y17.702 E11.27303
;WIDTH:2.56949
G1 X34.701 Y17.493 E11.49489
;WIDTH:2.54615
G1 X34.951 Y16.790 E12.21759
;WIDTH:2.54226
M73 P16 R0
M73 Q16 S0
G1 X34.966 Y16.747 E12.26217
;WIDTH:2.56491
G1 X35.181 Y16.106 E12.92262
;WIDTH:2.56491
G1 X35.326 Y15.625 E13.41377
;WIDTH:2.55073
G1 X35.343 Y15.565 E13.47402
;WIDTH:2.56774
G1 X35.523 Y14.902 E14.14638
;WIDTH:2.56774
M73 P17 R0
M73 Q17 S0
G1 X35.637 Y14.430 E14.62157
;WIDTH:2.55082
G1 X35.649 Y14.374 E14.67656
;WIDTH:2.55718
G1 X35.756 Y13.876 E15.17312
;WIDTH:2.55718
G1 X35.770 Y13.801 E15.24724
;WIDTH:2.55383
G1 X35.781 Y13.737 E15.31067
;WIDTH:2.56351
G1 X35.922 Y12.834 E16.20287
;WIDTH:2.56351
M73 P18 R0
M73 Q18 S0
G1 X35.956 Y12.577 E16.45616
;WIDTH:2.55416
G1 X35.964 Y12.504 E16.52717
;WIDTH:2.5582
G1 X35.981 Y12.339 E16.68945
;WIDTH:2.55821
G1 X36.012 Y11.916 E17.10188
;WIDTH:2.5469
G1 X36.015 Y11.864 E17.15307
;WIDTH:2.55723
G1 X36.044 Y11.297 E17.70545
;WIDTH:2.55723
G1 X36.044 Y11.270 E17.73167
;WIDTH:2.5557
G1 X36.044 Y11.196 E17.80370
;WIDTH:2.56019
G1 X36.026 Y10.259 E18.71844
;WIDTH:2.56019
M73 P19 R0
M73 Q19 S0
G1 X36.017 Y10.086 E18.88747
;WIDTH:2.54873
G1 X36.011 Y10.004 E18.96650
;WIDTH:2.54822
G1 X35.961 Y9.458 E19.49837
;WIDTH:2.55011
G1 X35.955 Y9.396 E19.55878
;WIDTH:2.5666
G1 X35.921 Y9.109 E19.84161
;WIDTH:2.60886
G1 X35.905 Y8.854 E20.09654
;WIDTH:2.63202
G1 X35.905 Y8.783 E20.16730
;WIDTH:2.68045
G1 X35.913 Y8.702 E20.25044
;WIDTH:2.72888
G1 X35.921 Y8.622 E20.33522
;WIDTH:2.77731
G1 X35.929 Y8.541 E20.42162
;WIDTH:2.82574
G1 X35.937 Y8.460 E20.50966
;WIDTH:2.87417
M73 P20 R0
M73 Q20 S0
G1 X35.945 Y8.380 E20.59933
;WIDTH:2.9226
G1 X35.953 Y8.299 E20.69064
;WIDTH:2.97103
G1 X35.962 Y8.218 E20.78357
;WIDTH:3.01145
G1 X35.971 Y8.171 E20.83914
;WIDTH:3.05187
G1 X35.981 Y8.125 E20.89551
;WIDTH:3.1009
G1 X35.994 Y8.080 E20.95192
;WIDTH:3.14993
G1 X36.007 Y8.034 E21.00929
;WIDTH:3.19895
G1 X36.020 Y7.989 E21.06761
;WIDTH:3.24798
G1 X36.033 Y7.944 E21.12689
;WIDTH:3.297
G1 X36.047 Y7.899 E21.18713
;WIDTH:3.34603
G1 X36.060 Y7.854 E21.24833
;WIDTH:3.39506
G1 X36.073 Y7.809 E21.31049
;WIDTH:3.44408
G1 X36.086 Y7.764 E21.37361
;WIDTH:3.49311
G1 X36.099 Y7.719 E21.43768
;WIDTH:3.54213
G1 X36.112 Y7.673 E21.50271
;WIDTH:3.59116
G1 X36.126 Y7.628 E21.56870
;WIDTH:3.64018
G1 X36.139 Y7.583 E21.63565
;WIDTH:3.64018
G1 X36.204 Y7.601 E21.73209
;WIDTH:3.59148
G1 X36.269 Y7.619 E21.82716
;WIDTH:3.54277
G1 X36.335 Y7.636 E21.92086
;WIDTH:3.49407
G1 X36.400 Y7.654 E22.01318
;WIDTH:3.44536
G1 X36.465 Y7.672 E22.10414
;WIDTH:3.39666
G1 X36.531 Y7.690 E22.19372
;WIDTH:3.34795
G1 X36.596 Y7.708 E22.28194
;WIDTH:3.29925
G1 X36.661 Y7.725 E22.36878
;WIDTH:3.25054
G1 X36.727 Y7.743 E22.45425
;WIDTH:3.20184
G1 X36.792 Y7.761 E22.53835
;WIDTH:3.15313
G1 X36.857 Y7.779 E22.62108
;WIDTH:3.10443
G1 X36.923 Y7.796 E22.70244
;WIDTH:3.05572
G1 X36.988 Y7.814 E22.78242
;WIDTH:3.00702
G1 X37.053 Y7.832 E22.86104
;WIDTH:2.95831
G1 X37.119 Y7.850 E22.93828
;WIDTH:2.90961
G1 X37.184 Y7.868 E23.01416
;WIDTH:2.8609
G1 X37.249 Y7.885 E23.08866
;WIDTH:2.8122
G1 X37.315 Y7.903 E23.16179
;WIDTH:2.76349
G1 X37.380 Y7.921 E23.23355
;WIDTH:2.71479
M73 P21 R0
M73 Q21 S0
G1 X37.446 Y7.939 E23.30393
;WIDTH:2.66608
G1 X37.511 Y7.956 E23.37295
;WIDTH:2.61737
G1 X37.576 Y7.974 E23.44060
;WIDTH:2.56867
G1 X37.642 Y7.992 E23.50687
;WIDTH:2.51997
G1 X37.792 Y8.087 E23.67767
;WIDTH:2.49553
G1 X38.027 Y8.258 E23.95282
;WIDTH:2.51163
G1 X38.150 Y8.360 E24.10587
;WIDTH:2.52732
G1 X38.563 Y8.735 E24.64171
;WIDTH:2.53279
G1 X38.624 Y8.793 E24.72315
;WIDTH:2.55552
G1 X38.785 Y8.950 E24.94201
;WIDTH:2.55834
G1 X39.040 Y9.224 E25.30719
;WIDTH:2.55867
G1 X39.054 Y9.239 E25.32690
;WIDTH:2.55867
G1 X39.096 Y9.290 E25.39077
;WIDTH:2.56326
M73 P22 R0
M73 Q22 S0
G1 X39.392 Y9.656 E25.85100
;WIDTH:2.56326
G1 X39.463 Y9.750 E25.96598
;WIDTH:2.55669
G1 X39.517 Y9.825 E26.05584
;WIDTH:2.56266
G1 X39.702 Y10.092 E26.37260
;WIDTH:2.56266
G1 X39.841 Y10.308 E26.62349
;WIDTH:2.55177
G1 X39.890 Y10.387 E26.71414
;WIDTH:2.55843
G1 X39.984 Y10.545 E26.89324
;WIDTH:2.55843
G1 X40.172 Y10.890 E27.27637
;WIDTH:2.54867
G1 X40.216 Y10.975 E27.36877
;WIDTH:2.55103
G1 X40.236 Y11.014 E27.41155
;WIDTH:2.55103
G1 X40.456 Y11.498 E27.92815
;WIDTH:2.54515
M73 P23 R0
M73 Q23 S0
G1 X40.456 Y11.499 E27.92900
;WIDTH:2.54515
G1 X40.492 Y11.590 E28.02405
;WIDTH:2.5464
G1 X40.643 Y12.000 E28.44699
;WIDTH:2.5464
G1 X40.688 Y12.135 E28.58498
;WIDTH:2.53888
G1 X40.717 Y12.227 E28.67818
;WIDTH:2.54681
G1 X40.799 Y12.514 E28.96748
;WIDTH:2.54681
G1 X40.869 Y12.791 E29.24462
;WIDTH:2.53859
G1 X40.891 Y12.884 E29.33687
;WIDTH:2.54657
G1 X40.924 Y13.039 E29.49053
;WIDTH:2.54657
G1 X41.001 Y13.468 E29.91296
;WIDTH:2.5455
M73 P24 R0
M73 Q24 S0
G1 X41.016 Y13.561 E30.00454
;WIDTH:2.54564
G1 X41.016 Y13.563 E30.00645
;WIDTH:2.54564
G1 X41.075 Y14.166 E30.59369
;WIDTH:2.54194
G1 X41.080 Y14.239 E30.66423
;WIDTH:2.57053
G1 X41.115 Y14.769 E31.18430
;WIDTH:2.57805
G1 X41.143 Y15.385 E31.79100
;WIDTH:2.57805
G1 X41.159 Y15.981 E32.37602
;WIDTH:2.56392
M73 P25 R0
M73 Q25 S0
G1 X41.160 Y16.035 E32.42893
;WIDTH:2.57788
G1 X41.162 Y16.660 E33.04362
;WIDTH:2.57788
G1 X41.151 Y17.197 E33.57133
;WIDTH:2.56335
G1 X41.149 Y17.247 E33.61961
;WIDTH:2.57338
G1 X41.121 Y17.933 E34.29290
M73 P26 R0
M73 Q26 S0
G1 X41.091 Y18.409 E34.76052
;WIDTH:2.56177
G1 X41.088 Y18.449 E34.80023
;WIDTH:2.56251
G1 X41.080 Y18.549 E34.89750
G1 X41.033 Y19.029 E35.36875
;WIDTH:2.54848
G1 X41.028 Y19.072 E35.41113
;WIDTH:2.55436
G1 X40.940 Y19.823 E36.14678
;WIDTH:2.55436
G1 X40.883 Y20.231 E36.54663
;WIDTH:2.54154
M73 P27 R0
M73 Q27 S0
G1 X40.871 Y20.311 E36.62501
;WIDTH:2.54636
G1 X40.849 Y20.436 E36.74838
;WIDTH:2.54636
G1 X40.768 Y20.851 E37.15818
;WIDTH:2.54494
G1 X40.764 Y20.868 E37.17534
;WIDTH:2.54494
G1 X40.744 Y20.950 E37.25680
;WIDTH:2.55484
G1 X40.655 Y21.280 E37.58908
;WIDTH:2.55484
G1 X40.601 Y21.459 E37.77180
;WIDTH:2.55217
G1 X40.566 Y21.565 E37.88006
;WIDTH:2.56007
G1 X40.528 Y21.674 E37.99221
;WIDTH:2.56248
G1 X40.384 Y22.044 E38.38029
;WIDTH:2.56255
G1 X40.381 Y22.051 E38.38717
;WIDTH:2.56255
G1 X40.333 Y22.155 E38.49919
;WIDTH:2.57443
G1 X40.208 Y22.410 E38.77785
;WIDTH:2.57443
M73 P28 R0
M73 Q28 S0
G1 X40.106 Y22.601 E38.99056
;WIDTH:2.57232
G1 X40.045 Y22.710 E39.11258
;WIDTH:2.5765
G1 X40.018 Y22.754 E39.16386
;WIDTH:2.57941
G1 X39.802 Y23.083 E39.54995
;WIDTH:2.57941
G1 X39.774 Y23.123 E39.59904
;WIDTH:2.57606
G1 X39.696 Y23.227 E39.72643
;WIDTH:2.58372
G1 X39.562 Y23.395 E39.93813
;WIDTH:2.58372
G1 X39.379 Y23.608 E40.21385
;WIDTH:2.57645
G1 X39.298 Y23.697 E40.33280
;WIDTH:2.57644
G1 X39.291 Y23.704 E40.34193
;WIDTH:2.5772
G1 X38.999 Y23.986 E40.74138
;WIDTH:2.5772
G1 X38.929 Y24.049 E40.83383
;WIDTH:2.57079
M73 P29 R0
M73 Q29 S0
G1 X38.833 Y24.131 E40.95658
;WIDTH:2.57318
G1 X38.747 Y24.201 E41.06582
;WIDTH:2.57318
G1 X38.423 Y24.440 E41.46027
;WIDTH:2.55611
G1 X38.328 Y24.508 E41.57440
;WIDTH:2.56829
G1 X38.147 Y24.628 E41.78710
;WIDTH:2.56829
G1 X37.879 Y24.793 E42.09496
;WIDTH:2.56194
G1 X37.869 Y24.799 E42.10620
;WIDTH:2.56176
G1 X37.780 Y24.846 E42.20406
;WIDTH:2.56102
G1 X37.285 Y25.096 E42.74561
;WIDTH:2.5649
G1 X37.204 Y25.135 E42.83289
;WIDTH:2.56547
G1 X37.185 Y25.142 E42.85302
;WIDTH:2.57732
G1 X36.885 Y25.266 E43.17165
;WIDTH:2.57732
M73 P30 R0
M73 Q30 S0
G1 X36.176 Y25.535 E43.91696
;WIDTH:2.56569
G1 X36.173 Y25.536 E43.91950
;WIDTH:2.56547
G1 X36.104 Y25.559 E43.99123
;WIDTH:2.56155
G1 X35.585 Y25.718 E44.52052
;WIDTH:2.54959
G1 X35.531 Y25.734 E44.57477
;WIDTH:2.56121
G1 X35.095 Y25.856 E45.01647
;WIDTH:2.56121
G1 X34.746 Y25.945 E45.36858
;WIDTH:2.55303
M73 P31 R0
M73 Q31 S0
G1 X34.678 Y25.961 E45.43631
;WIDTH:2.56361
G1 X34.389 Y26.025 E45.72511
;WIDTH:2.56361
G1 X33.459 Y26.213 E46.65240
;WIDTH:2.56074
G1 X33.396 Y26.222 E46.71385
;WIDTH:2.55343
G1 X33.344 Y26.229 E46.76531
;WIDTH:2.54849
G1 X32.658 Y26.312 E47.43507
;WIDTH:2.49962
M73 P32 R0
M73 Q32 S0
G1 X32.589 Y26.322 E47.50194
;WIDTH:2.49681
G1 X32.317 Y26.363 E47.76319
;WIDTH:2.49448
G1 X32.283 Y26.368 E47.79523
;WIDTH:2.49843
G1 X32.092 Y26.395 E47.97867
;WIDTH:2.51103
G1 X31.946 Y26.419 E48.11995
;WIDTH:2.546
G1 X31.717 Y26.466 E48.34656
;WIDTH:2.58642
G1 X31.542 Y26.509 E48.52342
;WIDTH:2.61889
G1 X31.438 Y26.538 E48.63149
;WIDTH:2.65135
G1 X31.334 Y26.568 E48.74103
;WIDTH:2.67431
G1 X31.267 Y26.588 E48.81257
;WIDTH:2.69002
G1 X31.229 Y26.600 E48.85428
;WIDTH:2.73645
G1 X31.140 Y26.632 E48.95350
;WIDTH:2.78289
G1 X31.050 Y26.663 E49.05455
;WIDTH:2.82059
G1 X30.988 Y26.688 E49.12745
;WIDTH:2.85829
G1 X30.925 Y26.713 E49.20140
;WIDTH:2.89599
G1 X30.863 Y26.738 E49.27641
;WIDTH:2.94264
G1 X30.805 Y26.767 E49.34940
;WIDTH:2.98929
G1 X30.748 Y26.796 E49.42363
;WIDTH:3.03594
G1 X30.690 Y26.825 E49.49910
;WIDTH:3.08259
G1 X30.633 Y26.853 E49.57583
;WIDTH:3.12924
G1 X30.575 Y26.882 E49.65380
;WIDTH:3.17589
G1 X30.518 Y26.911 E49.73303
;WIDTH:3.22254
M73 P33 R0
M73 Q33 S0
G1 X30.460 Y26.940 E49.81350
;WIDTH:3.26919
G1 X30.403 Y26.969 E49.89521
;WIDTH:3.27347
G1 X30.399 Y26.971 E49.90145
;WIDTH:3.27347
G1 X30.400 Y27.008 E49.94773
;WIDTH:3.23164
G1 X30.401 Y27.044 E49.99337
;WIDTH:3.18982
G1 X30.403 Y27.080 E50.03839
;WIDTH:3.14799
G1 X30.404 Y27.117 E50.08277
;WIDTH:3.10616
G1 X30.406 Y27.153 E50.12652
;WIDTH:3.06434
G1 X30.406 Y27.189 E50.16926
;WIDTH:3.02441
G1 X30.407 Y27.220 E50.20578
;WIDTH:2.99004
G1 X30.408 Y27.277 E50.27122
;WIDTH:2.94139
G1 X30.410 Y27.334 E50.33550
;WIDTH:2.89274
G1 X30.411 Y27.391 E50.39864
;WIDTH:2.84409
G1 X30.412 Y27.447 E50.46064
;WIDTH:2.79544
G1 X30.414 Y27.504 E50.52149
;WIDTH:2.74679
G1 X30.415 Y27.561 E50.58119
;WIDTH:2.69814
G1 X30.416 Y27.617 E50.63974
;WIDTH:2.64949
G1 X30.416 Y27.701 E50.72475
;WIDTH:2.60521
G1 X30.415 Y27.785 E50.80822
;WIDTH:2.56092
G1 X30.413 Y27.828 E50.84990
;WIDTH:2.54123
G1 X30.412 Y27.861 E50.88218
;WIDTH:2.5263
G1 X30.407 Y28.007 E51.02190
;WIDTH:2.4811
G1 X30.407 Y28.020 E51.03486
;WIDTH:2.47863
G1 X30.399 Y28.234 E51.23610
;WIDTH:2.4415
G1 X30.399 Y28.376 E51.36777
;WIDTH:2.42587
G1 X30.408 Y28.696 E51.66217
;WIDTH:2.4112
G1 X30.409 Y28.754 E51.71478
;WIDTH:2.41096
G1 X30.409 Y28.888 E51.83751
;WIDTH:2.4133
G1 X30.410 Y28.953 E51.89661
;WIDTH:2.42956
G1 X30.418 Y29.201 E52.12535
;WIDTH:2.44362
M73 P34 R0
M73 Q34 S0
G1 X30.418 Y29.320 E52.23508
;WIDTH:2.47967
G1 X30.414 Y29.530 E52.43275
;WIDTH:2.51571
G1 X30.409 Y29.739 E52.63356
;WIDTH:2.54027
G1 X30.394 Y29.991 E52.87683
;WIDTH:2.56195
G1 X30.382 Y30.128 E53.01188
;WIDTH:2.5651
G1 X30.375 Y30.162 E53.04580
;WIDTH:2.57041
G1 X30.365 Y30.212 E53.09507
;WIDTH:2.57041
G1 X30.274 Y30.558 E53.44558
;WIDTH:2.56985
G1 X30.261 Y30.601 E53.48934
;WIDTH:2.5658
G1 X30.205 Y30.760 E53.65463
;WIDTH:2.56961
G1 X30.158 Y30.881 E53.78174
;WIDTH:2.56961
G1 X30.095 Y31.020 E53.93111
;WIDTH:2.5664
G1 X30.024 Y31.165 E54.08938
;WIDTH:2.5664
G1 X30.020 Y31.171 E54.09561
;WIDTH:2.5663
G1 X29.950 Y31.286 E54.22709
;WIDTH:2.5722
M73 P35 R0
M73 Q35 S0
G1 X29.868 Y31.410 E54.37357
;WIDTH:2.57238
G1 X29.851 Y31.431 E54.39996
;WIDTH:2.57692
G1 X29.695 Y31.624 E54.64348
;WIDTH:2.57692
G1 X29.684 Y31.635 E54.65843
;WIDTH:2.57589
G1 X29.501 Y31.813 E54.90890
;WIDTH:2.57589
G1 X29.498 Y31.815 E54.91344
;WIDTH:2.57583
G1 X29.288 Y31.976 E55.17278
;WIDTH:2.57278
G1 X29.282 Y31.980 E55.18031
;WIDTH:2.57272
G1 X29.124 Y32.076 E55.36138
;WIDTH:2.56641
G1 X29.028 Y32.130 E55.46916
;WIDTH:2.5664
G1 X29.004 Y32.142 E55.49515
;WIDTH:2.56399
G1 X28.844 Y32.211 E55.66524
;WIDTH:2.56824
G1 X28.728 Y32.257 E55.78710
;WIDTH:2.56824
G1 X28.570 Y32.309 E55.95024
;WIDTH:2.56191
G1 X28.424 Y32.352 E56.09894
;WIDTH:2.56715
G1 X28.360 Y32.369 E56.16379
;WIDTH:2.57266
G1 X28.052 Y32.439 E56.47346
;WIDTH:2.57266
M73 P36 R0
M73 Q36 S0
G1 X27.253 Y32.607 E57.27294
;WIDTH:2.55889
G1 X27.197 Y32.618 E57.32935
;WIDTH:2.56518
G1 X27.003 Y32.654 E57.52145
;WIDTH:2.56518
G1 X26.411 Y32.749 E58.10766
;WIDTH:2.55824
G1 X26.370 Y32.755 E58.14834
