; generated by PrusaSlicer 2.3.3+win64 on 2022-01-31 at 02:17:40 UTC

; 

; external perimeters extrusion width = 6.75mm
; perimeters extrusion width = 6.75mm
; infill extrusion width = 6.75mm
; solid infill extrusion width = 6.75mm
; top infill extrusion width = 6.00mm
; first layer extrusion width = 1.00mm

M73 P0 R1
M73 Q0 S1
M201 X400 Y400 Z400 E400 ; sets maximum accelerations, mm/sec^2
M203 X40 Y40 Z40 E50 ; sets maximum feedrates, mm/sec
M204 P400 R400 T400 ; sets acceleration (P, T) and retract acceleration (R), mm/sec^2
M205 X8.00 Y8.00 Z0.40 E4.50 ; sets the jerk limits, mm/sec
M205 S0 T0 ; sets the minimum extruding and travel feed rate, mm/sec
M107
M104 S200 ; set temperature
;TYPE:Custom
G90 ; use absolute coordinates
M83 ; extruder relative mode
G92 E0.0
M109 S200 ; set temperature and wait for it to be reached
G21 ; set units to millimeters
G90 ; use absolute coordinates
M82 ; use absolute distances for extrusion
G28
G92 E0
; Filament gcode
;LAYER_CHANGE
;Z:0.5
;HEIGHT:0.5
;BEFORE_LAYER_CHANGE
;
;WITNESS ME
;AND DELETE AFTER HERE FOR PANCAKES
;
G92 E0.0
;0.5


G1 Z0.500 F1200.000
;AFTER_LAYER_CHANGE
;0.5
G1 X16.613 Y33.106
;TYPE:External perimeter
;WIDTH:1
M73 P5 R1
M73 Q5 S1
G1 F900.000
G1 X16.928 Y33.039 E0.05964
G1 X18.835 Y33.137 E0.41391
M73 P6 R1
M73 Q6 S1
G1 X21.399 Y33.215 E0.88993
G1 X23.965 Y33.248 E1.36632
M73 P7 R1
M73 Q7 S1
G1 X26.120 Y33.243 E1.76620
G1 X28.332 Y33.208 E2.17661
G1 X30.097 Y33.149 E2.50444
M73 P8 R1
M73 Q8 S1
G1 X34.267 Y32.918 E3.27944
G1 X34.586 Y32.954 E3.33892
M73 P9 R1
M73 Q9 S1
G1 X34.874 Y33.106 E3.39937
G1 X35.041 Y33.307 E3.44789
G1 X35.145 Y33.598 E3.50517
G1 X35.170 Y35.141 E3.79159
G1 X35.121 Y35.670 E3.89024
G1 X34.988 Y36.209 E3.99324
G1 X34.836 Y36.570 E4.06590
G1 X34.718 Y36.765 E4.10820
G1 X34.464 Y37.072 E4.18218
G1 X34.144 Y37.319 E4.25714
M73 P10 R1
M73 Q10 S1
G1 X33.936 Y37.431 E4.30091
G1 X33.564 Y37.565 E4.37445
G1 X32.333 Y37.835 E4.60815
G1 X31.520 Y37.971 E4.76113
G1 X30.310 Y38.130 E4.98764
G1 X27.909 Y38.353 E5.43521
M73 P11 R1
M73 Q11 S1
G1 X26.304 Y38.448 E5.73352
G1 X25.228 Y38.484 E5.93321
G1 X23.440 Y38.493 E6.26518
M73 P12 R1
M73 Q12 S1
G1 X21.691 Y38.441 E6.58980
G1 X20.811 Y38.372 E6.75358
G1 X19.928 Y38.264 E6.91868
G1 X19.047 Y38.107 E7.08483
G1 X18.472 Y37.971 E7.19443
M73 P13 R1
M73 Q13 S1
G1 X18.057 Y37.819 E7.27643
M73 P13 R0
M73 Q13 S0
G1 X17.643 Y37.586 E7.36450
G1 X17.259 Y37.249 E7.45937
G1 X16.902 Y36.745 E7.57398
G1 X16.725 Y36.422 E7.64221
G1 X16.474 Y35.805 E7.76590
G1 X16.310 Y35.171 E7.88737
G1 X16.215 Y34.538 E8.00622
G1 X16.171 Y33.836 E8.13678
G92 E0
M73 P14 R0
M73 Q14 S0
G1 X29.391 Y11.178 F1200.000
M73 P17 R0
M73 Q17 S0
G1 F900.000
G1 X29.699 Y11.234 E0.05798
G1 X29.916 Y11.355 E0.10413
G1 X30.090 Y11.550 E0.15270
M73 P18 R0
M73 Q18 S0
G1 X30.196 Y11.809 E0.20464
G1 X30.189 Y12.137 E0.26550
G1 X29.903 Y12.976 E0.43008
G1 X29.708 Y13.619 E0.55462
G1 X29.542 Y14.264 E0.67834
G1 X29.404 Y14.914 E0.80152
G1 X29.294 Y15.567 E0.92450
G1 X29.211 Y16.225 E1.04762
G1 X29.156 Y16.888 E1.17094
M73 P19 R0
M73 Q19 S0
G1 X29.129 Y17.555 E1.29489
G1 X29.128 Y18.226 E1.41947
G1 X29.155 Y18.902 E1.54492
G1 X29.214 Y19.582 E1.67160
G1 X29.372 Y20.594 E1.86159
G1 X29.622 Y21.553 E2.04549
M73 P20 R0
M73 Q20 S0
G1 X29.850 Y22.182 E2.16965
G1 X30.031 Y22.591 E2.25275
G1 X30.231 Y22.981 E2.33414
G1 X30.449 Y23.346 E2.41299
G1 X30.687 Y23.685 E2.48981
G1 X30.945 Y23.996 E2.56486
G1 X31.226 Y24.280 E2.63896
G1 X31.530 Y24.537 E2.71281
G1 X31.862 Y24.765 E2.78752
G1 X32.226 Y24.965 E2.86457
G1 X32.627 Y25.138 E2.94566
G1 X33.358 Y25.378 E3.08840
M73 P21 R0
M73 Q21 S0
G1 X33.718 Y25.475 E3.15758
G1 X34.464 Y25.630 E3.29897
G1 X35.217 Y25.722 E3.43977
G1 X35.583 Y25.742 E3.50782
G1 X36.349 Y25.733 E3.64997
G1 X37.028 Y25.659 E3.77667
G1 X37.673 Y25.516 E3.89932
G1 X38.294 Y25.299 E4.02140
M73 P22 R0
M73 Q22 S0
G1 X38.575 Y25.171 E4.07866
G1 X39.149 Y24.839 E4.20178
G1 X39.660 Y24.447 E4.32127
G1 X39.851 Y24.258 E4.37114
G1 X40.015 Y24.053 E4.41978
G1 X40.148 Y23.834 E4.46740
G1 X40.261 Y23.571 E4.52048
G1 X40.910 Y21.695 E4.88883
G1 X41.045 Y21.236 E4.97773
M73 P23 R0
M73 Q23 S0
G1 X41.309 Y20.178 E5.17998
G1 X41.513 Y19.120 E5.38007
G1 X41.651 Y18.058 E5.57862
G1 X41.715 Y16.988 E5.77767
G1 X41.717 Y16.459 E5.87581
G1 X41.692 Y15.811 E5.99616
M73 P24 R0
M73 Q24 S0
G1 X41.486 Y13.579 E6.41213
G1 X42.724 Y14.120 E6.66280
G1 X42.980 Y14.317 E6.72274
G1 X43.468 Y14.771 E6.84636
M73 P25 R0
M73 Q25 S0
G1 X43.910 Y15.248 E6.96717
G1 X44.311 Y15.751 E7.08640
G1 X44.668 Y16.278 E7.20461
G1 X44.979 Y16.830 E7.32216
G1 X45.245 Y17.406 E7.43984
G1 X45.463 Y18.005 E7.55813
G1 X45.631 Y18.624 E7.67726
G1 X45.749 Y19.265 E7.79813
M73 P26 R0
M73 Q26 S0
G1 X45.815 Y19.918 E7.91997
G1 X45.884 Y21.701 E8.25104
G1 X45.876 Y22.893 E8.47236
G1 X45.817 Y24.083 E8.69345
G1 X45.766 Y24.686 E8.80575
M73 P27 R0
M73 Q27 S0
G1 X45.619 Y25.885 E9.02982
G1 X45.505 Y26.478 E9.14183
G1 X45.341 Y27.048 E9.25192
G1 X45.129 Y27.590 E9.35998
G1 X44.865 Y28.100 E9.46652
G1 X44.550 Y28.576 E9.57236
G1 X44.185 Y29.016 E9.67851
G1 X43.769 Y29.416 E9.78554
M73 P28 R0
M73 Q28 S0
G1 X43.306 Y29.775 E9.89427
G1 X42.798 Y30.094 E10.00568
G1 X42.245 Y30.371 E10.12039
G1 X41.177 Y30.787 E10.33302
G1 X40.627 Y30.962 E10.44023
G1 X39.804 Y31.182 E10.59828
G1 X38.481 Y31.451 E10.84878
M73 P29 R0
M73 Q29 S0
G1 X36.393 Y31.748 E11.24017
G1 X33.567 Y32.015 E11.76691
M73 P30 R0
M73 Q30 S0
G1 X31.332 Y32.160 E12.18262
G1 X28.353 Y32.274 E12.73587
M73 P31 R0
M73 Q31 S0
G1 X24.894 Y32.321 E13.37779
G1 X22.920 Y32.313 E13.74399
M73 P32 R0
M73 Q32 S0
G1 X20.946 Y32.276 E14.11050
G1 X17.986 Y32.162 E14.66023
M73 P33 R0
M73 Q33 S0
G1 X14.673 Y31.949 E15.27622
G1 X13.501 Y31.837 E15.49461
M73 P34 R0
M73 Q34 S0
G1 X12.330 Y31.692 E15.71372
G1 X10.701 Y31.429 E16.01987
G1 X10.350 Y31.355 E16.08646
G1 X9.983 Y31.238 E16.15792
G1 X9.766 Y31.140 E16.20206
G1 X9.400 Y30.903 E16.28307
G1 X8.886 Y30.417 E16.41421
G1 X8.457 Y29.876 E16.54244
M73 P35 R0
M73 Q35 S0
G1 X8.114 Y29.279 E16.67015
G1 X7.870 Y28.635 E16.79801
G1 X7.741 Y27.953 E16.92678
G1 X7.739 Y27.255 E17.05641
G1 X7.861 Y26.548 E17.18952
G1 X8.131 Y25.846 E17.32907
G1 X8.552 Y25.176 E17.47591
M73 P36 R0
M73 Q36 S0
G1 X9.131 Y24.536 E17.63606
G1 X9.442 Y24.327 E17.70559
G1 X9.767 Y24.248 E17.76765
G1 X11.550 Y24.216 E18.09863
G1 X13.734 Y24.111 E18.50432
M73 P37 R0
M73 Q37 S0
G1 X14.728 Y24.020 E18.68958
G1 X15.201 Y23.949 E18.77840
G1 X15.661 Y23.852 E18.86551
G1 X15.917 Y23.774 E18.91528
G1 X16.114 Y23.684 E18.95542
G1 X16.288 Y23.559 E18.99508
G1 X16.438 Y23.308 E19.04949
G1 X16.486 Y23.016 E19.10426
G1 X16.475 Y22.857 E19.13394
G1 X16.415 Y22.558 E19.19045
G1 X15.689 Y20.091 E19.66773
M73 P38 R0
M73 Q38 S0
G1 X15.562 Y19.585 E19.76446
G1 X15.468 Y19.051 E19.86517
G1 X15.442 Y18.509 E19.96594
G1 X15.449 Y18.031 E20.05453
G1 X15.398 Y17.567 E20.14117
G1 X15.375 Y17.052 E20.23684
G1 X15.384 Y16.712 E20.29998
M73 P39 R0
M73 Q39 S0
G1 X14.960 Y16.611 E20.38078
G1 X14.819 Y16.913 E20.44258
G1 X14.657 Y17.418 E20.54100
G1 X14.493 Y18.224 E20.69356
G1 X14.347 Y18.500 E20.75166
G1 X14.152 Y18.665 E20.79894
G1 X13.863 Y18.791 E20.85746
G1 X13.381 Y18.914 E20.94973
G1 X13.041 Y18.952 E21.01328
G1 X12.418 Y18.979 E21.12900
G1 X11.501 Y18.931 E21.29949
M73 P40 R0
M73 Q40 S0
G1 X11.169 Y18.885 E21.36165
G1 X10.534 Y18.746 E21.48226
G1 X10.282 Y18.650 E21.53228
G1 X10.047 Y18.514 E21.58262
G1 X9.827 Y18.324 E21.63656
G1 X9.660 Y18.080 E21.69144
G1 X9.508 Y17.713 E21.76524
G1 X9.307 Y16.968 E21.90843
G1 X9.233 Y16.519 E21.99291
G1 X9.156 Y15.579 E22.16781
M73 P41 R0
M73 Q41 S0
G1 X9.179 Y14.765 E22.31904
G1 X9.264 Y14.208 E22.42346
G1 X9.334 Y13.914 E22.47959
G1 X9.476 Y13.487 E22.56316
G1 X9.631 Y13.216 E22.62105
G1 X9.760 Y13.061 E22.65846
G1 X10.012 Y12.858 E22.71844
G1 X10.303 Y12.724 E22.77801
G1 X10.583 Y12.654 E22.83148
G1 X13.662 Y12.145 E23.41067
M73 P42 R0
M73 Q42 S0
G1 X16.259 Y11.766 E23.89773
G1 X19.011 Y11.400 E24.41285
M73 P43 R0
M73 Q43 S0
G1 X20.681 Y11.228 E24.72446
G1 X22.059 Y11.134 E24.98065
G1 X24.022 Y11.073 E25.34521
M73 P44 R0
M73 Q44 S0
G1 X26.126 Y11.081 E25.73552
G1 X28.492 Y11.151 E26.17477
G92 E0
M73 P45 R0
M73 Q45 S0
G1 X34.874 Y8.729 F1200.000
M73 P46 R0
M73 Q46 S0
G1 F900.000
G1 X35.433 Y8.725 E0.10363
G1 X35.806 Y8.775 E0.17350
G1 X36.166 Y8.859 E0.24207
G1 X36.574 Y8.987 E0.32138
G1 X36.963 Y9.147 E0.39953
G1 X37.333 Y9.337 E0.47666
G1 X37.681 Y9.558 E0.55317
G1 X38.005 Y9.808 E0.62912
G1 X38.305 Y10.083 E0.70471
G1 X38.826 Y10.654 E0.84806
M73 P47 R0
M73 Q47 S0
G1 X39.310 Y11.278 E0.99470
G1 X39.640 Y11.807 E1.11033
G1 X39.916 Y12.348 E1.22297
G1 X40.147 Y12.896 E1.33343
G1 X40.339 Y13.454 E1.44280
G1 X40.492 Y14.019 E1.55148
G1 X40.610 Y14.590 E1.65980
G1 X40.694 Y15.168 E1.76803
M73 P48 R0
M73 Q48 S0
G1 X40.748 Y15.749 E1.87631
G1 X40.774 Y16.339 E1.98589
G1 X40.748 Y17.540 E2.20898
G1 X40.694 Y18.169 E2.32600
G1 X40.513 Y19.373 E2.55204
G1 X40.387 Y19.979 E2.66692
G1 X40.084 Y21.151 E2.89149
M73 P49 R0
M73 Q49 S0
G1 X39.720 Y22.303 E3.11578
G1 X39.512 Y22.895 E3.23209
G1 X39.354 Y23.251 E3.30437
G1 X39.135 Y23.584 E3.37829
G1 X38.869 Y23.867 E3.45042
G1 X38.562 Y24.102 E3.52211
G1 X38.047 Y24.376 E3.63037
G1 X37.689 Y24.515 E3.70171
M73 P50 R0
M73 Q50 S0
G1 X37.146 Y24.662 E3.80596
G1 X36.607 Y24.758 E3.90759
G1 X36.071 Y24.808 E4.00745
G1 X35.540 Y24.812 E4.10601
G1 X35.016 Y24.773 E4.20368
G1 X34.499 Y24.693 E4.30071
G1 X33.990 Y24.576 E4.39760
G1 X33.489 Y24.425 E4.49473
G1 X32.996 Y24.242 E4.59228
G1 X32.504 Y24.025 E4.69207
M73 P51 R0
M73 Q51 S0
G1 X32.238 Y23.883 E4.74806
G1 X31.796 Y23.540 E4.85188
G1 X31.436 Y23.131 E4.95296
G1 X31.152 Y22.695 E5.04946
G1 X30.921 Y22.250 E5.14260
G1 X30.660 Y21.634 E5.26674
G1 X30.519 Y21.225 E5.34694
G1 X30.310 Y20.446 E5.49667
G1 X30.173 Y19.696 E5.63823
M73 P52 R0
M73 Q52 S0
G1 X30.098 Y18.999 E5.76826
G1 X30.074 Y18.376 E5.88398
G1 X30.104 Y17.136 E6.11401
G1 X30.204 Y15.990 E6.32763
G1 X30.282 Y15.431 E6.43230
G1 X30.488 Y14.383 E6.63043
M73 P53 R0
M73 Q53 S0
G1 X30.622 Y13.863 E6.73011
G1 X30.938 Y12.871 E6.92336
G1 X31.343 Y11.875 E7.12285
G1 X31.678 Y11.223 E7.25887
G1 X32.074 Y10.597 E7.39637
G1 X32.541 Y10.010 E7.53546
M73 P54 R0
M73 Q54 S0
G1 X32.816 Y9.722 E7.60936
G1 X33.092 Y9.472 E7.67848
G1 X33.388 Y9.253 E7.74688
G1 X33.701 Y9.068 E7.81441
G1 X34.001 Y8.933 E7.87537
G92 E0
G1 X37.310 Y32.529 F1200.000
M73 P57 R0
M73 Q57 S0
G1 F900.000
G1 X36.994 Y32.617 E0.06093
G1 X36.672 Y32.764 E0.12661
M73 P58 R0
M73 Q58 S0
G1 X36.362 Y33.015 E0.20056
G1 X36.147 Y33.364 E0.27672
G1 X36.061 Y33.733 E0.34693
G1 X36.048 Y34.304 E0.45307
G1 X36.072 Y35.395 E0.65546
G1 X36.058 Y35.839 E0.73800
G1 X35.930 Y36.384 E0.84191
G1 X35.798 Y36.750 E0.91408
G1 X35.641 Y37.079 E0.98170
G1 X35.459 Y37.372 E1.04572
G1 X35.251 Y37.633 E1.10757
M73 P59 R0
M73 Q59 S0
G1 X35.014 Y37.863 E1.16892
G1 X34.745 Y38.066 E1.23138
G1 X34.439 Y38.242 E1.29688
G1 X34.090 Y38.391 E1.36727
G1 X33.683 Y38.514 E1.44630
G1 X32.287 Y38.806 E1.71087
G1 X30.845 Y39.023 E1.98162
G1 X29.576 Y39.167 E2.21865
M73 P60 R0
M73 Q60 S0
G1 X27.944 Y39.308 E2.52248
G1 X26.309 Y39.401 E2.82644
G1 X24.672 Y39.448 E3.13040
M73 P61 R0
M73 Q61 S0
G1 X23.467 Y39.451 E3.35391
G1 X22.270 Y39.424 E3.57622
G1 X21.083 Y39.353 E3.79676
G1 X19.907 Y39.225 E4.01629
M73 P62 R0
M73 Q62 S0
G1 X18.746 Y39.029 E4.23479
G1 X18.268 Y38.910 E4.32612
G1 X17.840 Y38.757 E4.41050
G1 X17.451 Y38.570 E4.49058
G1 X17.101 Y38.351 E4.56735
G1 X16.784 Y38.097 E4.64269
G1 X16.497 Y37.807 E4.71840
G1 X16.238 Y37.479 E4.79588
G1 X16.006 Y37.113 E4.87643
G1 X15.801 Y36.703 E4.96137
M73 P63 R0
M73 Q63 S0
G1 X15.623 Y36.253 E5.05120
G1 X15.417 Y35.542 E5.18849
G1 X15.325 Y35.068 E5.27821
G1 X15.265 Y34.585 E5.36858
G1 X15.222 Y33.609 E5.54986
G1 X15.124 Y33.306 E5.60891
G1 X14.893 Y33.047 E5.67335
G1 X14.698 Y32.935 E5.71505
G1 X14.459 Y32.872 E5.76081
G1 X12.577 Y32.674 E6.11213
M73 P64 R0
M73 Q64 S0
G1 X11.540 Y32.525 E6.30656
G1 X10.460 Y32.319 E6.51049
G1 X9.722 Y32.125 E6.65219
G1 X9.403 Y32.001 E6.71567
G1 X9.117 Y31.853 E6.77536
G1 X8.379 Y31.299 E6.94654
M73 P65 R0
M73 Q65 S0
G1 X7.793 Y30.649 E7.10903
G1 X7.344 Y29.911 E7.26921
G1 X7.034 Y29.107 E7.42921
G1 X6.862 Y28.255 E7.59050
G1 X6.831 Y27.381 E7.75283
G1 X6.944 Y26.510 E7.91573
M73 P66 R0
M73 Q66 S0
G1 X7.201 Y25.663 E8.07995
G1 X7.597 Y24.864 E8.24543
G1 X8.140 Y24.126 E8.41557
G1 X8.306 Y23.958 E8.45931
G1 X8.495 Y23.804 E8.50464
G1 X8.700 Y23.669 E8.55022
G1 X9.157 Y23.453 E8.64386
G1 X9.699 Y23.294 E8.74881
G1 X10.292 Y23.193 E8.86043
M73 P67 R0
M73 Q67 S0
G1 X10.972 Y23.136 E8.98693
G1 X11.727 Y23.118 E9.12714
G1 X13.653 Y23.126 E9.48453
G1 X14.399 Y23.087 E9.62316
G1 X14.725 Y23.040 E9.68434
G1 X14.951 Y22.949 E9.72949
M73 P68 R0
M73 Q68 S0
G1 X15.195 Y22.725 E9.79091
G1 X15.304 Y22.417 E9.85156
G1 X15.304 Y22.184 E9.89484
G1 X15.256 Y21.963 E9.93684
G1 X15.011 Y21.062 E10.11012
G1 X14.916 Y20.802 E10.16143
G1 X14.772 Y20.536 E10.21759
G1 X14.551 Y20.283 E10.27985
G1 X14.262 Y20.093 E10.34414
G1 X13.943 Y19.977 E10.40713
G1 X13.598 Y19.915 E10.47227
G1 X11.939 Y19.862 E10.78022
M73 P69 R0
M73 Q69 S0
G1 X11.331 Y19.819 E10.89335
G1 X10.742 Y19.725 E11.00395
G1 X10.382 Y19.635 E11.07287
G1 X10.051 Y19.522 E11.13785
G1 X9.755 Y19.382 E11.19852
G1 X9.489 Y19.213 E11.25703
G1 X9.250 Y19.013 E11.31482
G1 X9.037 Y18.785 E11.37278
G1 X8.852 Y18.525 E11.43196
G1 X8.697 Y18.230 E11.49382
G1 X8.569 Y17.883 E11.56248
G1 X8.405 Y17.236 E11.68638
M73 P70 R0
M73 Q70 S0
G1 X8.274 Y16.489 E11.82711
G1 X8.198 Y15.690 E11.97604
G1 X8.191 Y14.880 E12.12638
G1 X8.268 Y14.101 E12.27159
G1 X8.437 Y13.393 E12.40669
G1 X8.701 Y12.794 E12.52811
G1 X9.055 Y12.328 E12.63685
M73 P71 R0
M73 Q71 S0
G1 X9.515 Y11.991 E12.74261
G1 X10.171 Y11.770 E12.87100
G1 X12.170 Y11.420 E13.24758
G1 X14.645 Y11.034 E13.71237
M73 P72 R0
M73 Q72 S0
G1 X17.599 Y10.632 E14.26565
G1 X19.831 Y10.365 E14.68290
M73 P73 R0
M73 Q73 S0
G1 X20.941 Y10.261 E14.88966
G1 X22.048 Y10.185 E15.09555
G1 X23.859 Y10.133 E15.43190
G1 X26.663 Y10.143 E15.95220
M73 P74 R0
M73 Q74 S0
G1 X28.765 Y10.208 E16.34233
G1 X30.196 Y10.284 E16.60830
M73 P75 R0
M73 Q75 S0
G1 X30.643 Y10.264 E16.69142
G1 X30.982 Y10.162 E16.75703
G1 X31.279 Y9.986 E16.82114
G1 X31.516 Y9.767 E16.88101
G1 X32.115 Y9.089 E17.04882
G1 X32.624 Y8.645 E17.17424
G1 X33.160 Y8.293 E17.29318
G1 X33.718 Y8.030 E17.40775
G1 X34.298 Y7.856 E17.52008
M73 P76 R0
M73 Q76 S0
G1 X34.897 Y7.768 E17.63238
G1 X35.514 Y7.769 E17.74690
G1 X36.147 Y7.859 E17.86567
G1 X36.796 Y8.045 E17.99079
G1 X37.457 Y8.327 E18.12420
G1 X37.856 Y8.555 E18.20938
G1 X38.221 Y8.812 E18.29239
G1 X38.558 Y9.092 E18.37366
G1 X39.198 Y9.725 E18.54063
M73 P77 R0
M73 Q77 S0
G1 X40.127 Y10.831 E18.80875
G1 X40.486 Y11.224 E18.90761
G1 X40.887 Y11.611 E19.01096
G1 X41.681 Y12.264 E19.20164
G1 X43.268 Y13.408 E19.56482
M73 P78 R0
M73 Q78 S0
G1 X43.625 Y13.688 E19.64899
G1 X44.310 Y14.295 E19.81874
G1 X44.609 Y14.613 E19.89971
G1 X44.969 Y15.054 E20.00533
G1 X45.296 Y15.515 E20.11037
G1 X45.593 Y15.996 E20.21521
G1 X45.856 Y16.494 E20.31969
M73 P79 R0
M73 Q79 S0
G1 X46.086 Y17.007 E20.42411
G1 X46.284 Y17.535 E20.52875
G1 X46.448 Y18.077 E20.63382
G1 X46.579 Y18.630 E20.73923
G1 X46.678 Y19.193 E20.84530
G1 X46.743 Y19.769 E20.95289
G1 X46.824 Y21.059 E21.19269
G1 X46.843 Y22.350 E21.43236
M73 P80 R0
M73 Q80 S0
G1 X46.799 Y23.639 E21.67171
G1 X46.687 Y24.924 E21.91112
G1 X46.506 Y26.205 E22.15111
G1 X46.417 Y26.656 E22.23632
M73 P81 R0
M73 Q81 S0
G1 X46.307 Y27.093 E22.32009
G1 X46.174 Y27.515 E22.40217
G1 X46.017 Y27.921 E22.48291
G1 X45.836 Y28.312 E22.56289
G1 X45.630 Y28.687 E22.64225
G1 X45.396 Y29.046 E22.72170
G1 X45.135 Y29.389 E22.80170
G1 X44.844 Y29.716 E22.88291
G1 X44.525 Y30.024 E22.96527
G1 X43.928 Y30.498 E23.10676
G1 X43.290 Y30.902 E23.24695
M73 P82 R0
M73 Q82 S0
G1 X42.611 Y31.247 E23.38821
G1 X41.894 Y31.542 E23.53211
G1 X41.141 Y31.795 E23.67960
G1 X40.668 Y31.931 E23.77078
G1 X39.440 Y32.228 E24.00530
G1 X38.721 Y32.369 E24.14119
G1 X38.203 Y32.416 E24.23783
G92 E0
M73 P83 R0
M73 Q83 S0
