; generated by PrusaSlicer 2.3.3+win64 on 2022-02-06 at 02:18:28 UTC

; 

; external perimeters extrusion width = 3.38mm
; perimeters extrusion width = 3.38mm
; infill extrusion width = 3.38mm
; solid infill extrusion width = 3.38mm
; top infill extrusion width = 3.00mm
; first layer extrusion width = 2.00mm

M73 P0 R0
M73 Q0 S0
M201 X400 Y400 Z400 E400 ; sets maximum accelerations, mm/sec^2
M203 X40 Y40 Z40 E50 ; sets maximum feedrates, mm/sec
M204 P400 R400 T400 ; sets acceleration (P, T) and retract acceleration (R), mm/sec^2
M205 X8.00 Y8.00 Z0.40 E4.50 ; sets the jerk limits, mm/sec
M205 S0 T0 ; sets the minimum extruding and travel feed rate, mm/sec
M107
M104 S200 ; set temperature
;TYPE:Custom
G90 ; use absolute coordinates
M83 ; extruder relative mode
G92 E0.0
M109 S200 ; set temperature and wait for it to be reached
G21 ; set units to millimeters
G90 ; use absolute coordinates
M82 ; use absolute distances for extrusion
G92 E0
; Filament gcode
;LAYER_CHANGE
;Z:1
;HEIGHT:1
;BEFORE_LAYER_CHANGE
;
;WITNESS ME
;AND DELETE AFTER HERE FOR PANCAKES
;
G92 E0.0
;1


G1 Z1.000 F1200.000
;AFTER_LAYER_CHANGE
;1
G1 X22.936 Y12.753
;TYPE:External perimeter
;WIDTH:1.75614
M73 P9 R0
M73 Q9 S0
G1 F900.000
G1 X26.018 Y11.265 E2.19328
;WIDTH:1.75661
M73 P11 R0
M73 Q11 S0
G1 X26.042 Y11.254 E2.21026
;WIDTH:1.80214
G1 X27.232 Y10.704 E3.07543
;WIDTH:1.80985
G1 X29.712 Y9.607 E4.87391
;WIDTH:1.80985
M73 P13 R0
M73 Q13 S0
G1 X29.967 Y9.486 E5.06106
;WIDTH:1.79692
G1 X30.038 Y9.451 E5.11357
;WIDTH:1.82165
G1 X30.442 Y9.234 E5.41924
;WIDTH:1.82165
G1 X30.481 Y9.210 E5.45008
;WIDTH:1.81909
G1 X30.538 Y9.174 E5.49483
;WIDTH:1.82548
G1 X30.753 Y9.030 E5.66851
G1 X30.950 Y8.882 E5.83371
;WIDTH:1.8044
G1 X31.060 Y8.791 E5.92787
G1 X31.068 Y8.783 E5.93509
;WIDTH:1.80422
G1 X31.196 Y8.651 E6.05723
;WIDTH:1.80336
G1 X31.226 Y8.620 E6.08547
;WIDTH:1.80579
G1 X31.312 Y8.503 E6.18112
;WIDTH:1.81233
G1 X31.374 Y8.384 E6.27030
;WIDTH:1.82128
M73 P14 R0
M73 Q14 S0
G1 X31.416 Y8.258 E6.35921
;WIDTH:1.8232
G1 X31.426 Y8.201 E6.39829
;WIDTH:1.82869
G1 X31.440 Y8.122 E6.45162
;WIDTH:1.8287
G1 X31.440 Y8.114 E6.45743
;WIDTH:1.82799
G1 X31.446 Y8.027 E6.51595
;WIDTH:1.82561
G1 X31.439 Y7.929 E6.58128
;WIDTH:1.81936
G1 X31.420 Y7.838 E6.64363
;WIDTH:1.80908
G1 X31.387 Y7.752 E6.70452
;WIDTH:1.79309
G1 X31.334 Y7.658 E6.77525
;WIDTH:1.7671
G1 X31.299 Y7.614 E6.81189
;WIDTH:1.7485
G1 X31.234 Y7.535 E6.87690
;WIDTH:1.71876
G1 X31.225 Y7.525 E6.88549
;WIDTH:1.71348
G1 X31.090 Y7.392 E7.00337
;WIDTH:1.66441
G1 X30.836 Y7.174 E7.20487
;WIDTH:1.62047
G1 X30.583 Y6.956 E7.40026
;WIDTH:1.57653
G1 X30.562 Y6.939 E7.41543
;WIDTH:1.57354
G1 X30.306 Y6.727 E7.60349
;WIDTH:1.54286
G1 X30.049 Y6.515 E7.78730
;WIDTH:1.51218
M73 P15 R0
M73 Q15 S0
G1 X30.002 Y6.478 E7.81971
;WIDTH:1.50955
G1 X29.795 Y6.323 E7.95904
;WIDTH:1.50959
G1 X29.789 Y6.318 E7.96266
;WIDTH:1.51245
G1 X29.758 Y6.294 E7.98406
;WIDTH:1.56201
G1 X29.727 Y6.244 E8.01719
;WIDTH:1.61156
G1 X29.695 Y6.194 E8.05153
;WIDTH:1.66112
G1 X29.664 Y6.144 E8.08710
;WIDTH:1.71068
G1 X29.633 Y6.094 E8.12388
;WIDTH:1.76023
G1 X29.602 Y6.043 E8.16188
;WIDTH:1.80979
G1 X29.571 Y5.993 E8.20110
;WIDTH:1.85934
G1 X29.540 Y5.943 E8.24154
;WIDTH:1.9089
G1 X29.508 Y5.893 E8.28319
;WIDTH:1.95846
G1 X29.477 Y5.842 E8.32606
;WIDTH:2.00801
G1 X29.446 Y5.792 E8.37016
;WIDTH:2.05757
G1 X29.415 Y5.742 E8.41547
;WIDTH:2.10713
G1 X29.384 Y5.692 E8.46200
;WIDTH:2.15668
G1 X29.352 Y5.641 E8.50974
;WIDTH:2.20624
G1 X29.321 Y5.591 E8.55871
;WIDTH:2.2558
G1 X29.290 Y5.541 E8.60889
;WIDTH:2.30535
G1 X29.259 Y5.491 E8.66030
;WIDTH:2.35491
G1 X29.228 Y5.440 E8.71292
;WIDTH:2.40447
G1 X29.196 Y5.390 E8.76676
;WIDTH:2.45402
G1 X29.165 Y5.340 E8.82181
;WIDTH:2.49901
G1 X29.156 Y5.307 E8.85466
;WIDTH:2.544
G1 X29.146 Y5.273 E8.88815
;WIDTH:2.58898
G1 X29.137 Y5.240 E8.92229
;WIDTH:2.6384
G1 X29.128 Y5.205 E8.95897
;WIDTH:2.68781
G1 X29.119 Y5.170 E8.99639
;WIDTH:2.73723
G1 X29.110 Y5.134 E9.03456
;WIDTH:2.78664
G1 X29.102 Y5.099 E9.07348
;WIDTH:2.83606
G1 X29.093 Y5.064 E9.11315
;WIDTH:2.88547
G1 X29.084 Y5.028 E9.15356
;WIDTH:2.93489
G1 X29.076 Y4.993 E9.19473
;WIDTH:2.93489
G1 X28.996 Y4.966 E9.28984
;WIDTH:2.89273
M73 P16 R0
M73 Q16 S0
G1 X28.916 Y4.938 E9.38347
;WIDTH:2.85058
G1 X28.837 Y4.911 E9.47564
;WIDTH:2.80842
G1 X28.757 Y4.884 E9.56632
;WIDTH:2.76627
G1 X28.672 Y4.851 E9.66315
;WIDTH:2.72677
G1 X28.587 Y4.819 E9.75847
;WIDTH:2.68727
G1 X28.533 Y4.796 E9.81895
;WIDTH:2.66866
G1 X28.478 Y4.772 E9.87989
;WIDTH:2.654
G1 X28.311 Y4.697 E10.06516
;WIDTH:2.61355
G1 X28.145 Y4.622 E10.24735
;WIDTH:2.5731
G1 X28.069 Y4.593 E10.32715
;WIDTH:2.54529
G1 X27.993 Y4.564 E10.40601
;WIDTH:2.51748
G1 X27.904 Y4.535 E10.49530
;WIDTH:2.47669
G1 X27.815 Y4.506 E10.58302
;WIDTH:2.43591
G1 X27.726 Y4.480 E10.66877
;WIDTH:2.38919
G1 X27.637 Y4.454 E10.75272
;WIDTH:2.34247
G1 X27.548 Y4.428 E10.83487
;WIDTH:2.29575
G1 X27.459 Y4.403 E10.91521
;WIDTH:2.24904
G1 X27.369 Y4.377 E10.99375
;WIDTH:2.20232
G1 X27.280 Y4.351 E11.07049
;WIDTH:2.1556
G1 X27.191 Y4.325 E11.14542
;WIDTH:2.10888
G1 X27.102 Y4.300 E11.21855
;WIDTH:2.06216
G1 X27.046 Y4.284 E11.26288
;WIDTH:2.03483
G1 X26.953 Y4.260 E11.33589
;WIDTH:1.99202
M73 P17 R0
M73 Q17 S0
G1 X26.859 Y4.236 E11.40719
;WIDTH:1.94921
G1 X26.766 Y4.213 E11.47678
;WIDTH:1.9064
G1 X26.672 Y4.189 E11.54464
;WIDTH:1.86358
G1 X26.597 Y4.167 E11.59834
;WIDTH:1.83241
G1 X26.462 Y4.126 E11.69348
;WIDTH:1.78268
G1 X26.326 Y4.084 E11.78569
;WIDTH:1.73296
G1 X26.252 Y4.059 E11.83533
;WIDTH:1.7093
G1 X26.081 Y3.997 E11.94813
;WIDTH:1.66401
G1 X26.040 Y3.983 E11.97459
;WIDTH:1.65437
G1 X26.002 Y3.970 E11.99831
;WIDTH:1.64686
G1 X25.926 Y3.943 E12.04674
;WIDTH:1.63606
G1 X25.756 Y3.876 E12.15485
;WIDTH:1.62217
G1 X25.684 Y3.845 E12.20062
;WIDTH:1.65062
G1 X24.911 Y3.489 E12.70856
;WIDTH:1.65062
M73 P18 R0
M73 Q18 S0
G1 X24.709 Y3.404 E12.83915
;WIDTH:1.64558
G1 X24.633 Y3.374 E12.88788
;WIDTH:1.6718
G1 X24.332 Y3.268 E13.08100
;WIDTH:1.67223
G1 X24.021 Y3.172 E13.27834
;WIDTH:1.67735
G1 X23.939 Y3.149 E13.33029
;WIDTH:1.68128
G1 X23.907 Y3.141 E13.35056
;WIDTH:1.68288
G1 X23.718 Y3.105 E13.46801
;WIDTH:1.68288
G1 X23.615 Y3.091 E13.53114
;WIDTH:1.67356
G1 X23.544 Y3.083 E13.57447
;WIDTH:1.67089
G1 X23.510 Y3.080 E13.59535
;WIDTH:1.67089
G1 X23.206 Y3.066 E13.77933
;WIDTH:1.64669
G1 X23.129 Y3.065 E13.82540
;WIDTH:1.64983
G1 X22.949 Y3.067 E13.93252
;WIDTH:1.66208
G1 X22.366 Y3.070 E14.28386
;WIDTH:1.67418
M73 P19 R0
M73 Q19 S0
G1 X22.248 Y3.076 E14.35558
;WIDTH:1.72134
G1 X21.991 Y3.098 E14.51675
;WIDTH:1.7685
G1 X21.735 Y3.120 E14.68297
;WIDTH:1.81566
G1 X21.479 Y3.143 E14.85424
;WIDTH:1.86283
G1 X21.222 Y3.165 E15.03055
;WIDTH:1.90757
G1 X21.106 Y3.163 E15.11221
;WIDTH:1.95231
G1 X20.990 Y3.162 E15.19603
;WIDTH:1.99706
G1 X20.874 Y3.160 E15.28200
;WIDTH:2.0342
G1 X20.810 Y3.153 E15.33074
;WIDTH:2.07251
G1 X20.748 Y3.146 E15.37943
G92 E0
G1 X29.076 Y4.993 F1200.000
;WIDTH:2.93489
M73 P23 R0
M73 Q23 S0
G1 F900.000
G1 X29.128 Y4.972 E0.06361
;WIDTH:2.88513
G1 X29.180 Y4.951 E0.12606
;WIDTH:2.83536
G1 X29.232 Y4.930 E0.18734
;WIDTH:2.7856
G1 X29.284 Y4.909 E0.24746
;WIDTH:2.73584
G1 X29.336 Y4.888 E0.30642
;WIDTH:2.68608
G1 X29.389 Y4.867 E0.36421
;WIDTH:2.63632
G1 X29.441 Y4.846 E0.42084
;WIDTH:2.58655
G1 X29.493 Y4.825 E0.47631
;WIDTH:2.53679
G1 X29.610 Y4.821 E0.58906
;WIDTH:2.4874
G1 X29.726 Y4.817 E0.69940
;WIDTH:2.43802
G1 X29.843 Y4.813 E0.80735
;WIDTH:2.38863
G1 X29.960 Y4.809 E0.91291
;WIDTH:2.33924
G1 X30.077 Y4.805 E1.01606
;WIDTH:2.28985
G1 X30.193 Y4.801 E1.11682
;WIDTH:2.24046
G1 X30.310 Y4.797 E1.21517
;WIDTH:2.19107
G1 X30.427 Y4.793 E1.31114
;WIDTH:2.18157
G1 X31.373 Y4.984 E2.10045
;WIDTH:2.18157
M73 P24 R0
M73 Q24 S0
G1 X31.740 Y5.068 E2.40847
;WIDTH:2.17696
G1 X32.117 Y5.168 E2.72668
;WIDTH:2.147
G1 X32.494 Y5.268 E3.04003
;WIDTH:2.11705
G1 X32.540 Y5.280 E3.07760
;WIDTH:2.11458
G1 X32.545 Y5.282 E3.08144
;WIDTH:2.13596
G1 X32.768 Y5.332 E3.26479
;WIDTH:2.1808
G1 X32.976 Y5.367 E3.43662
;WIDTH:2.1856
G1 X33.043 Y5.383 E3.49334
;WIDTH:2.1856
G1 X33.270 Y5.457 E3.68858
;WIDTH:2.16347
M73 P25 R0
M73 Q25 S0
G1 X33.307 Y5.469 E3.72050
;WIDTH:2.16061
G1 X34.085 Y5.742 E4.38713
;WIDTH:2.11736
G1 X34.114 Y5.752 E4.41189
;WIDTH:2.11623
G1 X34.156 Y5.768 E4.44735
;WIDTH:2.11585
G1 X34.208 Y5.786 E4.49061
;WIDTH:2.14646
G1 X34.971 Y6.042 E5.13754
;WIDTH:2.14832
G1 X35.003 Y6.053 E5.16455
;WIDTH:2.17206
G1 X35.311 Y6.163 E5.43014
;WIDTH:2.17206
M73 P26 R0
M73 Q26 S0
G1 X35.924 Y6.407 E5.96793
;WIDTH:2.17124
G1 X35.956 Y6.420 E5.99560
;WIDTH:2.19086
G1 X36.509 Y6.652 E6.48812
;WIDTH:2.19086
G1 X36.862 Y6.813 E6.80739
;WIDTH:2.17808
G1 X36.892 Y6.827 E6.83396
;WIDTH:2.17782
G1 X37.785 Y7.254 E7.64186
;WIDTH:2.17828
M73 P27 R0
M73 Q27 S0
G1 X37.811 Y7.267 E7.66609
;WIDTH:2.20604
G1 X38.626 Y7.671 E8.41940
;WIDTH:2.20733
G1 X38.652 Y7.684 E8.44323
;WIDTH:2.23566
G1 X39.076 Y7.903 E8.84415
;WIDTH:2.26398
G1 X39.501 Y8.121 E9.25070
;WIDTH:2.26713
M73 P28 R0
M73 Q28 S0
G1 X39.536 Y8.140 E9.28482
;WIDTH:2.27371
G1 X39.595 Y8.172 E9.34213
;WIDTH:2.27372
G1 X40.589 Y8.793 E10.34585
;WIDTH:2.23968
G1 X40.621 Y8.813 E10.37725
;WIDTH:2.24222
G1 X40.935 Y9.018 E10.69394
;WIDTH:2.2428
G1 X40.959 Y9.033 E10.71701
;WIDTH:2.25027
G1 X41.140 Y9.147 E10.89864
;WIDTH:2.25255
M73 P29 R0
M73 Q29 S0
G1 X41.175 Y9.170 E10.93374
;WIDTH:2.29909
G1 X41.689 Y9.510 E11.46835
;WIDTH:2.34563
G1 X42.204 Y9.850 E12.01490
;WIDTH:2.35017
G1 X42.243 Y9.876 E12.05631
;WIDTH:2.37568
G1 X42.419 Y9.998 E12.24881
;WIDTH:2.40119
G1 X42.595 Y10.120 E12.44359
;WIDTH:2.40119
G1 X42.741 Y10.240 E12.61513
;WIDTH:2.39247
G1 X42.767 Y10.261 E12.64571
;WIDTH:2.39143
G1 X43.237 Y10.661 E13.20424
;WIDTH:2.3825
M73 P30 R0
M73 Q30 S0
G1 X43.276 Y10.694 E13.25066
;WIDTH:2.38677
G1 X43.375 Y10.782 E13.36991
;WIDTH:2.38677
G1 X43.411 Y10.818 E13.41598
;WIDTH:2.38294
G1 X43.497 Y10.915 E13.53329
;WIDTH:2.35686
G1 X43.584 Y11.013 E13.64919
;WIDTH:2.33077
G1 X43.743 Y11.173 E13.84818
;WIDTH:2.31787
G1 X44.174 Y11.564 E14.35648
;WIDTH:2.32088
G1 X44.222 Y11.609 E14.41426
;WIDTH:2.35734
G1 X44.563 Y11.938 E14.83672
;WIDTH:2.36572
M73 P31 R0
M73 Q31 S0
G1 X44.802 Y12.182 E15.14159
;WIDTH:2.36572
G1 X45.087 Y12.499 E15.52376
;WIDTH:2.33791
G1 X45.121 Y12.538 E15.56891
;WIDTH:2.33581
G1 X45.296 Y12.743 E15.80646
;WIDTH:2.33127
G1 X45.519 Y13.014 E16.11525
;WIDTH:2.31025
G1 X45.551 Y13.054 E16.15998
;WIDTH:2.30843
G1 X46.313 Y14.033 E17.24035
;WIDTH:2.29491
M73 P32 R0
M73 Q32 S0
G1 X46.314 Y14.034 E17.24116
;WIDTH:2.29483
G1 X46.343 Y14.076 E17.28556
;WIDTH:2.29142
G1 X46.694 Y14.592 E17.82418
;WIDTH:2.26538
G1 X46.716 Y14.626 E17.85886
;WIDTH:2.26449
G1 X47.188 Y15.351 E18.59619
;WIDTH:2.26376
M73 P33 R0
M73 Q33 S0
G1 X47.215 Y15.392 E18.63781
;WIDTH:2.27094
G1 X47.297 Y15.526 E18.77244
;WIDTH:2.27169
G1 X47.412 Y15.720 E18.96525
;WIDTH:2.27169
G1 X47.585 Y16.048 E19.28266
;WIDTH:2.23954
G1 X47.636 Y16.138 E19.36900
;WIDTH:2.23734
G1 X47.652 Y16.165 E19.39589
;WIDTH:2.23908
G1 X47.662 Y16.182 E19.41259
;WIDTH:2.26693
G1 X47.806 Y16.429 E19.65617
;WIDTH:2.29477
G1 X47.950 Y16.676 E19.90306
;WIDTH:2.29477
G1 X48.025 Y16.840 E20.05931
;WIDTH:2.2766
G1 X48.060 Y16.933 E20.14442
;WIDTH:2.25303
G1 X48.084 Y16.999 E20.20392
;WIDTH:2.23875
G1 X48.094 Y17.030 E20.23135
;WIDTH:2.23324
G1 X48.204 Y17.291 E20.46942
;WIDTH:2.26351
G1 X48.356 Y17.593 E20.75714
;WIDTH:2.28281
M73 P34 R0
M73 Q34 S0
G1 X48.609 Y18.151 E21.28416
;WIDTH:2.28796
G1 X48.639 Y18.221 E21.34941
;WIDTH:2.29685
G1 X48.671 Y18.299 E21.42298
;WIDTH:2.29684
G1 X48.869 Y18.939 E22.00289
;WIDTH:2.24689
G1 X48.898 Y19.024 E22.07830
;WIDTH:2.24689
G1 X48.913 Y19.067 E22.11750
;WIDTH:2.25156
G1 X48.926 Y19.103 E22.14962
;WIDTH:2.27892
G1 X48.995 Y19.283 E22.31524
;WIDTH:2.30627
G1 X49.063 Y19.464 E22.48306
;WIDTH:2.31442
M73 P35 R0
M73 Q35 S0
G1 X49.080 Y19.510 E22.52614
;WIDTH:2.34736
G1 X49.138 Y19.675 E22.68104
;WIDTH:2.3803
G1 X49.196 Y19.840 E22.83834
;WIDTH:2.39241
G1 X49.241 Y19.995 E22.98440
;WIDTH:2.39241
G1 X49.257 Y20.094 E23.07525
;WIDTH:2.37417
G1 X49.269 Y20.215 E23.18458
;WIDTH:2.33896
G1 X49.281 Y20.336 E23.29213
;WIDTH:2.30376
G1 X49.285 Y20.386 E23.33554
;WIDTH:2.29049
G1 X49.296 Y20.524 E23.45461
;WIDTH:2.2571
G1 X49.338 Y20.808 E23.69862
;WIDTH:2.22826
G1 X49.339 Y20.812 E23.70219
;WIDTH:2.23012
G1 X49.346 Y20.844 E23.72932
;WIDTH:2.26193
G1 X49.432 Y21.267 E24.09748
;WIDTH:2.26755
G1 X49.443 Y21.322 E24.14515
;WIDTH:2.26909
G1 X49.445 Y21.334 E24.15542
;WIDTH:2.26909
G1 X49.488 Y21.725 E24.49093
;WIDTH:2.26798
M73 P36 R0
M73 Q36 S0
G1 X49.505 Y22.010 E24.73534
;WIDTH:2.24039
G1 X49.508 Y22.072 E24.78715
;WIDTH:2.23633
G1 X49.509 Y22.101 E24.81186
;WIDTH:2.23528
G1 X49.512 Y22.411 E25.07258
;WIDTH:2.20926
G1 X49.511 Y22.473 E25.12333
;WIDTH:2.20601
G1 X49.496 Y23.143 E25.67835
;WIDTH:2.19147
G1 X49.494 Y23.204 E25.72852
;WIDTH:2.20174
G1 X49.480 Y23.465 E25.94445
;WIDTH:2.20174
G1 X49.471 Y23.535 E26.00314
;WIDTH:2.19484
G1 X49.463 Y23.595 E26.05310
;WIDTH:2.19081
G1 X49.422 Y23.860 E26.27313
;WIDTH:2.18121
M73 P37 R0
M73 Q37 S0
G1 X49.346 Y24.247 E26.59568
;WIDTH:2.13503
G1 X49.334 Y24.304 E26.64212
;WIDTH:2.12998
G1 X49.280 Y24.545 E26.83876
;WIDTH:2.11603
G1 X49.263 Y24.627 E26.90501
;WIDTH:2.11925
G1 X49.254 Y24.677 E26.94490
;WIDTH:2.12009
G1 X49.253 Y24.683 E26.94961
;WIDTH:2.14573
G1 X49.220 Y24.858 E27.09294
;WIDTH:2.16169
G1 X49.115 Y25.294 E27.45631
;WIDTH:2.16368
G1 X49.107 Y25.330 E27.48601
;WIDTH:2.17227
G1 X49.093 Y25.391 E27.53697
;WIDTH:2.17474
G1 X49.091 Y25.403 E27.54671
;WIDTH:2.20197
G1 X49.062 Y25.528 E27.65241
;WIDTH:2.2292
G1 X49.034 Y25.652 E27.75955
;WIDTH:2.22919
G1 X49.007 Y25.703 E27.80776
;WIDTH:2.21023
G1 X48.928 Y25.864 E27.95651
;WIDTH:2.16708
M73 P38 R0
M73 Q38 S0
G1 X48.882 Y25.973 E28.05281
;WIDTH:2.14925
G1 X48.858 Y26.031 E28.10333
;WIDTH:2.14184
G1 X48.832 Y26.096 E28.15901
;WIDTH:2.14841
G1 X48.806 Y26.168 E28.22033
;WIDTH:2.18723
G1 X48.714 Y26.434 E28.45168
;WIDTH:2.22606
G1 X48.621 Y26.701 E28.68758
;WIDTH:2.22771
G1 X48.606 Y26.739 E28.72237
;WIDTH:2.23247
G1 X48.580 Y26.800 E28.77762
;WIDTH:2.242
G1 X48.543 Y26.883 E28.85411
;WIDTH:2.242
G1 X48.363 Y27.212 E29.17007
;WIDTH:2.21703
G1 X48.345 Y27.246 E29.20209
;WIDTH:2.21521
G1 X48.281 Y27.369 E29.31787
;WIDTH:2.21129
G1 X48.255 Y27.416 E29.36234
;WIDTH:2.22753
G1 X47.943 Y27.976 E29.89847
;WIDTH:2.23116
M73 P39 R0
M73 Q39 S0
G1 X47.911 Y28.031 E29.95182
;WIDTH:2.26984
G1 X47.687 Y28.405 E30.32487
;WIDTH:2.28958
G1 X47.437 Y28.799 E30.72724
;WIDTH:2.28957
G1 X47.204 Y29.126 E31.07306
;WIDTH:2.26085
G1 X47.172 Y29.169 E31.11924
;WIDTH:2.2584
G1 X46.891 Y29.541 E31.51511
;WIDTH:2.25015
G1 X46.859 Y29.584 E31.56066
;WIDTH:2.27904
G1 X46.369 Y30.270 E32.28378
;WIDTH:2.28392
M73 P40 R0
M73 Q40 S0
G1 X46.327 Y30.327 E32.34494
;WIDTH:2.29831
G1 X46.242 Y30.438 E32.46590
;WIDTH:2.29831
G1 X45.867 Y30.846 E32.94608
;WIDTH:2.25804
G1 X45.830 Y30.885 E32.99245
;WIDTH:2.25553
G1 X45.349 Y31.381 E33.57843
;WIDTH:2.24265
M73 P41 R0
M73 Q41 S0
G1 X45.311 Y31.419 E33.62342
;WIDTH:2.24492
G1 X45.263 Y31.467 E33.68077
;WIDTH:2.24886
G1 X44.813 Y31.896 E34.20642
;WIDTH:2.25055
G1 X44.774 Y31.931 E34.25084
;WIDTH:2.27439
G1 X44.469 Y32.207 E34.60343
G1 X44.279 Y32.368 E34.81641
;WIDTH:2.2723
G1 X44.256 Y32.386 E34.84184
;WIDTH:2.2692
G1 X44.214 Y32.417 E34.88597
;WIDTH:2.26512
G1 X43.655 Y32.825 E35.47606
;WIDTH:2.22782
M73 P42 R0
M73 Q42 S0
G1 X43.615 Y32.853 E35.51722
;WIDTH:2.22637
G1 X43.317 Y33.059 E35.81945
;WIDTH:2.22618
G1 X43.267 Y33.095 E35.87159
;WIDTH:2.24166
G1 X43.048 Y33.256 E36.10054
;WIDTH:2.24553
G1 X43.009 Y33.284 E36.14108
;WIDTH:2.27007
G1 X42.817 Y33.419 E36.34226
;WIDTH:2.29174
G1 X42.431 Y33.674 E36.74170
;WIDTH:2.29174
G1 X42.429 Y33.675 E36.74366
;WIDTH:2.29162
G1 X42.387 Y33.699 E36.78510
;WIDTH:2.2902
G1 X41.816 Y34.019 E37.35023
;WIDTH:2.28596
M73 P43 R0
M73 Q43 S0
G1 X41.703 Y34.078 E37.45910
;WIDTH:2.27676
G1 X41.665 Y34.097 E37.49631
;WIDTH:2.27451
G1 X41.112 Y34.368 E38.02305
;WIDTH:2.30111
G1 X41.038 Y34.432 E38.10758
;WIDTH:2.3466
G1 X40.964 Y34.495 E38.19395
;WIDTH:2.39209
