; generated by PrusaSlicer 2.3.3+win64 on 2022-02-05 at 22:39:01 UTC

; 

; external perimeters extrusion width = 5.62mm
; perimeters extrusion width = 5.62mm
; infill extrusion width = 5.62mm
; solid infill extrusion width = 5.62mm
; top infill extrusion width = 5.00mm
; first layer extrusion width = 2.00mm

M73 P0 R0
M73 Q0 S0
M201 X400 Y400 Z400 E400 ; sets maximum accelerations, mm/sec^2
M203 X40 Y40 Z40 E50 ; sets maximum feedrates, mm/sec
M204 P400 R400 T400 ; sets acceleration (P, T) and retract acceleration (R), mm/sec^2
M205 X8.00 Y8.00 Z0.40 E4.50 ; sets the jerk limits, mm/sec
M205 S0 T0 ; sets the minimum extruding and travel feed rate, mm/sec
M107
M104 S200 ; set temperature
;TYPE:Custom
G90 ; use absolute coordinates
M83 ; extruder relative mode
G92 E0.0
M109 S200 ; set temperature and wait for it to be reached
G21 ; set units to millimeters
G90 ; use absolute coordinates
M82 ; use absolute distances for extrusion
G92 E0
; Filament gcode
;LAYER_CHANGE
;Z:1
;HEIGHT:1
;BEFORE_LAYER_CHANGE
;
;WITNESS ME
;AND DELETE AFTER HERE FOR PANCAKES
;
G92 E0.0
;1


G1 Z1.000 F1200.000
;AFTER_LAYER_CHANGE
;1
G1 X14.443 Y14.036
;TYPE:External perimeter
;WIDTH:2
M73 P9 R0
M73 Q9 S0
G1 F900.000
G1 X16.265 Y12.162 E1.94015
M73 P10 R0
M73 Q10 S0
G1 X18.539 Y10.302 E4.12134
M73 P12 R0
M73 Q12 S0
G1 X21.011 Y8.713 E6.30253
M73 P14 R0
M73 Q14 S0
G1 X23.648 Y7.416 E8.48372
M73 P15 R0
M73 Q15 S0
G1 X26.416 Y6.429 E10.66491
M73 P17 R0
M73 Q17 S0
G1 X29.278 Y5.763 E12.84610
M73 P19 R0
M73 Q19 S0
G1 X32.214 Y5.426 E15.04004
M73 P20 R0
M73 Q20 S0
G1 X33.667 Y5.385 E16.11841
M73 P21 R0
M73 Q21 S0
G1 X35.119 Y5.426 E17.19678
M73 P22 R0
M73 Q22 S0
G1 X38.055 Y5.763 E19.39072
M73 P24 R0
M73 Q24 S0
G1 X40.917 Y6.429 E21.57191
M73 P25 R0
M73 Q25 S0
G1 X43.685 Y7.416 E23.75310
M73 P27 R0
M73 Q27 S0
G1 X46.322 Y8.713 E25.93429
M73 P29 R0
M73 Q29 S0
G1 X48.794 Y10.302 E28.11549
M73 P30 R0
M73 Q30 S0
G1 X51.069 Y12.162 E30.29668
M73 P32 R0
M73 Q32 S0
G1 X53.117 Y14.269 E32.47787
M73 P34 R0
M73 Q34 S0
G1 X54.911 Y16.596 E34.65906
M73 P35 R0
M73 Q35 S0
G1 X56.429 Y19.112 E36.84025
M73 P37 R0
M73 Q37 S0
G1 X57.649 Y21.785 E39.02144
M73 P39 R0
M73 Q39 S0
G1 X58.557 Y24.580 E41.20263
M73 P40 R0
M73 Q40 S0
G1 X59.141 Y27.460 E43.38382
M73 P42 R0
M73 Q42 S0
G1 X59.392 Y30.388 E45.56501
M73 P43 R0
M73 Q43 S0
G1 X59.308 Y33.325 E47.74620
M73 P45 R0
M73 Q45 S0
G1 X58.890 Y36.234 E49.92740
M73 P47 R0
M73 Q47 S0
G1 X58.143 Y39.076 E52.10859
M73 P48 R0
M73 Q48 S0
G1 X57.077 Y41.814 E54.28978
M73 P50 R0
M73 Q50 S0
G1 X55.706 Y44.413 E56.47097
M73 P52 R0
M73 Q52 S0
G1 X54.047 Y46.838 E58.65216
M73 P53 R0
M73 Q53 S0
G1 X52.123 Y49.059 E60.83335
M73 P55 R0
M73 Q55 S0
G1 X49.958 Y51.046 E63.01454
M73 P57 R0
M73 Q57 S0
G1 X47.581 Y52.773 E65.19573
M73 P58 R0
M73 Q58 S0
G1 X45.022 Y54.218 E67.37692
M73 P60 R0
M73 Q60 S0
G1 X42.315 Y55.362 E69.55812
M73 P62 R0
M73 Q62 S0
G1 X39.496 Y56.190 E71.73931
M73 P63 R0
M73 Q63 S0
G1 X36.600 Y56.691 E73.92050
M73 P65 R0
M73 Q65 S0
G1 X33.667 Y56.859 E76.10169
M73 P67 R0
M73 Q67 S0
G1 X30.733 Y56.691 E78.28288
M73 P68 R0
M73 Q68 S0
G1 X27.837 Y56.190 E80.46407
M73 P70 R0
M73 Q70 S0
G1 X25.018 Y55.362 E82.64526
M73 P72 R0
M73 Q72 S0
G1 X22.311 Y54.218 E84.82645
M73 P73 R0
M73 Q73 S0
G1 X19.753 Y52.773 E87.00764
M73 P75 R0
M73 Q75 S0
G1 X17.375 Y51.046 E89.18884
M73 P77 R0
M73 Q77 S0
G1 X15.210 Y49.059 E91.37003
M73 P78 R0
M73 Q78 S0
G1 X13.286 Y46.838 E93.55122
M73 P80 R0
M73 Q80 S0
G1 X11.628 Y44.413 E95.73241
M73 P81 R0
M73 Q81 S0
G1 X10.256 Y41.814 E97.91360
M73 P83 R0
M73 Q83 S0
G1 X9.190 Y39.076 E100.09479
M73 P85 R0
M73 Q85 S0
G1 X8.443 Y36.234 E102.27598
M73 P86 R0
M73 Q86 S0
G1 X8.025 Y33.325 E104.45717
M73 P88 R0
M73 Q88 S0
G1 X7.941 Y30.388 E106.63836
M73 P90 R0
M73 Q90 S0
G1 X8.192 Y27.460 E108.81955
M73 P91 R0
M73 Q91 S0
G1 X8.776 Y24.580 E111.00074
M73 P93 R0
M73 Q93 S0
G1 X9.684 Y21.785 E113.18193
M73 P95 R0
M73 Q95 S0
G1 X10.905 Y19.112 E115.36313
M73 P96 R0
M73 Q96 S0
G1 X12.422 Y16.596 E117.54432
M73 P98 R0
M73 Q98 S0
G1 X13.957 Y14.606 E119.40984
G92 E0
;TYPE:Custom
; Filament-specific end gcode 
;END gcode for filament
G4 ; wait
M73 P100 R0
M73 Q100 S0
; filament used [mm] = 119.41
; filament used [cm3] = 0.29
; total filament used [g] = 0.00
; total filament cost = 0.00
; estimated printing time (normal mode) = 11s
; estimated printing time (silent mode) = 11s

; avoid_crossing_perimeters = 0
; avoid_crossing_perimeters_max_detour = 0
; bed_custom_model = 
; bed_custom_texture = 
; bed_shape = 0x0,120x0,120x120,0x120
; bed_temperature = 0
; before_layer_gcode = ;BEFORE_LAYER_CHANGE\n;\n;WITNESS ME\n;AND DELETE AFTER HERE FOR PANCAKES\n;\nG92 E0.0\n;[layer_z]\n\n
; between_objects_gcode = 
; bottom_fill_pattern = monotonic
; bottom_solid_layers = 0
; bottom_solid_min_thickness = 0
; bridge_acceleration = 0
; bridge_angle = 0
; bridge_fan_speed = 100
; bridge_flow_ratio = 1
; bridge_speed = 30
; brim_width = 0
; clip_multipart_objects = 1
; color_change_gcode = M600
; complete_objects = 0
; cooling = 1
; cooling_tube_length = 5
; cooling_tube_retraction = 91.5
; default_acceleration = 0
; default_filament_profile = "Prusament PLA"
; default_print_profile = 0.15mm QUALITY @MK3
; deretract_speed = 0
; disable_fan_first_layers = 3
; dont_support_bridges = 1
; draft_shield = 0
; duplicate_distance = 6
; elefant_foot_compensation = 0.2
; end_filament_gcode = "; Filament-specific end gcode \n;END gcode for filament\n"
; end_gcode = G4 ; wait
; ensure_vertical_shell_thickness = 0
; external_perimeter_extrusion_width = 0
; external_perimeter_speed = 50%
; external_perimeters_first = 0
; extra_loading_move = -2
; extra_perimeters = 1
; extruder_clearance_height = 20
; extruder_clearance_radius = 20
; extruder_colour = ""
; extruder_offset = 0x0
; extrusion_axis = E
; extrusion_multiplier = 1
; extrusion_width = 0
; fan_always_on = 0
; fan_below_layer_time = 60
; filament_colour = #29B2B2
; filament_cooling_final_speed = 3.4
; filament_cooling_initial_speed = 2.2
; filament_cooling_moves = 4
; filament_cost = 0
; filament_density = 0
; filament_diameter = 1.75
; filament_load_time = 0
; filament_loading_speed = 28
; filament_loading_speed_start = 3
; filament_max_volumetric_speed = 0
; filament_minimal_purge_on_wipe_tower = 15
; filament_notes = ""
; filament_ramming_parameters = "120 100 6.6 6.8 7.2 7.6 7.9 8.2 8.7 9.4 9.9 10.0| 0.05 6.6 0.45 6.8 0.95 7.8 1.45 8.3 1.95 9.7 2.45 10 2.95 7.6 3.45 7.6 3.95 7.6 4.45 7.6 4.95 7.6"
; filament_settings_id = "- default -"
; filament_soluble = 0
; filament_spool_weight = 0
; filament_toolchange_delay = 0
; filament_type = PLA
; filament_unload_time = 0
; filament_unloading_speed = 90
; filament_unloading_speed_start = 100
; filament_vendor = (Unknown)
; fill_angle = 45
; fill_density = 0%
; fill_pattern = rectilinear
; first_layer_acceleration = 0
; first_layer_bed_temperature = 0
; first_layer_extrusion_width = 200%
; first_layer_height = 1
; first_layer_speed = 15
; first_layer_temperature = 200
; full_fan_speed_layer = 0
; gap_fill_speed = 0
; gcode_comments = 0
; gcode_flavor = marlin
; gcode_label_objects = 0
; high_current_on_filament_swap = 0
; host_type = octoprint
; infill_acceleration = 0
; infill_anchor = 600%
; infill_anchor_max = 50
; infill_every_layers = 1
; infill_extruder = 1
; infill_extrusion_width = 0%
; infill_first = 0
; infill_only_where_needed = 0
; infill_overlap = 25%
; infill_speed = 20
; inherits_cummulative = ;;"Original Prusa i3 MK3S & MK3S+"
; interface_shells = 0
; ironing = 0
; ironing_flowrate = 15%
; ironing_spacing = 0.1
; ironing_speed = 15
; ironing_type = top
; layer_gcode = ;AFTER_LAYER_CHANGE\n;[layer_z]
; layer_height = 1
; machine_limits_usage = emit_to_gcode
; machine_max_acceleration_e = 400,400
; machine_max_acceleration_extruding = 400,400
; machine_max_acceleration_retracting = 400,400
; machine_max_acceleration_x = 400,400
; machine_max_acceleration_y = 400,400
; machine_max_acceleration_z = 400,400
; machine_max_feedrate_e = 50,50
; machine_max_feedrate_x = 40,40
; machine_max_feedrate_y = 40,40
; machine_max_feedrate_z = 40,40
; machine_max_jerk_e = 4.5,4.5
; machine_max_jerk_x = 8,8
; machine_max_jerk_y = 8,8
; machine_max_jerk_z = 0.4,0.4
; machine_min_extruding_rate = 0,0
; machine_min_travel_rate = 0,0
; max_fan_speed = 100
; max_layer_height = 0.25
; max_print_height = 210
; max_print_speed = 80
; max_volumetric_speed = 0
; min_fan_speed = 35
; min_layer_height = 0.07
; min_print_speed = 10
; min_skirt_length = 0
; notes = 
; nozzle_diameter = 5
; only_retract_when_crossing_perimeters = 1
; ooze_prevention = 0
; output_filename_format = [input_filename_base].gcode
; overhangs = 1
; parking_pos_retraction = 92
; pause_print_gcode = M601
; perimeter_acceleration = 0
; perimeter_extruder = 1
; perimeter_extrusion_width = 0
; perimeter_speed = 15
; perimeters = 1
; physical_printer_settings_id = 
; post_process = 
; print_settings_id = pancake
; printer_model = MK3S
; printer_notes = Don't remove the following keywords! These keywords are used in the "compatible printer" condition of the print and filament profiles to link the particular print and filament profiles to this printer profile.\nPRINTER_VENDOR_PRUSA3D\nPRINTER_MODEL_MK3\n
; printer_settings_id = pancake
; printer_technology = FFF
; printer_variant = 0.4
; printer_vendor = 
; raft_layers = 0
; remaining_times = 1
; resolution = 0
; retract_before_travel = 1
; retract_before_wipe = 0%
; retract_layer_change = 0
; retract_length = 0
; retract_length_toolchange = 4
; retract_lift = 0.4
; retract_lift_above = 0
; retract_lift_below = 209
; retract_restart_extra = 0
; retract_restart_extra_toolchange = 0
; retract_speed = 0
; seam_position = aligned
; silent_mode = 1
; single_extruder_multi_material = 0
; single_extruder_multi_material_priming = 1
; skirt_distance = 6
; skirt_height = 1
; skirts = 0
; slice_closing_radius = 0.049
; slowdown_below_layer_time = 5
; small_perimeter_speed = 15
; solid_infill_below_area = 70
; solid_infill_every_layers = 0
; solid_infill_extruder = 1
; solid_infill_extrusion_width = 0%
; solid_infill_speed = 20
; spiral_vase = 0
; standby_temperature_delta = -5
; start_filament_gcode = "; Filament gcode\n"
; start_gcode = G90 ; use absolute coordinates\nM83 ; extruder relative mode\nG92 E0.0
; support_material = 0
; support_material_angle = 0
; support_material_auto = 1
; support_material_buildplate_only = 0
; support_material_contact_distance = 0.2
; support_material_enforce_layers = 0
; support_material_extruder = 1
; support_material_extrusion_width = 0
; support_material_interface_contact_loops = 0
; support_material_interface_extruder = 1
; support_material_interface_layers = 3
; support_material_interface_spacing = 0
; support_material_interface_speed = 100%
; support_material_pattern = rectilinear
; support_material_spacing = 2.5
; support_material_speed = 60
; support_material_synchronize_layers = 0
; support_material_threshold = 45
; support_material_with_sheath = 1
; support_material_xy_spacing = 50%
; temperature = 200
; template_custom_gcode = 
; thin_walls = 1
; threads = 12
; thumbnails = 
; toolchange_gcode = 
; top_fill_pattern = monotonic
; top_infill_extrusion_width = 0%
; top_solid_infill_speed = 15
; top_solid_layers = 0
; top_solid_min_thickness = 0
; travel_speed = 20
; use_firmware_retraction = 0
; use_relative_e_distances = 0
; use_volumetric_e = 0
; variable_layer_height = 1
; wipe = 0
; wipe_into_infill = 0
; wipe_into_objects = 0
; wipe_tower = 0
; wipe_tower_bridging = 10
; wipe_tower_no_sparse_layers = 0
; wipe_tower_rotation_angle = 0
; wipe_tower_width = 60
; wipe_tower_x = 180
; wipe_tower_y = 140
; wiping_volumes_extruders = 70,70
; wiping_volumes_matrix = 0
; xy_size_compensation = 0
; z_offset = 0
