; generated by PrusaSlicer 2.3.3+win64 on 2022-02-05 at 22:21:29 UTC

; 

; external perimeters extrusion width = 6.75mm
; perimeters extrusion width = 6.75mm
; infill extrusion width = 6.75mm
; solid infill extrusion width = 6.75mm
; top infill extrusion width = 6.00mm
; first layer extrusion width = 2.00mm

M73 P0 R1
M73 Q0 S1
M201 X400 Y400 Z400 E400 ; sets maximum accelerations, mm/sec^2
M203 X40 Y40 Z40 E50 ; sets maximum feedrates, mm/sec
M204 P400 R400 T400 ; sets acceleration (P, T) and retract acceleration (R), mm/sec^2
M205 X8.00 Y8.00 Z0.40 E4.50 ; sets the jerk limits, mm/sec
M205 S0 T0 ; sets the minimum extruding and travel feed rate, mm/sec
M107
M104 S200 ; set temperature
;TYPE:Custom
G90 ; use absolute coordinates
M83 ; extruder relative mode
G92 E0.0
M109 S200 ; set temperature and wait for it to be reached
G21 ; set units to millimeters
G90 ; use absolute coordinates
M82 ; use absolute distances for extrusion
G92 E0
; Filament gcode
;LAYER_CHANGE
;Z:1
;HEIGHT:1
;BEFORE_LAYER_CHANGE
;
;WITNESS ME
;AND DELETE AFTER HERE FOR PANCAKES
;
G92 E0.0
;1


G1 Z1.000 F1200.000
;AFTER_LAYER_CHANGE
;1
G1 X14.217 Y14.269
;TYPE:External perimeter
;WIDTH:2
M73 P1 R1
M73 Q1 S1
G1 F900.000
G1 X16.265 Y12.162 E2.18119
G1 X18.539 Y10.302 E4.36238
G1 X21.011 Y8.713 E6.54357
G1 X23.648 Y7.416 E8.72477
M73 P2 R1
M73 Q2 S1
G1 X26.416 Y6.429 E10.90596
G1 X29.278 Y5.763 E13.08715
G1 X32.214 Y5.426 E15.28109
G1 X33.667 Y5.385 E16.35946
G1 X35.119 Y5.426 E17.43782
M73 P3 R1
M73 Q3 S1
G1 X38.055 Y5.763 E19.63177
G1 X40.917 Y6.429 E21.81296
G1 X43.685 Y7.416 E23.99415
G1 X46.322 Y8.713 E26.17534
G1 X48.794 Y10.302 E28.35653
M73 P4 R1
M73 Q4 S1
G1 X51.069 Y12.162 E30.53772
G1 X53.117 Y14.269 E32.71891
G1 X54.911 Y16.596 E34.90011
G1 X56.429 Y19.112 E37.08129
M73 P5 R1
M73 Q5 S1
G1 X57.649 Y21.785 E39.26249
G1 X58.557 Y24.580 E41.44368
G1 X59.141 Y27.460 E43.62487
G1 X59.392 Y30.388 E45.80606
G1 X59.308 Y33.325 E47.98725
M73 P6 R1
M73 Q6 S1
G1 X58.890 Y36.234 E50.16844
G1 X58.143 Y39.076 E52.34963
G1 X57.077 Y41.814 E54.53082
G1 X55.706 Y44.413 E56.71201
M73 P7 R1
M73 Q7 S1
G1 X54.047 Y46.838 E58.89320
G1 X52.123 Y49.059 E61.07439
G1 X49.958 Y51.046 E63.25558
G1 X47.581 Y52.773 E65.43678
G1 X45.022 Y54.218 E67.61797
M73 P8 R1
M73 Q8 S1
G1 X42.315 Y55.362 E69.79916
G1 X39.496 Y56.190 E71.98035
G1 X36.600 Y56.691 E74.16154
G1 X33.667 Y56.859 E76.34273
M73 P9 R1
M73 Q9 S1
G1 X30.733 Y56.691 E78.52392
G1 X27.837 Y56.190 E80.70511
G1 X25.018 Y55.362 E82.88630
G1 X22.311 Y54.218 E85.06750
G1 X19.753 Y52.773 E87.24869
M73 P10 R1
M73 Q10 S1
G1 X17.375 Y51.046 E89.42988
G1 X15.210 Y49.059 E91.61107
G1 X13.286 Y46.838 E93.79226
G1 X11.628 Y44.413 E95.97345
M73 P11 R1
M73 Q11 S1
G1 X10.256 Y41.814 E98.15464
G1 X9.190 Y39.076 E100.33583
G1 X8.443 Y36.234 E102.51702
G1 X8.025 Y33.325 E104.69822
G1 X7.941 Y30.388 E106.87941
M73 P12 R1
M73 Q12 S1
G1 X8.192 Y27.460 E109.06060
G1 X8.776 Y24.580 E111.24179
G1 X9.684 Y21.785 E113.42298
G1 X10.905 Y19.112 E115.60417
G1 X12.422 Y16.596 E117.78536
M73 P13 R1
M73 Q13 S1
G1 X13.667 Y14.982 E119.29850
G92 E0
G1 X55.335 Y18.337 F1200.000
;TYPE:Solid infill
;WIDTH:2.02004
M73 P15 R1
M73 Q15 S1
G1 F900.000
G1 X50.089 Y13.090 E5.56941
M73 P16 R1
M73 Q16 S1
G1 X48.006 Y11.387 E7.58917
G1 X45.662 Y9.881 E9.67991
G1 X43.061 Y8.615 E11.85141
G1 X56.132 Y21.687 E25.72699
M73 P18 R1
M73 Q18 S1
G1 X56.399 Y22.272 E26.20986
G1 X57.260 Y24.921 E28.30060
G1 X57.374 Y25.482 E28.72997
G1 X39.326 Y7.434 E47.88848
M73 P20 R1
M73 Q20 S1
G1 X37.827 Y7.085 E49.04382
G1 X36.242 Y6.903 E50.24099
G1 X57.891 Y28.552 E73.22169
M73 P23 R1
M73 Q23 S1
G1 X58.052 Y30.426 E74.63365
G1 X58.028 Y31.243 E75.24697
G1 X33.514 Y6.729 E101.26914
M73 P25 R1
M73 Q25 S1
G1 X32.310 Y6.763 E102.17354
M73 P26 R1
M73 Q26 S1
G1 X31.131 Y6.899 E103.06446
G1 X57.906 Y33.673 E131.48654
M73 P29 R1
M73 Q29 S1
G1 X57.585 Y35.906 E133.17938
G1 X28.904 Y7.225 E163.62455
M73 P32 R1
M73 Q32 S1
G1 X26.833 Y7.707 E165.22098
G1 X57.059 Y37.933 E197.30720
M73 P35 R1
M73 Q35 S1
G1 X56.868 Y38.661 E197.87209
G1 X56.410 Y39.837 E198.81951
G1 X24.947 Y8.375 E232.21793
M73 P39 R1
M73 Q39 S1
G1 X24.170 Y8.652 E232.83695
G1 X23.165 Y9.146 E233.67773
G1 X55.656 Y41.637 E268.16797
M73 P42 R1
M73 Q42 S1
G1 X54.774 Y43.309 E269.58647
G1 X21.474 Y10.008 E304.93636
M73 P46 R1
M73 Q46 S1
G1 X19.919 Y11.007 E306.32325
G1 X53.776 Y44.863 E342.26296
M73 P50 R1
M73 Q50 S1
G1 X52.985 Y46.019 E343.31436
G1 X52.704 Y46.344 E343.63705
G1 X18.458 Y12.098 E379.99022
M73 P54 R1
M73 Q54 S1
G1 X17.171 Y13.150 E381.23725
G1 X17.065 Y13.259 E381.35165
G1 X51.518 Y47.712 E417.92457
M73 P57 R1
M73 Q57 S1
G1 X51.161 Y48.124 E418.33396
G1 X50.231 Y48.978 E419.28167
G1 X15.807 Y14.554 E455.82385
M73 P61 R1
M73 Q61 S1
G1 X15.230 Y15.147 E456.44485
G1 X14.628 Y15.928 E457.18521
G1 X48.876 Y50.177 E493.54091
M73 P65 R1
M73 Q65 S1
G1 X47.397 Y51.251 E494.91300
G1 X13.518 Y17.372 E530.87703
M73 P69 R0
M73 Q69 S0
G1 X12.558 Y18.965 E532.27316
G1 X45.822 Y52.229 E567.58409
M73 P72 R0
M73 Q72 S0
G1 X44.430 Y53.015 E568.78360
M73 P73 R0
M73 Q73 S0
G1 X44.166 Y53.126 E568.99898
G1 X11.679 Y20.640 E603.48448
M73 P76 R0
M73 Q76 S0
G1 X10.934 Y22.272 E604.83139
G1 X10.891 Y22.405 E604.93600
G1 X42.371 Y53.885 E638.35328
M73 P79 R0
M73 Q79 S0
G1 X41.865 Y54.099 E638.76607
M73 P80 R0
M73 Q80 S0
G1 X40.448 Y54.515 E639.87434
G1 X10.265 Y24.332 E671.91474
M73 P83 R0
M73 Q83 S0
G1 X10.073 Y24.921 E672.37989
G1 X9.775 Y26.395 E673.50862
G1 X38.400 Y55.021 E703.89579
M73 P86 R0
M73 Q86 S0
G1 X36.447 Y55.359 E705.38344
G1 X36.199 Y55.373 E705.57008
G1 X9.438 Y28.611 E733.97841
M73 P89 R0
M73 Q89 S0
G1 X9.282 Y30.426 E735.34574
G1 X9.299 Y31.026 E735.79599
G1 X33.784 Y55.511 E761.78783
M73 P92 R0
M73 Q92 S0
G1 X33.667 Y55.518 E761.87609
G1 X31.090 Y55.370 E763.81321
G1 X9.434 Y33.714 E786.80231
M73 P94 R0
M73 Q94 S0
G1 X9.758 Y35.967 E788.51126
M73 P95 R0
M73 Q95 S0
G1 X9.980 Y36.813 E789.16796
G1 X28.012 Y54.846 E808.30986
M73 P97 R0
M73 Q97 S0
G1 X25.469 Y54.099 E810.29974
G1 X24.158 Y53.545 E811.36745
G1 X11.225 Y40.612 E825.09655
M73 P98 R0
M73 Q98 S0
G1 X11.476 Y41.257 E825.61595
G1 X12.776 Y43.720 E827.70669
M73 P99 R0
M73 Q99 S0
G1 X14.348 Y46.019 E829.79741
G1 X16.093 Y48.033 E831.79752
G1 X20.822 Y52.762 E836.81759
G92 E0
;TYPE:Custom
; Filament-specific end gcode 
;END gcode for filament
G4 ; wait
M73 P100 R0
M73 Q100 S0
; filament used [mm] = 956.12
; filament used [cm3] = 2.30
; total filament used [g] = 0.00
; total filament cost = 0.00
; estimated printing time (normal mode) = 1m 28s
; estimated printing time (silent mode) = 1m 28s

; avoid_crossing_perimeters = 0
; avoid_crossing_perimeters_max_detour = 0
; bed_custom_model = 
; bed_custom_texture = 
; bed_shape = 0x0,120x0,120x120,0x120
; bed_temperature = 0
; before_layer_gcode = ;BEFORE_LAYER_CHANGE\n;\n;WITNESS ME\n;AND DELETE AFTER HERE FOR PANCAKES\n;\nG92 E0.0\n;[layer_z]\n\n
; between_objects_gcode = 
; bottom_fill_pattern = monotonic
; bottom_solid_layers = 1
; bottom_solid_min_thickness = 0
; bridge_acceleration = 0
; bridge_angle = 0
; bridge_fan_speed = 100
; bridge_flow_ratio = 1
; bridge_speed = 30
; brim_width = 0
; clip_multipart_objects = 1
; color_change_gcode = M600
; complete_objects = 0
; cooling = 1
; cooling_tube_length = 5
; cooling_tube_retraction = 91.5
; default_acceleration = 0
; default_filament_profile = "Prusament PLA"
; default_print_profile = 0.15mm QUALITY @MK3
; deretract_speed = 0
; disable_fan_first_layers = 3
; dont_support_bridges = 1
; draft_shield = 0
; duplicate_distance = 6
; elefant_foot_compensation = 0.2
; end_filament_gcode = "; Filament-specific end gcode \n;END gcode for filament\n"
; end_gcode = G4 ; wait
; ensure_vertical_shell_thickness = 0
; external_perimeter_extrusion_width = 0
; external_perimeter_speed = 50%
; external_perimeters_first = 0
; extra_loading_move = -2
; extra_perimeters = 1
; extruder_clearance_height = 20
; extruder_clearance_radius = 20
; extruder_colour = ""
; extruder_offset = 0x0
; extrusion_axis = E
; extrusion_multiplier = 1
; extrusion_width = 0
; fan_always_on = 0
; fan_below_layer_time = 60
; filament_colour = #29B2B2
; filament_cooling_final_speed = 3.4
; filament_cooling_initial_speed = 2.2
; filament_cooling_moves = 4
; filament_cost = 0
; filament_density = 0
; filament_diameter = 1.75
; filament_load_time = 0
; filament_loading_speed = 28
; filament_loading_speed_start = 3
; filament_max_volumetric_speed = 0
; filament_minimal_purge_on_wipe_tower = 15
; filament_notes = ""
; filament_ramming_parameters = "120 100 6.6 6.8 7.2 7.6 7.9 8.2 8.7 9.4 9.9 10.0| 0.05 6.6 0.45 6.8 0.95 7.8 1.45 8.3 1.95 9.7 2.45 10 2.95 7.6 3.45 7.6 3.95 7.6 4.45 7.6 4.95 7.6"
; filament_settings_id = "- default -"
; filament_soluble = 0
; filament_spool_weight = 0
; filament_toolchange_delay = 0
; filament_type = PLA
; filament_unload_time = 0
; filament_unloading_speed = 90
; filament_unloading_speed_start = 100
; filament_vendor = (Unknown)
; fill_angle = 45
; fill_density = 0%
; fill_pattern = rectilinear
; first_layer_acceleration = 0
; first_layer_bed_temperature = 0
; first_layer_extrusion_width = 200%
; first_layer_height = 1
; first_layer_speed = 15
; first_layer_temperature = 200
; full_fan_speed_layer = 0
; gap_fill_speed = 0
; gcode_comments = 0
; gcode_flavor = marlin
; gcode_label_objects = 0
; high_current_on_filament_swap = 0
; host_type = octoprint
; infill_acceleration = 0
; infill_anchor = 600%
; infill_anchor_max = 50
; infill_every_layers = 1
; infill_extruder = 1
; infill_extrusion_width = 0%
; infill_first = 0
; infill_only_where_needed = 0
; infill_overlap = 25%
; infill_speed = 20
; inherits_cummulative = ;;"Original Prusa i3 MK3S & MK3S+"
; interface_shells = 0
; ironing = 0
; ironing_flowrate = 15%
; ironing_spacing = 0.1
; ironing_speed = 15
; ironing_type = top
; layer_gcode = ;AFTER_LAYER_CHANGE\n;[layer_z]
; layer_height = 1
; machine_limits_usage = emit_to_gcode
; machine_max_acceleration_e = 400,400
; machine_max_acceleration_extruding = 400,400
; machine_max_acceleration_retracting = 400,400
; machine_max_acceleration_x = 400,400
; machine_max_acceleration_y = 400,400
; machine_max_acceleration_z = 400,400
; machine_max_feedrate_e = 50,50
; machine_max_feedrate_x = 40,40
; machine_max_feedrate_y = 40,40
; machine_max_feedrate_z = 40,40
; machine_max_jerk_e = 4.5,4.5
; machine_max_jerk_x = 8,8
; machine_max_jerk_y = 8,8
; machine_max_jerk_z = 0.4,0.4
; machine_min_extruding_rate = 0,0
; machine_min_travel_rate = 0,0
; max_fan_speed = 100
; max_layer_height = 0.25
; max_print_height = 210
; max_print_speed = 80
; max_volumetric_speed = 0
; min_fan_speed = 35
; min_layer_height = 0.07
; min_print_speed = 10
; min_skirt_length = 0
; notes = 
; nozzle_diameter = 6
; only_retract_when_crossing_perimeters = 1
; ooze_prevention = 0
; output_filename_format = [input_filename_base].gcode
; overhangs = 1
; parking_pos_retraction = 92
; pause_print_gcode = M601
; perimeter_acceleration = 0
; perimeter_extruder = 1
; perimeter_extrusion_width = 0
; perimeter_speed = 15
; perimeters = 1
; physical_printer_settings_id = 
; post_process = 
; print_settings_id = pancake
; printer_model = MK3S
; printer_notes = Don't remove the following keywords! These keywords are used in the "compatible printer" condition of the print and filament profiles to link the particular print and filament profiles to this printer profile.\nPRINTER_VENDOR_PRUSA3D\nPRINTER_MODEL_MK3\n
; printer_settings_id = pancake
; printer_technology = FFF
; printer_variant = 0.4
; printer_vendor = 
; raft_layers = 0
; remaining_times = 1
; resolution = 0
; retract_before_travel = 1
; retract_before_wipe = 0%
; retract_layer_change = 0
; retract_length = 0
; retract_length_toolchange = 4
; retract_lift = 0.4
; retract_lift_above = 0
; retract_lift_below = 209
; retract_restart_extra = 0
; retract_restart_extra_toolchange = 0
; retract_speed = 0
; seam_position = aligned
; silent_mode = 1
; single_extruder_multi_material = 0
; single_extruder_multi_material_priming = 1
; skirt_distance = 6
; skirt_height = 1
; skirts = 0
; slice_closing_radius = 0.049
; slowdown_below_layer_time = 5
; small_perimeter_speed = 15
; solid_infill_below_area = 70
; solid_infill_every_layers = 0
; solid_infill_extruder = 1
; solid_infill_extrusion_width = 0%
; solid_infill_speed = 20
; spiral_vase = 0
; standby_temperature_delta = -5
; start_filament_gcode = "; Filament gcode\n"
; start_gcode = G90 ; use absolute coordinates\nM83 ; extruder relative mode\nG92 E0.0
; support_material = 0
; support_material_angle = 0
; support_material_auto = 1
; support_material_buildplate_only = 0
; support_material_contact_distance = 0.2
; support_material_enforce_layers = 0
; support_material_extruder = 1
; support_material_extrusion_width = 0
; support_material_interface_contact_loops = 0
; support_material_interface_extruder = 1
; support_material_interface_layers = 3
; support_material_interface_spacing = 0
; support_material_interface_speed = 100%
; support_material_pattern = rectilinear
; support_material_spacing = 2.5
; support_material_speed = 60
; support_material_synchronize_layers = 0
; support_material_threshold = 45
; support_material_with_sheath = 1
; support_material_xy_spacing = 50%
; temperature = 200
; template_custom_gcode = 
; thin_walls = 1
; threads = 12
; thumbnails = 
; toolchange_gcode = 
; top_fill_pattern = monotonic
; top_infill_extrusion_width = 0%
; top_solid_infill_speed = 15
; top_solid_layers = 0
; top_solid_min_thickness = 0
; travel_speed = 20
; use_firmware_retraction = 0
; use_relative_e_distances = 0
; use_volumetric_e = 0
; variable_layer_height = 1
; wipe = 0
; wipe_into_infill = 0
; wipe_into_objects = 0
; wipe_tower = 0
; wipe_tower_bridging = 10
; wipe_tower_no_sparse_layers = 0
; wipe_tower_rotation_angle = 0
; wipe_tower_width = 60
; wipe_tower_x = 180
; wipe_tower_y = 140
; wiping_volumes_extruders = 70,70
; wiping_volumes_matrix = 0
; xy_size_compensation = 0
; z_offset = 0
