; generated by Slic3r 1.3.0 on 2022-02-12 at 19:09:00

; external perimeters extrusion width = 1.10mm (12.24mm^3/s)
; perimeters extrusion width = 1.07mm (23.56mm^3/s)
; infill extrusion width = 1.07mm (62.83mm^3/s)
; solid infill extrusion width = 1.07mm (15.71mm^3/s)
; top infill extrusion width = 1.07mm (11.78mm^3/s)

M107
M104 S5 ; set temperature
G28 ; home all axes
G1 E1.6 F30 ; lift nozzle

; Filament gcode

M109 S5 ; set temperature and wait for it to be reached
G21 ; set units to millimeters
G90 ; use absolute coordinates
M82 ; use absolute distances for extrusion
G92 E0
G1 Z1.000 F1800.000
G1 E-0.50000 F2400.00000
G92 E0
G1 X6.696 Y7.271 F1800.000
G1 E0.50000 F2400.00000
G1 F1800
G1 X7.733 Y6.402 E0.96588
G1 X8.040 Y6.174 E1.09748
G1 X9.306 Y5.376 E1.61294
G1 X10.663 Y4.722 E2.13145
G1 X12.031 Y4.230 E2.63193
G1 X13.445 Y3.858 E3.13528
G1 X15.150 Y3.558 E3.73153
G1 F1800
G1 X15.359 Y3.501 E3.80858
G1 F1800
G1 X15.526 Y3.449 E3.87276
G1 F1800
G1 X15.609 Y3.423 E3.90588
G1 X15.707 Y3.253 E3.98057
G1 F1800
G1 X15.805 Y3.083 E4.05292
G1 F1800
G1 X15.918 Y2.859 E4.14204
G1 X16.141 Y2.499 E4.29283
G1 F1800
G1 X16.266 Y2.302 E4.37834
G1 X16.667 Y2.167 E4.53293
G1 F1800
G1 X16.867 Y2.100 E4.60761
G1 X17.025 Y2.081 E4.66414
G1 X18.221 Y1.981 E5.08863
G1 F1800
G1 X19.190 Y2.004 E5.42359
G1 X19.766 Y2.058 E5.62375
G1 X20.345 Y2.146 E5.82617
G1 X20.948 Y2.271 E6.03887
G1 X21.478 Y2.413 E6.22874
G1 X22.260 Y2.677 E6.51393
G1 X22.644 Y2.830 E6.65707
G1 F1800
G1 X23.004 Y2.950 E6.79171
G1 X23.349 Y2.878 E6.91719
G1 F1800
G1 X24.325 Y2.687 E7.26266
G1 X25.223 Y2.648 E7.57512
G1 X26.117 Y2.733 E7.88740
G1 X26.408 Y2.789 E7.99012
G1 X26.991 Y2.943 E8.19977
G1 X27.421 Y3.097 E8.35854
G1 X27.827 Y3.271 E8.51216
G1 X28.577 Y3.692 E8.81098
G1 X28.682 Y3.783 E8.85904
G1 X28.981 Y4.119 E9.01537
G1 F1800
G1 X29.144 Y4.291 E9.10107
G1 X29.626 Y4.400 E9.27871
G1 F1800
G1 X30.506 Y4.521 E9.58989
G1 X30.965 Y4.614 E9.75403
G1 X31.696 Y4.809 E10.01900
G1 X32.188 Y4.970 E10.20029
G1 X33.009 Y5.307 E10.51123
G1 X33.359 Y5.473 E10.64658
G1 X34.397 Y6.074 E11.06686
G1 X35.375 Y6.812 E11.49578
G1 X35.535 Y6.953 E11.57053
G1 X36.456 Y7.902 E12.03380
G1 X37.340 Y9.040 E12.53862
G1 X37.634 Y9.486 E12.72576
G1 X38.092 Y10.270 E13.04351
G1 X38.425 Y10.933 E13.30336
G1 X38.703 Y11.575 E13.54837
G1 X39.026 Y12.468 E13.88099
G1 X39.165 Y12.939 E14.05324
G1 X39.392 Y13.900 E14.39893
G1 X39.473 Y14.347 E14.55814
G1 X39.622 Y15.781 E15.06303
G1 X39.593 Y17.355 E15.61413
G1 X39.391 Y18.819 E16.13190
G1 X39.080 Y20.053 E16.57773
G1 X38.909 Y20.573 E16.76936
G1 X38.584 Y21.406 E17.08261
G1 X38.266 Y22.091 E17.34696
G1 X37.941 Y22.696 E17.58747
G1 X37.528 Y23.372 E17.86493
G1 X37.159 Y23.906 E18.09234
G1 X36.428 Y24.820 E18.50230
G1 X35.389 Y25.871 E19.02006
G1 X35.216 Y26.029 E19.10208
G1 X34.076 Y26.913 E19.60713
G1 X32.841 Y27.657 E20.11212
G1 X32.526 Y27.815 E20.23555
G1 X31.531 Y28.258 E20.61704
G1 X31.167 Y28.396 E20.75347
G1 X30.091 Y28.733 E21.14845
G1 X29.929 Y28.800 E21.20973
G1 F1800
G1 X29.606 Y28.934 E21.33647
G1 F1800
G1 X29.514 Y28.983 E21.37524
G1 F1800
G1 X29.439 Y29.134 E21.43850
G1 F1800
G1 X29.361 Y29.305 E21.50652
G1 F1800
G1 X29.113 Y29.857 E21.71931
G1 X28.912 Y30.161 E21.84774
G1 X28.669 Y30.432 E21.97579
G1 X28.381 Y30.653 E22.10358
G1 X28.260 Y30.717 E22.15194
G1 X27.804 Y30.783 E22.31418
G1 X27.239 Y30.816 E22.51317
G1 X26.584 Y30.823 E22.74357
G1 X25.953 Y30.802 E22.96587
G1 X25.239 Y30.742 E23.21809
G1 X24.674 Y30.670 E23.41857
G1 X23.013 Y30.351 E24.01401
G1 X22.675 Y30.445 E24.13718
G1 X21.730 Y30.775 E24.48969
G1 F1800
G1 X20.810 Y31.054 E24.82019
G1 X19.783 Y31.311 E25.18438
G1 X18.957 Y31.482 E25.47488
G1 X18.026 Y31.632 E25.79897
G1 X17.755 Y31.648 E25.89249
G1 F1800
G1 X17.484 Y31.664 E25.98940
G1 X17.142 Y31.499 E26.12454
G1 F1800
G1 X16.510 Y31.026 E26.39887
G1 X15.871 Y30.457 E26.69605
G1 F1800
G1 X15.603 Y30.223 E26.82239
G1 X15.190 Y30.132 E26.97233
G1 X14.418 Y30.024 E27.24908
G1 F1800
G1 X12.917 Y29.769 E27.77312
G1 X10.805 Y29.268 E28.52046
G1 X9.309 Y28.558 E29.09066
G1 X8.218 Y27.884 E29.53215
G1 X7.789 Y27.574 E29.71448
G1 X7.034 Y26.968 E30.04757
G1 X6.533 Y26.509 E30.28144
G1 X5.961 Y25.925 E30.56298
G1 X5.524 Y25.425 E30.79174
G1 X5.012 Y24.768 E31.07837
G1 X4.464 Y23.957 E31.41538
G1 X4.198 Y23.512 E31.59377
G1 X3.753 Y22.658 E31.92567
G1 X3.531 Y22.173 E32.10919
G1 X3.137 Y21.131 E32.49266
G1 X3.019 Y20.766 E32.62465
G1 X2.680 Y19.378 E33.11666
G1 X2.483 Y17.825 E33.65569
G1 X2.474 Y16.327 E34.17128
G1 X2.491 Y16.096 E34.25095
G1 X2.671 Y14.626 E34.76105
G1 X2.961 Y13.378 E35.20214
G1 X3.117 Y12.871 E35.38487
G1 X3.450 Y11.963 E35.71757
G1 X3.654 Y11.490 E35.89515
G1 X4.094 Y10.613 E36.23297
G1 X4.429 Y10.037 E36.46213
G1 X4.886 Y9.343 E36.74836
G1 X5.480 Y8.563 E37.08577
G1 X5.816 Y8.171 E37.26376
G1 X6.586 Y7.373 E37.64541
G1 E37.14541 F2400.00000
G92 E0
G1 X15.551 Y16.452 F1800.000
G1 E0.50000 F2400.00000
G1 F1800
G1 X15.612 Y16.455 E0.50730
G1 F1800
G1 X15.734 Y16.460 E0.52052
G1 F1800
G1 X16.289 Y16.457 E0.57366
G1 X16.768 Y16.515 E0.61990
G1 X17.252 Y16.655 E0.66824
G1 X17.642 Y16.828 E0.70908
G1 X17.982 Y17.037 E0.74730
G1 X18.431 Y17.415 E0.80361
G1 X18.750 Y17.791 E0.85086
G1 X19.039 Y18.271 E0.90451
G1 X19.232 Y18.763 E0.95515
G1 X19.233 Y19.704 E1.04536
G1 X19.192 Y20.326 E1.10509
G1 X19.087 Y21.131 E1.18290
G1 X18.926 Y21.927 E1.26070
G1 X18.835 Y22.282 E1.29586
G1 X18.586 Y23.082 E1.37616
G1 X18.492 Y23.278 E1.39702
G1 X18.309 Y23.368 E1.41656
G1 X17.819 Y23.542 E1.46637
G1 X16.730 Y23.879 E1.57561
G1 F1800
G1 X16.399 Y23.910 E1.61065
G1 X16.263 Y23.721 E1.63512
G1 F1800
G1 X16.155 Y23.541 E1.65541
G1 X15.855 Y22.823 E1.73035
G1 X15.581 Y21.994 E1.81447
G1 X15.381 Y21.180 E1.89518
G1 X15.248 Y20.373 E1.97403
G1 X15.171 Y19.448 E2.06343
G1 X15.170 Y18.575 E2.14755
G1 X15.238 Y17.705 E2.23166
G1 X15.376 Y16.843 E2.31577
G1 F1800
G1 X15.464 Y16.647 E2.33865
G1 F1800
G1 X15.490 Y16.589 E2.34629
G1 X15.551 Y16.452 F1800.000
G1 F1800
G1 X15.539 Y16.412 E2.35129
G1 F1800
G1 X15.516 Y16.331 E2.36036
G1 F1800
G1 X15.492 Y16.251 E2.36847
G1 F1800
G1 X15.462 Y16.016 E2.38891
G1 X15.462 Y14.396 E2.52900
G1 X15.486 Y14.341 E2.53420
G1 F1800
G1 X15.533 Y14.230 E2.54620
G1 F1800
G1 X15.580 Y14.120 E2.55981
G1 F1800
G1 X15.627 Y14.009 E2.57502
G1 F1800
G1 X15.674 Y13.898 E2.59184
G1 F1800
G1 X15.722 Y13.788 E2.61026
G1 F1800
G1 X15.765 Y13.709 E2.62522
G1 F1800
G1 X15.727 Y13.499 E2.65952
G1 F1800
G1 X15.681 Y13.233 E2.69961
G1 F1800
G1 X15.635 Y12.966 E2.73616
G1 F1800
G1 X15.605 Y12.792 E2.75770
G1 F1800
G1 X15.566 Y12.501 E2.79140
G1 F1800
G1 X15.527 Y12.210 E2.82186
G1 F1800
G1 X15.317 Y11.146 E2.92603
G1 X15.226 Y10.351 E3.00282
G1 X15.194 Y9.645 E3.07068
G1 X15.226 Y8.652 E3.16609
G1 X15.317 Y7.857 E3.24287
G1 X15.473 Y7.039 E3.32289
G1 F1800
G1 X15.607 Y6.729 E3.35816
G1 X15.756 Y6.688 E3.37433
G1 F1800
G1 X15.956 Y6.684 E3.39379
G1 X16.420 Y6.735 E3.43903
G1 X16.736 Y6.799 E3.47034
G1 X17.210 Y6.940 E3.51833
G1 X17.459 Y7.038 E3.54423
G1 X17.878 Y7.243 E3.58947
G1 X18.098 Y7.373 E3.61432
G1 X18.423 Y7.605 E3.65304
G1 X18.622 Y8.042 E3.69964
G1 X18.812 Y8.589 E3.75582
G1 X18.949 Y9.152 E3.81201
G1 X19.033 Y9.725 E3.86821
G1 X19.062 Y10.313 E3.92528
G1 X19.029 Y10.932 E3.98539
G1 X18.950 Y11.456 E4.03683
G1 X18.745 Y12.235 E4.11501
G1 X18.622 Y12.566 E4.14920
G1 X18.427 Y12.988 E4.19433
G1 X18.026 Y13.241 E4.24033
G1 X17.500 Y13.501 E4.29728
G1 X16.950 Y13.707 E4.35424
G1 X16.382 Y13.855 E4.41119
G1 F1800
G1 X16.259 Y13.826 E4.42523
G1 F1800
G1 X16.135 Y13.797 E4.44100
G1 F1800
G1 X16.012 Y13.767 E4.45851
G1 F1800
G1 X15.911 Y13.743 E4.47423
G1 E3.97423 F2400.00000
G92 E0
G1 X26.966 Y21.241 F1800.000
G1 E0.50000 F2400.00000
G1 F1800
G1 X26.916 Y20.965 E0.50663
G1 F1800
G1 X26.865 Y20.690 E0.51710
G1 F1800
G1 X26.815 Y20.414 E0.53142
G1 F1800
G1 X26.765 Y20.139 E0.54958
G1 F1800
G1 X26.714 Y19.863 E0.57158
G1 F1800
G1 X26.664 Y19.588 E0.59743
G1 F1800
G1 X26.614 Y19.312 E0.62713
G1 F1800
G1 X26.563 Y19.036 E0.66067
G1 F1800
G1 X26.513 Y18.761 E0.69805
G1 F1800
G1 X26.463 Y18.485 E0.73928
G1 F1800
G1 X26.412 Y18.210 E0.78435
G1 F1800
G1 X26.362 Y17.934 E0.83326
G1 F1800
G1 X26.312 Y17.658 E0.88602
G1 F1800
G1 X26.261 Y17.383 E0.94263
G1 F1800
G1 X26.211 Y17.107 E1.00308
G1 F1800
G1 X26.161 Y16.832 E1.06737
G1 F1800
G1 X26.136 Y16.694 E1.10144
G1 X26.136 Y10.934 E2.50226
G1 E2.00226 F2400.00000
G92 E0
G1 X28.529 Y20.066 F1800.000
G1 E0.50000 F2400.00000
G1 F1800
G1 X28.955 Y17.491 E1.06485
G1 F1800
G1 X28.991 Y17.211 E1.12962
G1 F1800
G1 X29.010 Y16.997 E1.18103
G1 F1800
G1 X29.036 Y16.610 E1.27740
G1 F1800
G1 X29.063 Y15.975 E1.44216
G1 X29.059 Y15.567 E1.54798
G1 X29.010 Y14.748 E1.76085
G1 F1800
G1 X28.979 Y14.472 E1.83043
G1 F1800
G1 X28.943 Y14.194 E1.89783
G1 F1800
G1 X28.902 Y13.914 E1.96261
G1 F1800
G1 X28.449 Y11.488 E2.49690
G1 E1.99690 F2400.00000
G92 E0
G1 X22.982 Y15.822 F1800.000
G1 E0.50000 F2400.00000
G1 F1800
G1 X22.982 Y14.360 E0.61362
G1 X22.960 Y14.229 E0.62392
G1 F1800
G1 X22.938 Y14.099 E0.63588
G1 X22.813 Y14.101 E0.64717
G1 F1800
G1 X22.688 Y14.103 E0.65690
G1 F1800
G1 X22.563 Y14.105 E0.66509
G1 F1800
G1 X22.501 Y14.105 E0.66842
G1 X20.315 Y14.961 E0.79323
G1 E0.29323 F2400.00000
G92 E0
; Filament-specific end gcode 
;END gcode for filament

M104 S0 ; turn off temperature
G28 X0  ; home X axis
M84     ; disable motors

M140 S0 ; set bed temperature
; filament used = 45.4mm (0.3cm3)
; total filament cost = 0.0

; avoid_crossing_perimeters = 0
; bed_shape = 0x0,100x0,100x100,0x100
; bed_temperature = 0
; before_layer_gcode = 
; between_objects_gcode = 
; bridge_acceleration = 0
; bridge_fan_speed = 100
; brim_connections_width = 0
; brim_width = 0
; complete_objects = 0
; cooling = 1
; default_acceleration = 0
; disable_fan_first_layers = 3
; duplicate_distance = 6
; end_filament_gcode = "; Filament-specific end gcode \n;END gcode for filament\n"
; end_gcode = M104 S0 ; turn off temperature\nG28 X0  ; home X axis\nM84     ; disable motors\n
; extruder_clearance_height = 20
; extruder_clearance_radius = 20
; extruder_offset = 0x0
; extrusion_axis = E
; extrusion_multiplier = 1
; fan_always_on = 0
; fan_below_layer_time = 60
; filament_colour = #FFFFFF
; filament_cost = 0
; filament_density = 0
; filament_diameter = 3
; filament_max_volumetric_speed = 0
; filament_notes = ""
; first_layer_acceleration = 0
; first_layer_bed_temperature = 0
; first_layer_extrusion_width = 200%
; first_layer_speed = 30
; first_layer_temperature = 5
; gcode_arcs = 0
; gcode_comments = 0
; gcode_flavor = reprap
; has_heatbed = 1
; infill_acceleration = 0
; infill_first = 0
; interior_brim_width = 0
; layer_gcode = 
; max_fan_speed = 100
; max_layer_height = 1
; max_print_speed = 80
; max_volumetric_speed = 0
; min_fan_speed = 35
; min_layer_height = 0.15
; min_print_speed = 10
; min_skirt_length = 0
; notes = 
; nozzle_diameter = 1
; only_retract_when_crossing_perimeters = 1
; ooze_prevention = 0
; output_filename_format = [input_filename_base].gcode
; perimeter_acceleration = 0
; post_process = 
; pressure_advance = 0
; printer_notes = 
; resolution = 0
; retract_before_travel = 2
; retract_layer_change = 0
; retract_length = 0.5
; retract_length_toolchange = 10
; retract_lift = 0
; retract_lift_above = 0
; retract_lift_below = 0
; retract_restart_extra = 0
; retract_restart_extra_toolchange = 0
; retract_speed = 40
; skirt_distance = 6
; skirt_height = 1
; skirts = 0
; slowdown_below_layer_time = 5
; spiral_vase = 0
; standby_temperature_delta = -5
; start_filament_gcode = "; Filament gcode\n"
; start_gcode = G28 ; home all axes\nG1 E1.6 F30 ; lift nozzle\n
; temperature = 0
; threads = 12
; toolchange_gcode = 
; travel_speed = 30
; use_firmware_retraction = 0
; use_relative_e_distances = 0
; use_set_and_wait_bed = 0
; use_set_and_wait_extruder = 0
; use_volumetric_e = 0
; vibration_limit = 0
; wipe = 0
; z_offset = 0
; z_steps_per_mm = 0
; adaptive_slicing = 0
; adaptive_slicing_quality = 75%
; dont_support_bridges = 1
; extrusion_width = 0
; first_layer_height = 1
; infill_only_where_needed = 0
; interface_shells = 0
; layer_height = 0.9
; match_horizontal_surfaces = 0
; raft_layers = 0
; regions_overlap = 0
; seam_position = aligned
; sequential_print_priority = 0
; support_material = 0
; support_material_angle = 0
; support_material_buildplate_only = 0
; support_material_contact_distance = 0.2
; support_material_enforce_layers = 0
; support_material_extruder = 1
; support_material_extrusion_width = 0
; support_material_interface_extruder = 1
; support_material_interface_extrusion_width = 0
; support_material_interface_layers = 3
; support_material_interface_spacing = 0
; support_material_interface_speed = 100%
; support_material_max_layers = 0
; support_material_pattern = pillars
; support_material_spacing = 2.5
; support_material_speed = 60
; support_material_threshold = 60%
; xy_size_compensation = 0
; bottom_infill_pattern = rectilinear
; bottom_solid_layers = 0
; bridge_flow_ratio = 1
; bridge_speed = 60
; external_perimeter_extrusion_width = 0
; external_perimeter_speed = 50%
; external_perimeters_first = 0
; extra_perimeters = 0
; fill_angle = 45
; fill_density = 0%
; fill_gaps = 1
; fill_pattern = stars
; gap_fill_speed = 20
; infill_every_layers = 1
; infill_extruder = 1
; infill_extrusion_width = 0
; infill_overlap = 55%
; infill_speed = 80
; overhangs = 1
; perimeter_extruder = 1
; perimeter_extrusion_width = 0
; perimeter_speed = 30
; perimeters = 1
; small_perimeter_speed = 15
; solid_infill_below_area = 70
; solid_infill_every_layers = 0
; solid_infill_extruder = 1
; solid_infill_extrusion_width = 0
; solid_infill_speed = 20
; thin_walls = 1
; top_infill_extrusion_width = 0
; top_infill_pattern = rectilinear
; top_solid_infill_speed = 15
; top_solid_layers = 0
