; generated by Slic3r 1.3.0 on 2022-02-12 at 20:00:44

; external perimeters extrusion width = 1.10mm (12.24mm^3/s)
; perimeters extrusion width = 1.07mm (23.56mm^3/s)
; infill extrusion width = 1.07mm (62.83mm^3/s)
; solid infill extrusion width = 1.07mm (15.71mm^3/s)
; top infill extrusion width = 1.07mm (11.78mm^3/s)

M107
M104 S5 ; set temperature
G28 ; home all axes
G1 E1.6 F30 ; lift nozzle

; Filament gcode

M109 S5 ; set temperature and wait for it to be reached
G21 ; set units to millimeters
G90 ; use absolute coordinates
M82 ; use absolute distances for extrusion
G92 E0
G1 Z1.000 F1800.000
G1 E-0.50000 F2400.00000
G92 E0
G1 X6.885 Y8.090 F1800.000
G1 E0.50000 F2400.00000
G1 F1800
G1 X7.795 Y7.390 E0.73590
G1 X8.409 Y6.974 E0.88825
G1 X9.146 Y6.529 E1.06518
G1 X10.035 Y6.062 E1.27155
G1 X10.579 Y5.813 E1.39446
G1 X11.672 Y5.382 E1.63569
G1 X12.079 Y5.247 E1.72376
G1 X13.284 Y4.916 E1.98060
G1 X13.670 Y4.830 E2.06195
G1 F1800
G1 X14.029 Y4.710 E2.14418
G1 X14.093 Y4.603 E2.17118
G1 F1800
G1 X14.191 Y4.412 E2.21608
G1 F1800
G1 X14.426 Y3.980 E2.31480
G1 X14.605 Y3.753 E2.37274
G1 X14.860 Y3.502 E2.44449
G1 X15.202 Y3.275 E2.52707
G1 X15.476 Y3.144 E2.58803
G1 X15.737 Y3.066 E2.64276
G1 X16.174 Y2.998 E2.73154
G1 X16.523 Y3.008 E2.80157
G1 X17.749 Y3.264 E3.05310
G1 X18.466 Y3.305 E3.19729
G1 X18.669 Y3.306 E3.23795
G1 X19.312 Y3.234 E3.36800
G1 X19.563 Y3.191 E3.41901
G1 X20.136 Y3.029 E3.53868
G1 X20.425 Y2.927 E3.60004
G1 X20.917 Y2.695 E3.70934
G1 X21.229 Y2.521 E3.78106
G1 X21.738 Y2.161 E3.90630
G1 F1800
G1 X22.096 Y1.871 E4.00215
G1 X22.258 Y1.834 E4.03690
G1 F1800
G1 X22.421 Y1.797 E4.07042
G1 X23.345 Y1.683 E4.25760
G1 X23.957 Y1.640 E4.38084
G1 X24.823 Y1.625 E4.55500
G1 X25.729 Y1.665 E4.73713
G1 F1800
G1 X26.300 Y1.719 E4.85876
G1 X27.219 Y1.856 E5.05588
G1 X27.482 Y1.941 E5.11450
G1 F1800
G1 X27.745 Y2.026 E5.17626
G1 F1800
G1 X27.841 Y2.098 E5.20458
G1 F1800
G1 X27.937 Y2.170 E5.23438
G1 F1800
G1 X28.033 Y2.242 E5.26567
G1 F1800
G1 X28.129 Y2.314 E5.29845
G1 F1800
G1 X28.222 Y2.858 E5.45321
G1 X28.377 Y2.906 E5.49877
G1 F1800
G1 X28.533 Y2.953 E5.54214
G1 F1800
G1 X28.688 Y3.001 E5.58330
G1 F1800
G1 X28.843 Y3.049 E5.62228
G1 F1800
G1 X28.998 Y3.096 E5.65905
G1 F1800
G1 X29.154 Y3.144 E5.69363
G1 F1800
G1 X29.862 Y3.166 E5.83601
G1 X30.739 Y3.234 E6.01261
G1 X31.538 Y3.332 E6.17412
G1 X32.275 Y3.458 E6.32422
G1 X33.269 Y3.676 E6.52864
G1 X33.785 Y3.814 E6.63583
G1 X35.035 Y4.216 E6.89965
G1 X36.651 Y4.897 E7.25183
G1 X37.960 Y5.766 E7.56715
G1 X39.183 Y6.792 E7.88764
G1 X40.283 Y7.947 E8.20809
G1 X40.520 Y8.235 E8.28287
G1 X41.247 Y9.219 E8.52857
G1 X41.496 Y9.604 E8.62065
G1 X42.062 Y10.591 E8.84904
G1 X42.304 Y11.079 E8.95841
G1 X42.719 Y12.045 E9.16951
G1 X42.902 Y12.547 E9.27678
G1 X43.208 Y13.563 E9.48996
G1 X43.372 Y14.261 E9.63391
G1 X43.524 Y15.127 E9.81040
G1 X43.616 Y15.924 E9.97166
G1 X43.663 Y16.716 E10.13085
G1 X43.666 Y17.509 E10.29004
G1 X43.623 Y18.311 E10.45129
G1 X43.525 Y19.184 E10.62779
G1 X43.405 Y19.891 E10.77174
G1 X43.162 Y20.924 E10.98492
G1 X43.011 Y21.437 E11.09219
G1 X42.657 Y22.427 E11.30329
G1 X42.446 Y22.929 E11.41266
G1 X41.943 Y23.949 E11.64105
G1 X41.718 Y24.348 E11.73313
G1 X41.053 Y25.376 E11.97883
G1 X40.835 Y25.677 E12.05361
G1 X39.938 Y26.761 E12.33611
G1 X38.730 Y27.932 E12.67391
G1 X37.472 Y28.896 E12.99217
G1 X37.338 Y28.980 E13.02395
G1 X36.030 Y29.638 E13.31794
G1 X34.571 Y30.220 E13.63326
G1 X34.100 Y30.378 E13.73300
G1 X33.067 Y30.671 E13.94860
G1 X32.394 Y30.828 E14.08752
G1 X31.530 Y30.987 E14.26394
G1 X30.651 Y31.107 E14.44204
G1 F1800
G1 X29.933 Y31.170 E14.59538
G1 X29.855 Y31.198 E14.61305
G1 F1800
G1 X29.698 Y31.254 E14.65055
G1 F1800
G1 X29.542 Y31.310 E14.69023
G1 F1800
G1 X29.385 Y31.365 E14.73207
G1 F1800
G1 X29.229 Y31.421 E14.77609
G1 F1800
G1 X29.073 Y31.477 E14.82227
G1 F1800
G1 X29.023 Y31.901 E14.93888
G1 F1800
G1 X28.999 Y32.114 E14.99500
G1 X28.947 Y32.156 E15.01251
G1 F1800
G1 X28.844 Y32.240 E15.04579
G1 F1800
G1 X28.741 Y32.325 E15.07732
G1 F1800
G1 X28.690 Y32.367 E15.09221
G1 X28.561 Y32.418 E15.12310
G1 F1800
G1 X28.304 Y32.519 E15.18171
G1 F1800
G1 X28.175 Y32.570 E15.20943
G1 X27.266 Y32.763 E15.39588
G1 X26.659 Y32.860 E15.51928
G1 X25.799 Y32.949 E15.69274
G1 X24.933 Y32.988 E15.86658
G1 F1800
G1 X24.320 Y32.983 E15.99436
G1 X23.390 Y32.927 E16.18843
G1 X23.061 Y32.873 E16.25794
G1 X22.969 Y32.811 E16.28110
G1 F1800
G1 X22.577 Y32.534 E16.37760
G1 X22.155 Y32.279 E16.47666
G1 X21.833 Y32.125 E16.54848
G1 F1800
G1 X21.160 Y31.873 E16.69806
G1 X20.451 Y31.713 E16.84958
G1 X19.551 Y31.655 E17.03736
G1 X18.636 Y31.753 E17.22908
G1 X17.428 Y32.085 E17.49003
G1 X17.081 Y32.117 E17.56269
G1 X16.724 Y32.094 E17.63720
G1 X16.300 Y31.986 E17.72828
G1 X16.043 Y31.880 E17.78609
G1 X15.737 Y31.695 E17.86060
G1 X15.468 Y31.461 E17.93504
G1 X15.231 Y31.193 E18.00947
G1 X14.959 Y30.737 E18.12014
G1 F1800
G1 X14.833 Y30.542 E18.17036
G1 X14.590 Y30.477 E18.22497
G1 F1800
G1 X12.853 Y30.127 E18.58894
G1 X12.439 Y30.017 E18.67701
G1 X11.322 Y29.656 E18.91824
G1 X10.677 Y29.405 E19.06034
G1 X9.847 Y29.030 E19.24752
G1 X9.083 Y28.632 E19.42446
G1 X8.444 Y28.255 E19.57681
G1 X7.663 Y27.737 E19.76939
G1 X7.129 Y27.340 E19.90610
G1 X6.279 Y26.632 E20.13350
G1 X5.915 Y26.295 E20.23540
G1 X5.029 Y25.376 E20.49763
G1 X4.814 Y25.130 E20.56472
G1 X3.930 Y23.986 E20.86179
G1 X2.992 Y22.471 E21.22783
G1 X2.421 Y21.414 E21.47467
G1 X2.010 Y20.322 E21.71448
G1 X1.911 Y19.964 E21.79066
G1 X1.747 Y19.185 E21.95428
G1 X1.686 Y18.761 E22.04241
G1 X1.634 Y18.024 E22.19407
G1 X1.635 Y17.412 E22.31995
G1 X1.674 Y16.859 E22.43385
G1 X1.813 Y15.947 E22.62331
G1 X1.867 Y15.708 E22.67365
G1 X2.209 Y14.592 E22.91346
G1 X2.713 Y13.501 E23.16030
G1 X3.472 Y12.065 E23.49413
G1 X4.366 Y10.735 E23.82346
G1 X4.565 Y10.476 E23.89054
G1 X5.392 Y9.503 E24.15278
G1 X5.668 Y9.211 E24.23545
G1 X6.539 Y8.385 E24.48208
G1 X6.771 Y8.187 E24.54462
G1 E24.04462 F2400.00000
G92 E0
G1 X27.371 Y6.679 F1800.000
G1 E0.50000 F2400.00000
G1 F1800
G1 X27.509 Y6.930 E0.54301
G1 X27.694 Y7.383 E0.61636
G1 X27.860 Y7.846 E0.69017
G1 X28.124 Y8.738 E0.82967
G1 X28.328 Y9.697 E0.97680
G1 X28.458 Y10.721 E1.13156
G1 X28.500 Y11.650 E1.27107
G1 X28.485 Y12.370 E1.37907
G1 X28.389 Y13.382 E1.53162
G1 X28.209 Y14.383 E1.68417
G1 X27.899 Y15.512 E1.85966
G1 F1800
G1 X27.761 Y15.751 E1.90459
G1 F1800
G1 X27.622 Y15.990 E1.95338
G1 F1800
G1 X27.534 Y15.986 E1.96889
G1 F1800
G1 X27.359 Y15.977 E1.99753
G1 F1800
G1 X26.556 Y15.925 E2.11823
G1 X25.928 Y15.824 E2.21357
G1 X25.323 Y15.668 E2.30733
G1 X24.541 Y15.378 E2.43244
G1 X23.971 Y15.098 E2.52778
G1 X23.750 Y14.948 E2.56774
G1 X23.646 Y14.712 E2.60641
G1 X23.357 Y13.750 E2.75705
G1 X23.140 Y12.712 E2.91618
G1 X23.012 Y11.601 E3.08387
G1 X22.989 Y10.677 E3.22255
G1 X23.039 Y9.762 E3.36000
G1 X23.159 Y8.853 E3.49742
G1 X23.348 Y7.957 E3.63484
G1 X23.484 Y7.461 E3.71197
G1 X23.561 Y7.252 E3.74530
G1 X23.815 Y7.039 E3.79515
G1 X24.239 Y6.782 E3.86948
G1 X24.726 Y6.577 E3.94869
G1 X25.303 Y6.430 E4.03796
G1 X25.663 Y6.385 E4.09240
G1 X26.158 Y6.379 E4.16667
G1 X26.650 Y6.437 E4.24096
G1 X27.131 Y6.558 E4.31529
G1 X27.237 Y6.611 E4.33317
G1 E3.83317 F2400.00000
G92 E0
G1 X27.622 Y15.990 F1800.000
G1 E0.50000 F2400.00000
G1 F1800
G1 X27.640 Y16.078 E0.51591
G1 F1800
G1 X27.658 Y16.167 E0.53062
G1 F1800
G1 X27.676 Y16.255 E0.54415
G1 F1800
G1 X27.694 Y16.343 E0.55648
G1 F1800
G1 X27.707 Y16.483 E0.57384
G1 F1800
G1 X27.733 Y17.947 E0.73693
G1 F1800
G1 X27.729 Y18.092 E0.75476
G1 F1800
G1 X27.717 Y18.188 E0.76794
G1 F1800
G1 X27.705 Y18.284 E0.78245
G1 F1800
G1 X27.694 Y18.379 E0.79830
G1 F1800
G1 X27.688 Y18.427 E0.80689
G1 F1800
G1 X27.814 Y18.616 E0.84600
G1 F1800
G1 X27.941 Y18.804 E0.88243
G1 F1800
G1 X28.005 Y18.898 E0.89922
G1 X28.061 Y19.041 E0.92184
G1 X28.314 Y19.775 E1.03672
G1 X28.579 Y20.773 E1.18926
G1 X28.751 Y21.739 E1.33428
G1 X28.845 Y22.715 E1.47928
G1 X28.859 Y23.696 E1.62429
G1 X28.794 Y24.675 E1.76929
G1 X28.651 Y25.645 E1.91429
G1 X28.429 Y26.601 E2.05929
G1 F1800
G1 X28.149 Y27.488 E2.20376
G1 X28.027 Y27.747 E2.24830
G1 X27.794 Y27.883 E2.29012
G1 F1800
G1 X27.322 Y28.033 E2.36354
G1 X26.835 Y28.121 E2.43692
G1 X26.340 Y28.146 E2.51028
G1 X25.978 Y28.124 E2.56405
G1 X25.362 Y28.004 E2.65701
G1 X24.895 Y27.838 E2.73044
G1 X24.399 Y27.573 E2.81377
G1 X24.188 Y27.411 E2.85312
G1 X24.098 Y27.208 E2.88604
G1 X23.778 Y26.197 E3.04321
G1 X23.558 Y25.217 E3.19199
G1 X23.405 Y24.029 E3.36940
G1 X23.370 Y23.105 E3.50637
G1 X23.410 Y22.198 E3.64096
G1 X23.520 Y21.288 E3.77670
G1 X23.580 Y20.939 E3.82922
G1 X23.809 Y19.961 E3.97800
G1 X23.897 Y19.722 E4.01575
G1 X24.110 Y19.558 E4.05558
G1 X24.361 Y19.404 E4.09918
G1 X25.050 Y19.056 E4.21352
G1 X25.773 Y18.784 E4.32786
G1 X26.019 Y18.713 E4.36585
G1 F1800
G1 X26.639 Y18.571 E4.46460
G1 X27.402 Y18.468 E4.58428
G1 F1800
G1 X27.539 Y18.448 E4.60736
G1 E4.10736 F2400.00000
G92 E0
G1 X13.327 Y10.974 F1800.000
G1 E0.50000 F2400.00000
G1 F1800
G1 X13.706 Y12.314 E0.62429
G1 F1800
G1 X13.761 Y12.546 E0.64817
G1 F1800
G1 X13.817 Y12.779 E0.67491
G1 F1800
G1 X13.874 Y13.039 E0.70789
G1 F1800
G1 X13.932 Y13.327 E0.74773
G1 F1800
G1 X13.988 Y13.631 E0.79338
G1 F1800
G1 X14.044 Y13.968 E0.84722
G1 X14.057 Y16.073 E1.17857
G1 F1800
G1 X14.055 Y19.209 E1.64948
G1 F1800
G1 X14.039 Y20.427 E1.84383
G1 X13.951 Y21.110 E1.95372
G1 F1800
G1 X13.894 Y21.427 E2.00142
G1 F1800
G1 X13.832 Y21.747 E2.04651
G1 F1800
G1 X13.771 Y22.067 E2.08786
G1 F1800
G1 X13.703 Y22.348 E2.12124
G1 F1800
G1 X13.635 Y22.629 E2.15061
G1 F1800
G1 X13.549 Y22.927 E2.17776
G1 F1800
G1 X13.403 Y23.429 E2.21906
G1 F1800
G1 X13.256 Y23.932 E2.25414
G1 E1.75414 F2400.00000
G92 E0
G1 X10.622 Y22.378 F1800.000
G1 E0.50000 F2400.00000
G1 F1800
G1 X10.176 Y19.434 E1.29010
G1 F1800
G1 X10.133 Y19.111 E1.38071
G1 F1800
G1 X10.081 Y18.738 E1.49067
G1 F1800
G1 X10.037 Y18.276 E1.63176
G1 F1800
G1 X9.988 Y17.323 E1.92960
G1 X9.990 Y16.627 E2.14704
G1 F1800
G1 X10.004 Y16.226 E2.26920
G1 F1800
G1 X10.022 Y15.950 E2.35025
G1 F1800
G1 X10.102 Y14.813 E2.67221
G1 F1800
G1 X10.243 Y12.765 E3.22908
G1 E2.72908 F2400.00000
G92 E0
G1 X22.413 Y17.472 F1800.000
G1 E0.50000 F2400.00000
G1 F1800
G1 X18.839 Y16.034 E0.99546
G1 X18.721 Y16.013 E1.01087
G1 F1800
G1 X18.485 Y15.971 E1.04502
G1 F1800
G1 X18.367 Y15.949 E1.06376
G1 X18.317 Y16.101 E1.08866
G1 F1800
G1 X18.267 Y16.252 E1.11133
G1 F1800
G1 X18.218 Y16.404 E1.13176
G1 F1800
G1 X18.168 Y16.555 E1.14994
G1 F1800
G1 X18.168 Y19.310 E1.42567
G1 E0.92567 F2400.00000
G92 E0
; Filament-specific end gcode 
;END gcode for filament

M104 S0 ; turn off temperature
G28 X0  ; home X axis
M84     ; disable motors

M140 S0 ; set bed temperature
; filament used = 37.4mm (0.3cm3)
; total filament cost = 0.0

; avoid_crossing_perimeters = 0
; bed_shape = 0x0,100x0,100x100,0x100
; bed_temperature = 0
; before_layer_gcode = 
; between_objects_gcode = 
; bridge_acceleration = 0
; bridge_fan_speed = 100
; brim_connections_width = 0
; brim_width = 0
; complete_objects = 0
; cooling = 1
; default_acceleration = 0
; disable_fan_first_layers = 3
; duplicate_distance = 6
; end_filament_gcode = "; Filament-specific end gcode \n;END gcode for filament\n"
; end_gcode = M104 S0 ; turn off temperature\nG28 X0  ; home X axis\nM84     ; disable motors\n
; extruder_clearance_height = 20
; extruder_clearance_radius = 20
; extruder_offset = 0x0
; extrusion_axis = E
; extrusion_multiplier = 1
; fan_always_on = 0
; fan_below_layer_time = 60
; filament_colour = #FFFFFF
; filament_cost = 0
; filament_density = 0
; filament_diameter = 3
; filament_max_volumetric_speed = 0
; filament_notes = ""
; first_layer_acceleration = 0
; first_layer_bed_temperature = 0
; first_layer_extrusion_width = 200%
; first_layer_speed = 30
; first_layer_temperature = 5
; gcode_arcs = 0
; gcode_comments = 0
; gcode_flavor = reprap
; has_heatbed = 1
; infill_acceleration = 0
; infill_first = 0
; interior_brim_width = 0
; layer_gcode = 
; max_fan_speed = 100
; max_layer_height = 1
; max_print_speed = 80
; max_volumetric_speed = 0
; min_fan_speed = 35
; min_layer_height = 0.15
; min_print_speed = 10
; min_skirt_length = 0
; notes = 
; nozzle_diameter = 1
; only_retract_when_crossing_perimeters = 1
; ooze_prevention = 0
; output_filename_format = [input_filename_base].gcode
; perimeter_acceleration = 0
; post_process = 
; pressure_advance = 0
; printer_notes = 
; resolution = 0
; retract_before_travel = 2
; retract_layer_change = 0
; retract_length = 0.5
; retract_length_toolchange = 10
; retract_lift = 0
; retract_lift_above = 0
; retract_lift_below = 0
; retract_restart_extra = 0
; retract_restart_extra_toolchange = 0
; retract_speed = 40
; skirt_distance = 6
; skirt_height = 1
; skirts = 0
; slowdown_below_layer_time = 5
; spiral_vase = 0
; standby_temperature_delta = -5
; start_filament_gcode = "; Filament gcode\n"
; start_gcode = G28 ; home all axes\nG1 E1.6 F30 ; lift nozzle\n
; temperature = 0
; threads = 12
; toolchange_gcode = 
; travel_speed = 30
; use_firmware_retraction = 0
; use_relative_e_distances = 0
; use_set_and_wait_bed = 0
; use_set_and_wait_extruder = 0
; use_volumetric_e = 0
; vibration_limit = 0
; wipe = 0
; z_offset = 0
; z_steps_per_mm = 0
; adaptive_slicing = 0
; adaptive_slicing_quality = 75%
; dont_support_bridges = 1
; extrusion_width = 0
; first_layer_height = 1
; infill_only_where_needed = 0
; interface_shells = 0
; layer_height = 0.9
; match_horizontal_surfaces = 0
; raft_layers = 0
; regions_overlap = 0
; seam_position = aligned
; sequential_print_priority = 0
; support_material = 0
; support_material_angle = 0
; support_material_buildplate_only = 0
; support_material_contact_distance = 0.2
; support_material_enforce_layers = 0
; support_material_extruder = 1
; support_material_extrusion_width = 0
; support_material_interface_extruder = 1
; support_material_interface_extrusion_width = 0
; support_material_interface_layers = 3
; support_material_interface_spacing = 0
; support_material_interface_speed = 100%
; support_material_max_layers = 0
; support_material_pattern = pillars
; support_material_spacing = 2.5
; support_material_speed = 60
; support_material_threshold = 60%
; xy_size_compensation = 0
; bottom_infill_pattern = rectilinear
; bottom_solid_layers = 0
; bridge_flow_ratio = 1
; bridge_speed = 60
; external_perimeter_extrusion_width = 0
; external_perimeter_speed = 50%
; external_perimeters_first = 0
; extra_perimeters = 0
; fill_angle = 45
; fill_density = 0%
; fill_gaps = 1
; fill_pattern = stars
; gap_fill_speed = 20
; infill_every_layers = 1
; infill_extruder = 1
; infill_extrusion_width = 0
; infill_overlap = 55%
; infill_speed = 80
; overhangs = 1
; perimeter_extruder = 1
; perimeter_extrusion_width = 0
; perimeter_speed = 30
; perimeters = 1
; small_perimeter_speed = 15
; solid_infill_below_area = 70
; solid_infill_every_layers = 0
; solid_infill_extruder = 1
; solid_infill_extrusion_width = 0
; solid_infill_speed = 20
; thin_walls = 1
; top_infill_extrusion_width = 0
; top_infill_pattern = rectilinear
; top_solid_infill_speed = 15
; top_solid_layers = 0
