; generated by PrusaSlicer 2.3.3+win64 on 2022-02-06 at 01:09:59 UTC

; 

; external perimeters extrusion width = 1.35mm
; perimeters extrusion width = 1.35mm
; infill extrusion width = 1.35mm
; solid infill extrusion width = 1.35mm
; top infill extrusion width = 1.20mm
; first layer extrusion width = 1.00mm

M73 P0 R1
M73 Q0 S1
M201 X400 Y400 Z400 E400 ; sets maximum accelerations, mm/sec^2
M203 X40 Y40 Z40 E50 ; sets maximum feedrates, mm/sec
M204 P400 R400 T400 ; sets acceleration (P, T) and retract acceleration (R), mm/sec^2
M205 X8.00 Y8.00 Z0.40 E4.50 ; sets the jerk limits, mm/sec
M205 S0 T0 ; sets the minimum extruding and travel feed rate, mm/sec
M107
M104 S200 ; set temperature
;TYPE:Custom
G90 ; use absolute coordinates
M83 ; extruder relative mode
G92 E0.0
M109 S200 ; set temperature and wait for it to be reached
G21 ; set units to millimeters
G90 ; use absolute coordinates
M82 ; use absolute distances for extrusion
G92 E0
; Filament gcode
;LAYER_CHANGE
;Z:0.5
;HEIGHT:0.5
;BEFORE_LAYER_CHANGE
;
;WITNESS ME
;AND DELETE AFTER HERE FOR PANCAKES
;
G92 E0.0
;0.5


G1 Z0.500 F1200.000
;AFTER_LAYER_CHANGE
;0.5
G1 X10.705 Y60.899
;TYPE:External perimeter
;WIDTH:1.34639
M73 P4 R1
M73 Q4 S1
G1 F900.000
G1 X10.549 Y60.229 E0.17733
;WIDTH:1.33628
G1 X10.514 Y60.054 E0.22278
;WIDTH:1.2944
G1 X10.479 Y59.880 E0.26668
;WIDTH:1.25253
G1 X10.444 Y59.706 E0.30904
;WIDTH:1.21066
G1 X10.409 Y59.531 E0.34984
;WIDTH:1.16878
G1 X10.391 Y59.396 E0.37985
;WIDTH:1.16658
M73 P5 R1
M73 Q5 S1
G1 X10.353 Y58.847 E0.50107
;WIDTH:1.16658
G1 X10.330 Y58.262 E0.62993
;WIDTH:1.14529
G1 X10.330 Y58.245 E0.63374
;WIDTH:1.14495
G1 X10.318 Y57.722 E0.74645
;WIDTH:1.1437
G1 X10.321 Y57.126 E0.87482
;WIDTH:1.1102
G1 X10.321 Y57.106 E0.87908
;WIDTH:1.10947
G1 X10.338 Y56.454 E1.01496
;WIDTH:1.09939
G1 X10.362 Y56.001 E1.10856
;WIDTH:1.0654
G1 X10.364 Y55.978 E1.11306
;WIDTH:1.06424
G1 X10.436 Y55.059 E1.29657
;WIDTH:1.03869
G1 X10.454 Y54.882 E1.33084
;WIDTH:1.02529
G1 X10.457 Y54.858 E1.33549
;WIDTH:1.0241
G1 X10.526 Y54.327 E1.43766
;WIDTH:1.01197
G1 X10.608 Y53.769 E1.54370
;WIDTH:0.9799
G1 X10.612 Y53.744 E1.54829
;WIDTH:0.979394
G1 X10.643 Y53.567 E1.58080
;WIDTH:0.979393
G1 X10.741 Y53.066 E1.67347
;WIDTH:0.961664
G1 X10.705 Y52.912 E1.70155
;WIDTH:0.916486
G1 X10.668 Y52.758 E1.72814
;WIDTH:0.871307
G1 X10.632 Y52.604 E1.75324
;WIDTH:0.826128
G1 X10.596 Y52.450 E1.77687
;WIDTH:0.780949
G1 X10.559 Y52.296 E1.79900
;WIDTH:0.73577
G1 X10.523 Y52.142 E1.81966
G92 E0
G1 X22.803 Y42.273 F1200.000
;WIDTH:0.47449
M73 P6 R1
M73 Q6 S1
G1 F900.000
G1 X22.771 Y42.175 E0.00784
;WIDTH:0.52214
M73 P7 R1
M73 Q7 S1
G1 X22.739 Y42.077 E0.01670
;WIDTH:0.56979
G1 X22.708 Y41.980 E0.02657
;WIDTH:0.617439
G1 X22.676 Y41.882 E0.03747
;WIDTH:0.65621
G1 X22.615 Y41.812 E0.04805
;WIDTH:0.694981
G1 X22.553 Y41.743 E0.05938
;WIDTH:0.733752
G1 X22.492 Y41.673 E0.07146
;WIDTH:0.772522
G1 X22.431 Y41.604 E0.08429
;WIDTH:0.79178
G1 X22.390 Y41.552 E0.09360
;WIDTH:0.797019
G1 X22.380 Y41.539 E0.09597
;WIDTH:0.838624
G1 X22.308 Y41.441 E0.11452
;WIDTH:0.880228
G1 X22.235 Y41.343 E0.13412
;WIDTH:0.921833
G1 X22.163 Y41.245 E0.15478
;WIDTH:0.963437
G1 X22.090 Y41.146 E0.17649
;WIDTH:1.00977
G1 X21.990 Y40.999 E0.20988
;WIDTH:1.0561
G1 X21.890 Y40.852 E0.24497
;WIDTH:1.06
G1 X21.883 Y40.840 E0.24778
;WIDTH:1.09031
G1 X21.825 Y40.753 E0.26916
;WIDTH:1.12062
G1 X21.768 Y40.665 E0.29120
;WIDTH:1.16612
G1 X21.667 Y40.504 E0.33306
;WIDTH:1.21161
G1 X21.567 Y40.342 E0.37672
;WIDTH:1.2571
G1 X21.467 Y40.181 E0.42217
;WIDTH:1.30259
G1 X21.366 Y40.019 E0.46943
;WIDTH:1.32117
G1 X21.278 Y39.852 E0.51708
;WIDTH:1.32117
G1 X21.209 Y39.840 E0.53480
;WIDTH:1.27127
G1 X21.140 Y39.828 E0.55179
;WIDTH:1.22137
G1 X21.071 Y39.816 E0.56805
;WIDTH:1.17147
G1 X21.002 Y39.804 E0.58358
;WIDTH:1.12157
G1 X20.933 Y39.792 E0.59839
;WIDTH:1.07167
G1 X20.863 Y39.780 E0.61247
;WIDTH:1.02177
G1 X20.794 Y39.767 E0.62582
;WIDTH:0.971873
G1 X20.725 Y39.755 E0.63844
;WIDTH:0.921974
G1 X20.656 Y39.743 E0.65033
;WIDTH:0.872074
G1 X20.587 Y39.731 E0.66149
;WIDTH:0.822175
G1 X20.517 Y39.719 E0.67193
G92 E0
G1 X18.181 Y38.453 F1200.000
;WIDTH:1
G1 F900.000
G1 X17.224 Y36.110 E0.46958
G1 X16.193 Y33.363 E1.01421
M73 P8 R1
M73 Q8 S1
G1 X15.323 Y30.752 E1.52482
G1 X14.953 Y29.504 E1.76642
G1 X14.618 Y28.286 E2.00091
G1 X14.236 Y26.714 E2.30103
G1 X14.074 Y25.958 E2.44462
G1 X13.800 Y24.477 E2.72394
M73 P9 R1
M73 Q9 S1
G1 X13.691 Y23.769 E2.85703
G1 X13.525 Y22.382 E3.11619
G1 X13.469 Y21.721 E3.23924
G1 X13.409 Y20.432 E3.47872
G1 X13.420 Y19.206 E3.70633
G1 X13.451 Y18.626 E3.81407
G1 X13.566 Y17.495 E4.02502
G1 X13.750 Y16.427 E4.22620
G1 X13.864 Y15.928 E4.32119
G1 X14.150 Y14.952 E4.50987
M73 P10 R1
M73 Q10 S1
G1 X14.313 Y14.515 E4.59635
G1 X14.501 Y14.087 E4.68317
G1 X14.951 Y13.212 E4.86574
G1 X15.988 Y11.429 E5.24845
G1 X16.500 Y10.488 E5.44724
G1 X16.952 Y9.490 E5.65054
G1 X17.145 Y8.955 E5.75623
G1 X17.304 Y8.403 E5.86275
G1 X17.424 Y7.829 E5.97163
G1 X17.499 Y7.230 E6.08353
G1 X17.523 Y6.580 E6.20427
M73 P11 R1
M73 Q11 S1
G1 X17.502 Y5.951 E6.32101
G1 X17.450 Y5.350 E6.43303
G1 X17.267 Y3.754 E6.73114
G1 X17.240 Y3.317 E6.81244
G1 X17.247 Y2.938 E6.88272
G1 X17.293 Y2.624 E6.94157
G1 X17.372 Y2.390 E6.98740
G1 X17.549 Y2.134 E7.04510
G1 X17.786 Y1.960 E7.09965
G1 X17.912 Y1.897 E7.12588
G1 X18.331 Y1.758 E7.20782
G1 X18.896 Y1.661 E7.31421
G1 X19.639 Y1.616 E7.45227
G1 X24.912 Y1.562 E8.43078
M73 P12 R1
M73 Q12 S1
G1 X40.775 Y1.616 E11.37463
M73 P13 R1
M73 Q13 S1
G1 X66.337 Y1.581 E16.11806
M73 P16 R1
M73 Q16 S1
G1 X67.238 Y1.560 E16.28546
G1 X70.060 Y1.413 E16.80972
G1 X70.979 Y1.403 E16.98026
G1 X71.874 Y1.443 E17.14655
M73 P17 R1
M73 Q17 S1
G1 X72.287 Y1.485 E17.22358
G1 X73.106 Y1.633 E17.37803
G1 X73.480 Y1.736 E17.45005
G1 X73.743 Y1.826 E17.50166
G1 X73.967 Y1.927 E17.54715
G1 X74.155 Y2.040 E17.58806
G1 X74.311 Y2.165 E17.62496
G1 X74.435 Y2.300 E17.65913
G1 X74.534 Y2.452 E17.69267
G1 X74.610 Y2.628 E17.72830
G1 X74.666 Y2.852 E17.77118
G1 X74.716 Y3.249 E17.84536
G1 X74.742 Y3.686 E17.92653
G1 X74.725 Y4.618 E18.09965
G1 X74.629 Y5.628 E18.28782
G1 X74.476 Y6.666 E18.48256
G1 X73.817 Y10.263 E19.16113
M73 P18 R1
M73 Q18 S1
G1 X73.503 Y12.394 E19.56087
G1 X73.232 Y14.042 E19.87086
G1 X72.617 Y17.334 E20.49224
G1 X71.924 Y20.613 E21.11430
M73 P19 R1
M73 Q19 S1
G1 X70.088 Y28.573 E22.63011
M73 P20 R1
M73 Q20 S1
G1 X69.680 Y30.119 E22.92689
G1 X69.216 Y31.638 E23.22159
G1 X68.677 Y33.114 E23.51321
G1 X68.376 Y33.826 E23.65663
G1 X68.048 Y34.525 E23.79995
G1 X67.693 Y35.207 E23.94261
G1 X66.751 Y36.827 E24.29042
G1 X67.934 Y36.878 E24.51020
M73 P21 R1
M73 Q21 S1
G1 X68.193 Y37.025 E24.56549
G1 X68.632 Y37.352 E24.66710
G1 X69.359 Y37.974 E24.84468
G1 X70.521 Y39.069 E25.14101
G1 X71.985 Y40.565 E25.52943
G1 X72.821 Y41.538 E25.76737
G1 X73.641 Y42.535 E26.00695
G1 X75.242 Y44.581 E26.48904
M73 P22 R1
M73 Q22 S1
G1 X78.724 Y49.247 E27.56950
G1 X79.328 Y50.185 E27.77658
G1 X79.806 Y51.088 E27.96614
G1 X80.004 Y51.539 E28.05758
M73 P23 R1
M73 Q23 S1
G1 X80.324 Y52.445 E28.23579
G1 X80.557 Y53.401 E28.41846
G1 X80.640 Y53.883 E28.50911
G1 X80.751 Y54.932 E28.70499
G1 X80.779 Y55.477 E28.80614
G1 X80.785 Y56.664 E29.02646
G1 X80.739 Y57.677 E29.21467
G1 X80.681 Y58.160 E29.30496
G1 X80.583 Y58.609 E29.39024
G1 X80.443 Y58.991 E29.46573
G1 X80.279 Y59.266 E29.52511
G1 X80.385 Y59.299 E29.54569
G1 X80.088 Y59.504 E29.61261
G1 X79.693 Y59.965 E29.72529
G1 X79.693 Y59.745 E29.76612
M73 P24 R1
M73 Q24 S1
G1 X79.471 Y59.828 E29.81004
G1 X78.977 Y59.933 E29.90377
G1 X78.721 Y59.955 E29.95149
G1 X78.160 Y59.945 E30.05566
G1 X77.579 Y59.869 E30.16435
G1 X76.247 Y59.599 E30.41651
G1 X74.914 Y59.258 E30.67183
G1 X73.584 Y58.859 E30.92952
G1 X72.260 Y58.412 E31.18882
G1 X69.618 Y57.422 E31.71252
M73 P25 R1
M73 Q25 S1
G1 X67.004 Y56.387 E32.23413
G1 X64.165 Y55.248 E32.80178
G1 X61.345 Y54.065 E33.36934
M73 P26 R1
M73 Q26 S1
G1 X58.546 Y52.831 E33.93704
G1 X55.772 Y51.539 E34.50478
G1 X53.921 Y50.627 E34.88774
G1 X51.927 Y49.564 E35.30704
M73 P27 R1
M73 Q27 S1
G1 X48.087 Y49.682 E36.02001
G1 X44.790 Y49.748 E36.63191
G1 X41.847 Y49.766 E37.17804
M73 P28 R1
M73 Q28 S1
G1 X39.259 Y49.738 E37.65835
G1 X37.027 Y49.663 E38.07274
G1 X35.155 Y49.542 E38.42096
G1 X33.642 Y49.376 E38.70338
G1 X33.032 Y49.278 E38.81803
M73 P29 R1
M73 Q29 S1
G1 X32.131 Y49.090 E38.98882
G1 X30.490 Y50.690 E39.41411
G1 X29.084 Y51.966 E39.76639
G1 X27.640 Y53.196 E40.11833
G1 X26.163 Y54.387 E40.47049
G1 X24.657 Y55.547 E40.82324
M73 P30 R1
M73 Q30 S1
G1 X23.128 Y56.682 E41.17659
G1 X20.015 Y58.909 E41.88699
G1 X19.269 Y59.419 E42.05456
G1 X17.745 Y60.372 E42.38818
G1 X16.165 Y61.245 E42.72319
M73 P31 R1
M73 Q31 S1
G1 X14.539 Y62.031 E43.05833
G1 X13.718 Y62.388 E43.22441
G1 X12.034 Y63.042 E43.55974
G1 X10.316 Y63.605 E43.89516
G1 X9.455 Y63.849 E44.06136
G1 X7.694 Y64.274 E44.39748
M73 P32 R1
M73 Q32 S1
G1 X6.815 Y64.448 E44.56370
G1 X5.364 Y64.681 E44.83641
G1 X5.039 Y64.717 E44.89713
G1 X4.719 Y64.725 E44.95646
G1 X3.544 Y64.662 E45.17487
G1 X3.265 Y64.583 E45.22855
G1 X3.028 Y64.385 E45.28604
G1 X2.843 Y64.067 E45.35427
G1 X2.763 Y63.772 E45.41090
G1 X2.721 Y63.318 E45.49551
G1 X2.737 Y62.844 E45.58358
G1 X2.810 Y62.362 E45.67406
G1 X2.933 Y61.876 E45.76702
G1 X3.101 Y61.393 E45.86199
G1 X3.307 Y60.917 E45.95813
G1 X3.542 Y60.458 E46.05387
G1 X7.416 Y54.016 E47.44882
M73 P33 R1
M73 Q33 S1
G1 X12.845 Y44.827 E49.42937
M73 P34 R1
M73 Q34 S1
G1 X13.623 Y43.595 E49.69989
M73 P35 R1
M73 Q35 S1
G1 X14.473 Y42.421 E49.96879
G1 X15.397 Y41.303 E50.23805
G1 X16.398 Y40.236 E50.50953
G1 X18.054 Y38.580 E50.94400
G92 E0
G1 X18.547 Y2.847 F1200.000
M73 P38 R1
M73 Q38 S1
G1 F900.000
G1 X73.413 Y2.847 E10.18155
M73 P44 R1
M73 Q44 S1
G1 X72.923 Y6.219 E10.81389
G1 X72.121 Y11.268 E11.76256
G1 X71.248 Y16.176 E12.68765
M73 P45 R1
M73 Q45 S1
G1 X70.784 Y18.575 E13.14125
G1 X68.727 Y28.420 E15.00749
M73 P46 R1
M73 Q46 S1
G1 X68.415 Y29.726 E15.25665
G1 X68.055 Y31.025 E15.50687
M73 P47 R1
M73 Q47 S1
G1 X67.634 Y32.315 E15.75862
G1 X67.134 Y33.592 E16.01321
G1 X66.668 Y34.602 E16.21968
G1 X66.126 Y35.614 E16.43268
G1 X65.783 Y36.127 E16.54712
G1 X65.559 Y36.387 E16.61076
G1 X65.148 Y36.762 E16.71405
G1 X64.485 Y37.636 E16.91763
G1 X65.014 Y37.719 E17.01693
G1 X65.353 Y37.855 E17.08481
G1 X65.629 Y37.997 E17.14230
G1 X65.956 Y38.057 E17.20399
G1 X66.364 Y38.186 E17.28342
M73 P48 R1
M73 Q48 S1
G1 X66.720 Y38.348 E17.35602
G1 X67.362 Y38.686 E17.49061
G1 X68.276 Y39.263 E17.69126
G1 X68.734 Y39.603 E17.79700
G1 X69.178 Y39.975 E17.90456
G1 X70.110 Y40.836 E18.14002
G1 X70.999 Y41.728 E18.37368
G1 X71.841 Y42.659 E18.60663
G1 X72.631 Y43.632 E18.83928
G1 X73.369 Y44.651 E19.07270
G1 X73.815 Y45.398 E19.23418
M73 P49 R1
M73 Q49 S1
G1 X74.019 Y45.859 E19.32770
G1 X74.074 Y46.169 E19.38622
G1 X74.622 Y47.263 E19.61312
G1 X74.989 Y46.586 E19.75594
G1 X75.857 Y47.536 E19.99462
G1 X76.158 Y47.918 E20.08489
G1 X76.872 Y48.911 E20.31183
G1 X77.385 Y49.650 E20.47877
G1 X77.885 Y50.421 E20.64929
G1 X78.352 Y51.226 E20.82199
G1 X78.764 Y52.058 E20.99436
M73 P50 R1
M73 Q50 S1
G1 X78.951 Y52.504 E21.08414
G1 X79.247 Y53.388 E21.25704
G1 X79.361 Y53.857 E21.34660
G1 X79.445 Y54.334 E21.43644
G1 X79.642 Y56.609 E21.86023
G1 X79.691 Y57.601 E22.04463
G1 X79.692 Y59.081 E22.31927
G1 X78.510 Y58.709 E22.54936
G1 X77.639 Y58.527 E22.71445
M73 P51 R1
M73 Q51 S1
G1 X77.029 Y58.359 E22.83183
G1 X76.639 Y58.194 E22.91041
G1 X76.113 Y57.784 E23.03420
G1 X76.108 Y57.589 E23.07056
G1 X74.808 Y57.199 E23.32237
G1 X74.355 Y57.185 E23.40649
G1 X74.033 Y57.127 E23.46713
G1 X73.706 Y57.033 E23.53033
G1 X71.744 Y56.291 E23.91956
G1 X68.434 Y54.929 E24.58371
M73 P52 R1
M73 Q52 S1
G1 X65.961 Y53.853 E25.08415
G1 X61.858 Y51.991 E25.92036
G1 X57.277 Y49.827 E26.86058
M73 P53 R1
M73 Q53 S1
G1 X52.406 Y47.455 E27.86589
G1 X50.798 Y47.644 E28.16628
M73 P54 R0
M73 Q54 S0
G1 X49.142 Y47.806 E28.47510
G1 X47.100 Y47.969 E28.85516
G1 X45.568 Y48.064 E29.14003
G1 X43.092 Y48.168 E29.59991
G1 X41.358 Y48.198 E29.92184
M73 P55 R0
M73 Q55 S0
G1 X39.591 Y48.187 E30.24961
G1 X37.820 Y48.127 E30.57855
G1 X36.074 Y48.009 E30.90324
G1 X35.210 Y47.925 E31.06443
G1 X33.549 Y47.704 E31.37526
G1 X32.744 Y47.562 E31.52696
G1 X31.597 Y47.308 E31.74500
M73 P56 R0
M73 Q56 S0
G1 X30.619 Y48.411 E32.01863
G1 X29.620 Y49.436 E32.28408
G1 X28.279 Y50.709 E32.62727
G1 X27.189 Y51.672 E32.89721
G1 X25.946 Y52.708 E33.19754
G1 X24.546 Y53.802 E33.52715
G1 X22.992 Y54.937 E33.88433
M73 P57 R0
M73 Q57 S0
G1 X22.151 Y55.519 E34.07407
G1 X20.362 Y56.689 E34.47073
G1 X19.402 Y57.280 E34.67991
G1 X17.375 Y58.451 E35.11434
G1 X16.298 Y59.033 E35.34160
G1 X15.182 Y59.607 E35.57445
M73 P58 R0
M73 Q58 S0
G1 X14.025 Y60.174 E35.81364
G1 X12.796 Y60.733 E36.06413
G1 X12.293 Y60.883 E36.16154
G1 X11.865 Y60.936 E36.24157
G1 X11.045 Y61.296 E36.40770
G1 X11.241 Y61.413 E36.45001
G1 X9.942 Y62.094 E36.72224
G1 X9.508 Y62.281 E36.80993
G1 X7.805 Y62.937 E37.14858
M73 P59 R0
M73 Q59 S0
G1 X6.025 Y63.552 E37.49808
G1 X4.740 Y63.908 E37.74558
G1 X4.215 Y63.396 E37.88153
G1 X4.320 Y62.798 E37.99420
G1 X4.786 Y61.165 E38.30941
G1 X5.383 Y59.793 E38.58716
G1 X6.075 Y58.406 E38.87477
G1 X7.347 Y56.057 E39.37043
M73 P60 R0
M73 Q60 S0
G1 X8.685 Y53.697 E39.87385
G1 X9.338 Y52.588 E40.11271
G1 X9.591 Y52.201 E40.19858
G1 X10.406 Y51.162 E40.44360
G1 X10.924 Y51.809 E40.59740
G1 X11.254 Y50.725 E40.80768
M73 P61 R0
M73 Q61 S0
G1 X11.268 Y50.438 E40.86096
G1 X11.402 Y49.867 E40.96985
G1 X11.647 Y49.337 E41.07820
G1 X11.946 Y48.870 E41.18118
G1 X12.263 Y48.439 E41.28034
G1 X13.194 Y47.276 E41.55682
G1 X13.746 Y46.544 E41.72693
G1 X14.448 Y45.682 E41.93333
G1 X15.919 Y43.940 E42.35633
G1 X19.072 Y40.290 E43.25130
M73 P62 R0
M73 Q62 S0
G1 X19.317 Y40.025 E43.31837
G1 X19.618 Y39.745 E43.39467
G1 X19.931 Y39.530 E43.46514
G1 X20.881 Y38.744 E43.69387
G1 X20.720 Y38.400 E43.76435
G1 X20.514 Y38.057 E43.83861
G1 X20.236 Y37.680 E43.92544
G1 X19.991 Y37.233 E44.02011
G1 X19.426 Y35.967 E44.27738
G1 X18.749 Y34.375 E44.59834
M73 P63 R0
M73 Q63 S0
G1 X18.190 Y33.003 E44.87328
G1 X17.883 Y32.196 E45.03358
G1 X17.079 Y29.835 E45.49647
G1 X16.727 Y28.743 E45.70939
G1 X16.394 Y27.640 E45.92304
G1 X16.089 Y26.527 E46.13726
G1 X15.820 Y25.403 E46.35177
M73 P64 R0
M73 Q64 S0
G1 X15.595 Y24.268 E46.56643
G1 X15.422 Y23.128 E46.78041
G1 X15.308 Y22.083 E46.97562
G1 X15.236 Y21.041 E47.16934
G1 X15.215 Y20.001 E47.36244
G1 X15.253 Y18.961 E47.55548
G1 X15.358 Y17.923 E47.74920
G1 X15.539 Y16.888 E47.94418
G1 X15.804 Y15.851 E48.14270
M73 P65 R0
M73 Q65 S0
G1 X16.161 Y14.818 E48.34550
G1 X16.515 Y14.020 E48.50743
G1 X16.927 Y13.234 E48.67231
G1 X18.264 Y10.966 E49.16080
G1 X18.674 Y10.231 E49.31690
G1 X19.029 Y9.509 E49.46621
G1 X19.311 Y8.804 E49.60720
G1 X19.394 Y8.504 E49.66490
G1 X19.439 Y8.214 E49.71943
G1 X19.453 Y7.919 E49.77416
G1 X19.441 Y7.619 E49.82998
M73 P66 R0
M73 Q66 S0
G1 X19.028 Y4.614 E50.39277
G1 X18.900 Y3.961 E50.51617
G1 X18.601 Y3.018 E50.69981
G92 E0
G1 X76.230 Y57.103 F1200.000
;WIDTH:0.916462
M73 P72 R0
M73 Q72 S0
G1 F900.000
G1 X76.177 Y56.565 E0.09096
;WIDTH:0.961852
G1 X76.141 Y56.038 E0.18486
;WIDTH:0.983496
G1 X76.122 Y55.702 E0.24620
;WIDTH:1.01703
G1 X76.033 Y54.518 E0.47059
;WIDTH:1.01703
G1 X75.909 Y53.207 E0.71964
;WIDTH:1.0044
G1 X75.867 Y52.853 E0.78618
;WIDTH:0.983991
M73 P73 R0
M73 Q73 S0
G1 X75.863 Y52.829 E0.79061
;WIDTH:0.983274
G1 X75.714 Y51.811 E0.97800
;WIDTH:0.981526
G1 X75.585 Y51.084 E1.11205
;WIDTH:0.93686
G1 X75.456 Y50.358 E1.23926
;WIDTH:0.892194
G1 X75.407 Y50.117 E1.27934
;WIDTH:0.864475
G1 X75.358 Y49.877 E1.31801
;WIDTH:0.836756
G1 X75.353 Y49.854 E1.32148
;WIDTH:0.834891
G1 X75.299 Y49.627 E1.35672
;WIDTH:0.823218
G1 X75.215 Y49.303 E1.40666
;WIDTH:0.792951
G1 X75.210 Y49.283 E1.40963
;WIDTH:0.791704
G1 X75.098 Y48.900 E1.46634
;WIDTH:0.779991
G1 X75.046 Y48.735 E1.49054
;WIDTH:0.767199
G1 X75.038 Y48.711 E1.49399
;WIDTH:0.767012
G1 X74.935 Y48.423 E1.53592
;WIDTH:0.76701
G1 X74.947 Y48.272 E1.55666
;WIDTH:0.72135
G1 X74.959 Y48.121 E1.57597
;WIDTH:0.675691
G1 X74.971 Y47.971 E1.59384
