; generated by PrusaSlicer 2.3.3+win64 on 2022-01-31 at 00:58:27 UTC

; 

; external perimeters extrusion width = 2.81mm
; perimeters extrusion width = 2.81mm
; infill extrusion width = 2.81mm
; solid infill extrusion width = 2.81mm
; top infill extrusion width = 2.50mm
; first layer extrusion width = 1.00mm

M73 P0 R4
M73 Q0 S4
M201 X3000 Y3000 Z100 E10000 ; sets maximum accelerations, mm/sec^2
M203 X200 Y200 Z12 E120 ; sets maximum feedrates, mm/sec
M204 P1250 R1250 T1250 ; sets acceleration (P, T) and retract acceleration (R), mm/sec^2
M205 X8.00 Y8.00 Z0.40 E4.50 ; sets the jerk limits, mm/sec
M205 S0 T0 ; sets the minimum extruding and travel feed rate, mm/sec
M107
M190 S60 ; set bed temperature and wait for it to be reached
M104 S215 ; set temperature
;TYPE:Custom
G90 ; use absolute coordinates
G92 E0.0
M109 S215 ; set temperature and wait for it to be reached
G21 ; set units to millimeters
G90 ; use absolute coordinates
M82 ; use absolute distances for extrusion
G92 E0
;LAYER_CHANGE
;Z:0.5
;HEIGHT:0.5
;BEFORE_LAYER_CHANGE
;
;WITNESS ME
;AND DELETE AFTER HERE FOR PANCAKES
;
;0.5


G1 Z0.500 F1200.000
;AFTER_LAYER_CHANGE
;0.5
G1 X12.369 Y16.798
;TYPE:Perimeter
;WIDTH:1
G1 X27.398 Y16.798 E2.78898
G1 X27.398 Y31.827 E5.57796
M73 P1 R4
G1 X12.369 Y31.827 E8.36693
M73 Q1 S4
G1 X12.369 Y17.173 E11.08632
G92 E0
G1 X11.476 Y15.905
G1 X28.291 Y15.905 E3.12030
G1 X28.291 Y32.720 E6.24059
M73 P2 R4
M73 Q2 S4
G1 X11.476 Y32.720 E9.36089
G1 X11.476 Y16.280 E12.41159
G92 E0
G1 X10.584 Y15.013
;TYPE:External perimeter
G1 X29.184 Y15.013 E3.45161
M73 P3 R4
M73 Q3 S4
G1 X29.184 Y33.613 E6.90323
G1 X10.584 Y33.613 E10.35484
G1 X10.584 Y15.388 E13.73686
M73 P4 R4
M73 Q4 S4
G1 X12.998 Y15.660
G92 E0
G1 X25.317 Y17.066
;TYPE:Solid infill
;WIDTH:1.00397
G1 X26.729 Y18.477 E0.37200
G1 X26.729 Y19.745 E0.60836
G1 X24.451 Y17.468 E1.20873
G1 X23.183 Y17.468 E1.44509
G1 X26.729 Y21.013 E2.37973
G1 X26.729 Y22.281 E2.61609
G1 X21.915 Y17.468 E3.88500
G1 X20.647 Y17.468 E4.12136
G1 X26.729 Y23.549 E5.72454
M73 P5 R4
M73 Q5 S4
G1 X26.729 Y24.817 E5.96090
G1 X19.379 Y17.468 E7.89834
G1 X18.111 Y17.468 E8.13470
G1 X26.729 Y26.085 E10.40641
G1 X26.729 Y27.354 E10.64277
G1 X16.843 Y17.468 E13.24875
G1 X15.575 Y17.468 E13.48511
G1 X26.729 Y28.622 E16.42536
M73 P6 R4
M73 Q6 S4
G1 X26.729 Y29.890 E16.66172
G1 X14.307 Y17.468 E19.93623
G1 X13.039 Y17.468 E20.17258
G1 X26.729 Y31.158 E23.78133
G1 X25.461 Y31.158 E24.01769
M73 P7 R4
M73 Q7 S4
G1 X13.039 Y18.736 E27.29217
G1 X13.039 Y20.004 E27.52853
G1 X24.192 Y31.158 E30.46874
G1 X22.924 Y31.158 E30.70510
G1 X13.039 Y21.272 E33.31104
G1 X13.039 Y22.540 E33.54741
G1 X21.656 Y31.158 E35.81908
M73 P8 R4
M73 Q8 S4
G1 X20.388 Y31.158 E36.05544
G1 X13.039 Y23.808 E37.99285
G1 X13.039 Y25.076 E38.22921
G1 X19.120 Y31.158 E39.83235
G1 X17.852 Y31.158 E40.06871
G1 X13.039 Y26.344 E41.33758
G1 X13.039 Y27.612 E41.57394
G1 X16.584 Y31.158 E42.50855
G1 X15.316 Y31.158 E42.74491
G1 X13.039 Y28.880 E43.34524
G1 X13.039 Y30.148 E43.58161
M73 Q9 S4
G1 X14.450 Y31.559 E43.95357
;TYPE:Custom
; Filament-specific end gcode
G4 P1; wait
M73 P100 R0
M73 Q100 S0
; filament used [mm] = 1421.48
; filament used [cm3] = 3.42
; filament used [g] = 4.24
; filament cost = 0.13
; total filament used [g] = 4.24
; total filament cost = 0.13
; estimated printing time (normal mode) = 4m 27s
; estimated printing time (silent mode) = 4m 27s

; avoid_crossing_perimeters = 0
; avoid_crossing_perimeters_max_detour = 0
; bed_custom_model = 
; bed_custom_texture = 
; bed_shape = 0x0,250x0,250x210,0x210
; bed_temperature = 60
; before_layer_gcode = ;BEFORE_LAYER_CHANGE\n;\n;WITNESS ME\n;AND DELETE AFTER HERE FOR PANCAKES\n;\n;[layer_z]\n\n
; between_objects_gcode = 
; bottom_fill_pattern = monotonic
; bottom_solid_layers = 3
; bottom_solid_min_thickness = 0
; bridge_acceleration = 0
; bridge_angle = 0
; bridge_fan_speed = 100
; bridge_flow_ratio = 1
; bridge_speed = 30
; brim_width = 0
; clip_multipart_objects = 1
; color_change_gcode = M600
; compatible_printers_condition_cummulative = ;"nozzle_diameter[0]!=0.8 and ! (printer_notes=~/.*PRINTER_VENDOR_PRUSA3D.*/ and printer_notes=~/.*PRINTER_MODEL_MK(2.5|3).*/ and single_extruder_multi_material)"
; complete_objects = 0
; cooling = 1
; cooling_tube_length = 5
; cooling_tube_retraction = 91.5
; default_acceleration = 0
; default_filament_profile = "Prusament PLA"
; default_print_profile = 0.15mm QUALITY @MK3
; deretract_speed = 0
; disable_fan_first_layers = 1
; dont_support_bridges = 1
; draft_shield = 0
; duplicate_distance = 6
; elefant_foot_compensation = 0.2
; end_filament_gcode = "; Filament-specific end gcode"
; end_gcode = G4 P1; wait
; ensure_vertical_shell_thickness = 0
; external_perimeter_extrusion_width = 0
; external_perimeter_speed = 50%
; external_perimeters_first = 0
; extra_loading_move = -2
; extra_perimeters = 1
; extruder_clearance_height = 20
; extruder_clearance_radius = 20
; extruder_colour = ""
; extruder_offset = 0x0
; extrusion_axis = E
; extrusion_multiplier = 1
; extrusion_width = 0
; fan_always_on = 1
; fan_below_layer_time = 100
; filament_colour = #FF8000
; filament_cooling_final_speed = 3.4
; filament_cooling_initial_speed = 2.2
; filament_cooling_moves = 4
; filament_cost = 30.24
; filament_density = 1.24
; filament_diameter = 1.75
; filament_load_time = 0
; filament_loading_speed = 28
; filament_loading_speed_start = 3
; filament_max_volumetric_speed = 15
; filament_minimal_purge_on_wipe_tower = 15
; filament_notes = "Affordable filament for everyday printing in premium quality manufactured in-house by Josef Prusa"
; filament_ramming_parameters = "120 100 6.6 6.8 7.2 7.6 7.9 8.2 8.7 9.4 9.9 10.0| 0.05 6.6 0.45 6.8 0.95 7.8 1.45 8.3 1.95 9.7 2.45 10 2.95 7.6 3.45 7.6 3.95 7.6 4.45 7.6 4.95 7.6"
; filament_settings_id = "Prusament PLA"
; filament_soluble = 0
; filament_spool_weight = 201
; filament_toolchange_delay = 0
; filament_type = PLA
; filament_unload_time = 0
; filament_unloading_speed = 90
; filament_unloading_speed_start = 100
; filament_vendor = Prusa Polymers
; fill_angle = 45
; fill_density = 30%
; fill_pattern = rectilinear
; first_layer_acceleration = 0
; first_layer_bed_temperature = 60
; first_layer_extrusion_width = 200%
; first_layer_height = 0.5
; first_layer_speed = 20
; first_layer_temperature = 215
; full_fan_speed_layer = 4
; gap_fill_speed = 20
; gcode_comments = 0
; gcode_flavor = marlin
; gcode_label_objects = 0
; high_current_on_filament_swap = 0
; host_type = octoprint
; infill_acceleration = 0
; infill_anchor = 600%
; infill_anchor_max = 50
; infill_every_layers = 1
; infill_extruder = 1
; infill_extrusion_width = 0
; infill_first = 0
; infill_only_where_needed = 0
; infill_overlap = 25%
; infill_speed = 20
; inherits_cummulative = ;;"Original Prusa i3 MK3S & MK3S+"
; interface_shells = 0
; ironing = 0
; ironing_flowrate = 15%
; ironing_spacing = 0.1
; ironing_speed = 15
; ironing_type = top
; layer_gcode = ;AFTER_LAYER_CHANGE\n;[layer_z]
; layer_height = 0.5
; machine_limits_usage = emit_to_gcode
; machine_max_acceleration_e = 10000,5000
; machine_max_acceleration_extruding = 1250,1250
; machine_max_acceleration_retracting = 1250,1250
; machine_max_acceleration_x = 3000,960
; machine_max_acceleration_y = 3000,960
; machine_max_acceleration_z = 100,200
; machine_max_feedrate_e = 120,120
; machine_max_feedrate_x = 200,100
; machine_max_feedrate_y = 200,100
; machine_max_feedrate_z = 12,12
; machine_max_jerk_e = 4.5,4.5
; machine_max_jerk_x = 8,8
; machine_max_jerk_y = 8,8
; machine_max_jerk_z = 0.4,0.4
; machine_min_extruding_rate = 0,0
; machine_min_travel_rate = 0,0
; max_fan_speed = 100
; max_layer_height = 0.25
; max_print_height = 210
; max_print_speed = 80
; max_volumetric_speed = 0
; min_fan_speed = 100
; min_layer_height = 0.07
; min_print_speed = 15
; min_skirt_length = 0
; notes = 
; nozzle_diameter = 2.5
; only_retract_when_crossing_perimeters = 1
; ooze_prevention = 0
; output_filename_format = [input_filename_base].gcode
; overhangs = 1
; parking_pos_retraction = 92
; pause_print_gcode = M601
; perimeter_acceleration = 0
; perimeter_extruder = 1
; perimeter_extrusion_width = 0
; perimeter_speed = 20
; perimeters = 3
; physical_printer_settings_id = 
; post_process = 
; print_settings_id = pancake
; printer_model = MK3S
; printer_notes = Don't remove the following keywords! These keywords are used in the "compatible printer" condition of the print and filament profiles to link the particular print and filament profiles to this printer profile.\nPRINTER_VENDOR_PRUSA3D\nPRINTER_MODEL_MK3\n
; printer_settings_id = pancake
; printer_technology = FFF
; printer_variant = 0.4
; printer_vendor = 
; raft_layers = 0
; remaining_times = 1
; resolution = 0
; retract_before_travel = 1
; retract_before_wipe = 0%
; retract_layer_change = 0
; retract_length = 0
; retract_length_toolchange = 4
; retract_lift = 0.4
; retract_lift_above = 0
; retract_lift_below = 209
; retract_restart_extra = 0
; retract_restart_extra_toolchange = 0
; retract_speed = 0
; seam_position = aligned
; silent_mode = 1
; single_extruder_multi_material = 0
; single_extruder_multi_material_priming = 1
; skirt_distance = 6
; skirt_height = 1
; skirts = 0
; slice_closing_radius = 0.049
; slowdown_below_layer_time = 15
; small_perimeter_speed = 15
; solid_infill_below_area = 70
; solid_infill_every_layers = 0
; solid_infill_extruder = 1
; solid_infill_extrusion_width = 0
; solid_infill_speed = 20
; spiral_vase = 0
; standby_temperature_delta = -5
; start_filament_gcode = "M900 K{if printer_notes=~/.*PRINTER_MODEL_MINI.*/ and nozzle_diameter[0]==0.6}0.12{elsif printer_notes=~/.*PRINTER_MODEL_MINI.*/ and nozzle_diameter[0]==0.8}0.06{elsif printer_notes=~/.*PRINTER_MODEL_MINI.*/}0.2{elsif nozzle_diameter[0]==0.8}0.01{elsif nozzle_diameter[0]==0.6}0.04{else}0.05{endif} ; Filament gcode LA 1.5\n{if printer_notes=~/.*PRINTER_MODEL_MINI.*/};{elsif printer_notes=~/.*PRINTER_HAS_BOWDEN.*/}M900 K200{elsif nozzle_diameter[0]==0.6}M900 K18{elsif nozzle_diameter[0]==0.8};{else}M900 K30{endif} ; Filament gcode LA 1.0"
; start_gcode = G90 ; use absolute coordinates\nG92 E0.0
; support_material = 0
; support_material_angle = 0
; support_material_auto = 1
; support_material_buildplate_only = 0
; support_material_contact_distance = 0.2
; support_material_enforce_layers = 0
; support_material_extruder = 1
; support_material_extrusion_width = 0
; support_material_interface_contact_loops = 0
; support_material_interface_extruder = 1
; support_material_interface_layers = 3
; support_material_interface_spacing = 0
; support_material_interface_speed = 100%
; support_material_pattern = rectilinear
; support_material_spacing = 2.5
; support_material_speed = 60
; support_material_synchronize_layers = 0
; support_material_threshold = 45
; support_material_with_sheath = 1
; support_material_xy_spacing = 50%
; temperature = 215
; template_custom_gcode = 
; thin_walls = 1
; threads = 12
; thumbnails = 
; toolchange_gcode = 
; top_fill_pattern = monotonic
; top_infill_extrusion_width = 0
; top_solid_infill_speed = 15
; top_solid_layers = 3
; top_solid_min_thickness = 0
; travel_speed = 20
; use_firmware_retraction = 0
; use_relative_e_distances = 0
; use_volumetric_e = 0
; variable_layer_height = 1
; wipe = 0
; wipe_into_infill = 0
; wipe_into_objects = 0
; wipe_tower = 0
; wipe_tower_bridging = 10
; wipe_tower_no_sparse_layers = 0
; wipe_tower_rotation_angle = 0
; wipe_tower_width = 60
; wipe_tower_x = 180
; wipe_tower_y = 140
; wiping_volumes_extruders = 70,70
; wiping_volumes_matrix = 0
; xy_size_compensation = 0
; z_offset = 0
