; generated by PrusaSlicer 2.3.3+win64 on 2022-01-31 at 02:53:26 UTC

; 

; external perimeters extrusion width = 6.75mm
; perimeters extrusion width = 6.75mm
; infill extrusion width = 6.75mm
; solid infill extrusion width = 6.75mm
; top infill extrusion width = 6.00mm
; first layer extrusion width = 1.00mm

M73 P0 R0
M73 Q0 S0
M201 X400 Y400 Z400 E400 ; sets maximum accelerations, mm/sec^2
M203 X40 Y40 Z40 E50 ; sets maximum feedrates, mm/sec
M204 P400 R400 T400 ; sets acceleration (P, T) and retract acceleration (R), mm/sec^2
M205 X8.00 Y8.00 Z0.40 E4.50 ; sets the jerk limits, mm/sec
M205 S0 T0 ; sets the minimum extruding and travel feed rate, mm/sec
M107
M104 S200 ; set temperature
;TYPE:Custom
G90 ; use absolute coordinates
M83 ; extruder relative mode
G92 E0.0
M109 S200 ; set temperature and wait for it to be reached
G21 ; set units to millimeters
G90 ; use absolute coordinates
M82 ; use absolute distances for extrusion
G92 E0
; Filament gcode
;LAYER_CHANGE
;Z:0.5
;HEIGHT:0.5
;BEFORE_LAYER_CHANGE
;
;WITNESS ME
;AND DELETE AFTER HERE FOR PANCAKES
;
G92 E0.0
;0.5


G1 Z0.500 F1200.000
;AFTER_LAYER_CHANGE
;0.5
G1 X9.532 Y12.297
;TYPE:External perimeter
;WIDTH:1
M73 P2 R0
M73 Q2 S0
G1 F900.000
G1 X10.041 Y11.978 E0.11141
M73 P3 R0
M73 Q3 S0
G1 X10.591 Y11.703 E0.22560
G1 X11.396 Y11.379 E0.38665
G1 X12.209 Y11.111 E0.54552
G1 X13.032 Y10.891 E0.70348
G1 X13.834 Y10.718 E0.85583
M73 P4 R0
M73 Q4 S0
G1 X14.880 Y10.538 E1.05283
G1 X16.185 Y10.357 E1.29719
G1 X17.489 Y10.215 E1.54060
G1 X19.272 Y10.058 E1.87281
M73 P5 R0
M73 Q5 S0
G1 X20.763 Y9.955 E2.15012
G1 X23.740 Y9.820 E2.70311
M73 P6 R0
M73 Q6 S0
G1 X25.232 Y9.781 E2.98011
G1 X27.543 Y9.754 E3.40908
M73 P7 R0
M73 Q7 S0
G1 X30.905 Y9.775 E4.03293
G1 X33.866 Y9.864 E4.58261
M73 P8 R0
M73 Q8 S0
G1 X37.002 Y10.036 E5.16552
M73 P9 R0
M73 Q9 S0
G1 X39.337 Y10.235 E5.60032
G1 X41.089 Y10.467 E5.92837
M73 P10 R0
M73 Q10 S0
G1 X42.145 Y10.645 E6.12702
G1 X42.671 Y10.768 E6.22727
G1 X43.050 Y10.921 E6.30320
G1 X43.255 Y11.038 E6.34690
G1 X43.449 Y11.179 E6.39136
G1 X43.952 Y11.655 E6.51999
M73 P11 R0
M73 Q11 S0
G1 X44.382 Y12.196 E6.64823
G1 X44.725 Y12.793 E6.77594
G1 X44.969 Y13.437 E6.90379
G1 X45.098 Y14.119 E7.03256
G1 X45.099 Y14.818 E7.16220
G1 X44.978 Y15.525 E7.29531
M73 P12 R0
M73 Q12 S0
G1 X44.707 Y16.226 E7.43485
G1 X44.287 Y16.897 E7.58169
G1 X43.707 Y17.536 E7.74184
G1 X43.397 Y17.746 E7.81137
G1 X43.072 Y17.825 E7.87344
G1 X41.288 Y17.857 E8.20441
M73 P13 R0
M73 Q13 S0
G1 X39.105 Y17.961 E8.61010
G1 X38.111 Y18.052 E8.79536
G1 X37.637 Y18.124 E8.88418
M73 P14 R0
M73 Q14 S0
G1 X37.186 Y18.219 E8.96980
G1 X36.809 Y18.346 E9.04368
G1 X36.594 Y18.479 E9.09051
G1 X36.472 Y18.620 E9.12510
G1 X36.378 Y18.844 E9.17018
G1 X36.355 Y19.129 E9.22338
G1 X36.398 Y19.408 E9.27572
G1 X37.150 Y21.982 E9.77331
M73 P15 R0
M73 Q15 S0
G1 X37.277 Y22.487 E9.86994
G1 X37.370 Y23.022 E9.97065
G1 X37.397 Y23.564 E10.07143
G1 X37.390 Y24.041 E10.16002
G1 X37.441 Y24.506 E10.24666
G1 X37.464 Y25.021 E10.34233
G1 X37.455 Y25.361 E10.40547
G1 X37.878 Y25.461 E10.48627
M73 P16 R0
M73 Q16 S0
G1 X38.020 Y25.160 E10.54807
G1 X38.181 Y24.654 E10.64649
G1 X38.346 Y23.849 E10.79905
G1 X38.492 Y23.572 E10.85715
G1 X38.686 Y23.407 E10.90443
G1 X38.975 Y23.281 E10.96295
G1 X39.457 Y23.159 E11.05521
G1 X39.798 Y23.121 E11.11876
G1 X40.421 Y23.093 E11.23448
M73 P17 R0
M73 Q17 S0
G1 X41.338 Y23.142 E11.40498
G1 X41.670 Y23.187 E11.46714
G1 X42.313 Y23.329 E11.58938
G1 X42.668 Y23.477 E11.66075
G1 X42.907 Y23.647 E11.71504
G1 X43.101 Y23.865 E11.76933
G1 X43.233 Y24.106 E11.82029
G1 X43.381 Y24.513 E11.90076
G1 X43.499 Y24.957 E11.98592
G1 X43.584 Y25.402 E12.06995
M73 P18 R0
M73 Q18 S0
G1 X43.650 Y25.959 E12.17412
G1 X43.683 Y26.493 E12.27339
G1 X43.678 Y27.037 E12.37429
G1 X43.625 Y27.585 E12.47641
G1 X43.573 Y27.871 E12.53045
G1 X43.505 Y28.158 E12.58527
G1 X43.362 Y28.586 E12.66884
G1 X43.199 Y28.872 E12.72995
G1 X42.965 Y29.117 E12.79294
G1 X42.673 Y29.295 E12.85637
M73 P19 R0
M73 Q19 S0
G1 X42.266 Y29.417 E12.93512
G1 X38.665 Y30.006 E13.61235
G1 X34.380 Y30.604 E14.41522
M73 P20 R0
M73 Q20 S0
G1 X32.159 Y30.845 E14.82984
M73 P21 R0
M73 Q21 S0
G1 X30.783 Y30.939 E15.08566
G1 X29.963 Y30.975 E15.23799
M73 P22 R0
M73 Q22 S0
G1 X28.335 Y31.005 E15.54013
G1 X25.905 Y30.975 E15.99121
G1 X23.447 Y30.894 E16.44754
M73 P23 R0
M73 Q23 S0
G1 X23.140 Y30.839 E16.50540
G1 X22.923 Y30.718 E16.55154
G1 X22.749 Y30.522 E16.60011
G1 X22.642 Y30.263 E16.65205
G1 X22.649 Y29.936 E16.71291
G1 X22.936 Y29.096 E16.87750
M73 P24 R0
M73 Q24 S0
G1 X23.131 Y28.454 E17.00204
G1 X23.297 Y27.808 E17.12575
G1 X23.435 Y27.159 E17.24893
G1 X23.545 Y26.505 E17.37191
G1 X23.627 Y25.847 E17.49503
G1 X23.682 Y25.185 E17.61836
G1 X23.710 Y24.517 E17.74230
M73 P25 R0
M73 Q25 S0
G1 X23.710 Y23.846 E17.86688
G1 X23.684 Y23.174 E17.99175
G1 X23.582 Y22.147 E18.18331
G1 X23.468 Y21.487 E18.30744
G1 X23.312 Y20.839 E18.43119
G1 X23.108 Y20.200 E18.55566
M73 P26 R0
M73 Q26 S0
G1 X22.991 Y19.896 E18.61621
G1 X22.808 Y19.482 E18.70024
G1 X22.607 Y19.091 E18.78163
G1 X22.389 Y18.727 E18.86048
G1 X22.151 Y18.388 E18.93730
G1 X21.894 Y18.076 E19.01236
G1 X21.613 Y17.792 E19.08645
G1 X21.309 Y17.536 E19.16030
G1 X20.977 Y17.308 E19.23501
G1 X20.613 Y17.108 E19.31206
M73 P27 R0
M73 Q27 S0
G1 X20.212 Y16.935 E19.39316
G1 X19.481 Y16.695 E19.53589
G1 X19.121 Y16.598 E19.60507
G1 X18.375 Y16.443 E19.74647
G1 X17.627 Y16.351 E19.88624
G1 X16.870 Y16.326 E20.02676
G1 X16.146 Y16.367 E20.16138
M73 P28 R0
M73 Q28 S0
G1 X15.484 Y16.476 E20.28586
G1 X14.855 Y16.655 E20.40724
G1 X14.257 Y16.906 E20.52752
G1 X13.690 Y17.234 E20.64921
G1 X13.184 Y17.621 E20.76741
G1 X12.898 Y17.921 E20.84436
G1 X12.754 Y18.127 E20.89091
M73 P29 R0
M73 Q29 S0
G1 X12.635 Y18.357 E20.93911
G1 X12.005 Y20.138 E21.28958
G1 X11.654 Y21.368 E21.52690
G1 X11.419 Y22.427 E21.72820
M73 P30 R0
M73 Q30 S0
G1 X11.326 Y22.949 E21.82671
G1 X11.188 Y24.014 E22.02593
G1 X11.124 Y25.085 E22.22498
G1 X11.122 Y25.614 E22.32312
G1 X11.147 Y26.262 E22.44347
G1 X11.352 Y28.494 E22.85944
M73 P31 R0
M73 Q31 S0
G1 X10.123 Y27.956 E23.10836
G1 X9.948 Y27.831 E23.14832
G1 X9.372 Y27.303 E23.29334
M73 P32 R0
M73 Q32 S0
G1 X8.928 Y26.824 E23.41447
G1 X8.528 Y26.322 E23.53370
G1 X8.171 Y25.794 E23.65190
G1 X7.859 Y25.243 E23.76945
G1 X7.593 Y24.667 E23.88714
G1 X7.376 Y24.068 E24.00543
G1 X7.208 Y23.448 E24.12456
M73 P33 R0
M73 Q33 S0
G1 X7.090 Y22.808 E24.24543
G1 X7.024 Y22.157 E24.36687
G1 X6.967 Y20.963 E24.58856
G1 X6.953 Y19.774 E24.80920
G1 X6.986 Y18.585 E25.02994
M73 P34 R0
M73 Q34 S0
G1 X7.022 Y17.983 E25.14183
G1 X7.137 Y16.795 E25.36338
G1 X7.220 Y16.184 E25.47777
G1 X7.334 Y15.595 E25.58915
G1 X7.497 Y15.025 E25.69925
M73 P35 R0
M73 Q35 S0
G1 X7.710 Y14.483 E25.80730
G1 X7.974 Y13.973 E25.91385
G1 X8.288 Y13.497 E26.01968
G1 X8.654 Y13.057 E26.12584
G1 X8.843 Y12.875 E26.17458
G92 E0
G1 X17.732 Y8.635 F1200.000
M73 P37 R0
M73 Q37 S0
G1 F900.000
G1 X17.688 Y8.369 E0.05000
G1 X17.669 Y6.931 E0.31681
G1 X17.717 Y6.412 E0.41353
G1 X17.776 Y6.126 E0.46772
M73 P38 R0
M73 Q38 S0
G1 X17.920 Y5.676 E0.55546
G1 X18.112 Y5.317 E0.63098
G1 X18.375 Y5.000 E0.70730
G1 X18.695 Y4.754 E0.78226
G1 X18.902 Y4.642 E0.82604
G1 X19.275 Y4.507 E0.89957
G1 X20.507 Y4.237 E1.13365
G1 X21.720 Y4.044 E1.36156
M73 P39 R0
M73 Q39 S0
G1 X22.929 Y3.899 E1.58749
G1 X24.398 Y3.761 E1.86127
G1 X26.001 Y3.651 E2.15949
M73 P40 R0
M73 Q40 S0
G1 X27.608 Y3.589 E2.45791
G1 X28.683 Y3.579 E2.65739
G1 X30.705 Y3.610 E3.03277
M73 P41 R0
M73 Q41 S0
G1 X31.587 Y3.662 E3.19673
G1 X32.469 Y3.749 E3.36103
G1 X33.350 Y3.880 E3.52639
G1 X33.983 Y4.005 E3.64619
G1 X34.570 Y4.168 E3.75912
M73 P42 R0
M73 Q42 S0
G1 X34.990 Y4.358 E3.84475
G1 X35.393 Y4.641 E3.93620
G1 X35.735 Y5.020 E4.03091
G1 X35.947 Y5.344 E4.10276
G1 X36.249 Y5.952 E4.22882
G1 X36.456 Y6.584 E4.35221
G1 X36.584 Y7.222 E4.47294
M73 P43 R0
M73 Q43 S0
G1 X36.672 Y8.205 E4.65606
G1 X36.626 Y8.528 E4.71655
G1 X36.470 Y8.785 E4.77232
G1 X36.225 Y8.967 E4.82899
G1 X35.912 Y9.033 E4.88841
G1 X33.149 Y8.904 E5.40164
M73 P44 R0
M73 Q44 S0
G1 X30.585 Y8.841 E5.87765
G1 X28.017 Y8.824 E6.35416
M73 P45 R0
M73 Q45 S0
G1 X25.392 Y8.846 E6.84133
G1 X22.330 Y8.941 E7.40975
M73 P46 R0
M73 Q46 S0
G1 X18.521 Y9.156 E8.11770
M73 P47 R0
M73 Q47 S0
G1 X18.420 Y9.135 E8.13684
G92 E0
G1 X18.849 Y17.496 F1200.000
M73 P49 R0
M73 Q49 S0
G1 F900.000
G1 X19.350 Y17.647 E0.09713
G1 X19.843 Y17.831 E0.19468
G1 X20.335 Y18.047 E0.29447
G1 X20.589 Y18.184 E0.34809
G1 X20.839 Y18.357 E0.40444
G1 X21.233 Y18.732 E0.50542
G1 X21.553 Y19.157 E0.60417
G1 X21.807 Y19.598 E0.69856
G1 X22.020 Y20.049 E0.79110
M73 P50 R0
M73 Q50 S0
G1 X22.315 Y20.836 E0.94703
G1 X22.435 Y21.242 E1.02573
G1 X22.606 Y22.008 E1.17123
G1 X22.710 Y22.733 E1.30729
G1 X22.758 Y23.397 E1.43079
G1 X22.759 Y24.330 E1.60396
M73 P51 R0
M73 Q51 S0
G1 X22.694 Y25.517 E1.82455
G1 X22.634 Y26.092 E1.93170
G1 X22.463 Y27.167 E2.13370
G1 X22.348 Y27.698 E2.23460
G1 X22.069 Y28.705 E2.42845
M73 P52 R0
M73 Q52 S0
G1 X21.776 Y29.536 E2.59202
G1 X21.494 Y30.201 E2.72602
G1 X21.161 Y30.850 E2.86134
G1 X20.765 Y31.475 E2.99883
G1 X20.293 Y32.069 E3.13955
M73 P53 R0
M73 Q53 S0
G1 X19.755 Y32.595 E3.27912
G1 X19.451 Y32.820 E3.34928
G1 X19.138 Y33.005 E3.41681
G1 X18.808 Y33.153 E3.48379
G1 X18.468 Y33.261 E3.55008
G1 X18.117 Y33.330 E3.61646
G1 X17.757 Y33.358 E3.68343
G1 X17.396 Y33.346 E3.75049
G1 X17.033 Y33.297 E3.81850
G1 X16.673 Y33.214 E3.88707
G1 X16.265 Y33.086 E3.96637
M73 P54 R0
M73 Q54 S0
G1 X15.875 Y32.926 E4.04453
G1 X15.506 Y32.735 E4.12165
G1 X15.158 Y32.515 E4.19817
G1 X14.833 Y32.265 E4.27411
G1 X14.533 Y31.989 E4.34970
G1 X14.013 Y31.418 E4.49306
G1 X13.528 Y30.794 E4.63969
G1 X13.199 Y30.265 E4.75532
M73 P55 R0
M73 Q55 S0
G1 X12.923 Y29.725 E4.86796
G1 X12.691 Y29.176 E4.97842
G1 X12.500 Y28.619 E5.08780
G1 X12.347 Y28.054 E5.19648
G1 X12.229 Y27.482 E5.30479
G1 X12.145 Y26.905 E5.41302
G1 X12.091 Y26.324 E5.52131
M73 P56 R0
M73 Q56 S0
G1 X12.065 Y25.734 E5.63089
G1 X12.090 Y24.532 E5.85398
G1 X12.145 Y23.904 E5.97099
G1 X12.326 Y22.699 E6.19704
G1 X12.452 Y22.093 E6.31191
G1 X12.755 Y20.922 E6.53648
M73 P57 R0
M73 Q57 S0
G1 X13.119 Y19.769 E6.76077
G1 X13.326 Y19.178 E6.87709
G1 X13.485 Y18.822 E6.94937
G1 X13.704 Y18.489 E7.02329
G1 X13.963 Y18.213 E7.09360
G1 X14.126 Y18.078 E7.13282
M73 P58 R0
M73 Q58 S0
G1 X14.432 Y17.878 E7.20068
G1 X14.904 Y17.648 E7.29813
G1 X15.155 Y17.557 E7.34775
G1 X15.692 Y17.411 E7.45101
G1 X16.231 Y17.314 E7.55263
G1 X16.767 Y17.264 E7.65250
G1 X17.091 Y17.262 E7.71250
G1 X17.817 Y17.299 E7.84753
G1 X17.966 Y17.322 E7.87555
G92 E0
G1 X15.529 Y9.543 F1200.000
M73 P60 R0
M73 Q60 S0
G1 F900.000
G1 X15.845 Y9.455 E0.06093
G1 X16.167 Y9.308 E0.12661
G1 X16.477 Y9.058 E0.20056
G1 X16.692 Y8.708 E0.27672
G1 X16.778 Y8.340 E0.34693
G1 X16.790 Y7.768 E0.45307
M73 P61 R0
M73 Q61 S0
G1 X16.767 Y6.678 E0.65546
G1 X16.781 Y6.233 E0.73800
G1 X16.909 Y5.688 E0.84191
G1 X17.041 Y5.322 E0.91408
G1 X17.198 Y4.993 E0.98170
G1 X17.380 Y4.700 E1.04572
G1 X17.588 Y4.440 E1.10757
G1 X17.825 Y4.209 E1.16892
G1 X18.093 Y4.007 E1.23138
G1 X18.399 Y3.831 E1.29688
M73 P62 R0
M73 Q62 S0
G1 X18.748 Y3.682 E1.36727
G1 X19.154 Y3.559 E1.44587
G1 X19.840 Y3.403 E1.57644
G1 X21.270 Y3.150 E1.84596
G1 X22.722 Y2.962 E2.11774
M73 P63 R0
M73 Q63 S0
G1 X24.350 Y2.807 E2.42127
G1 X25.985 Y2.697 E2.72521
G1 X27.621 Y2.635 E3.02901
M73 P64 R0
M73 Q64 S0
G1 X29.127 Y2.621 E3.30859
G1 X29.971 Y2.631 E3.46518
G1 X31.163 Y2.678 E3.68662
M73 P65 R0
M73 Q65 S0
G1 X32.349 Y2.776 E3.90736
G1 X32.928 Y2.847 E4.01569
G1 X34.093 Y3.044 E4.23482
G1 X34.570 Y3.162 E4.32615
G1 X34.998 Y3.315 E4.41053
G1 X35.387 Y3.502 E4.49061
M73 P66 R0
M73 Q66 S0
G1 X35.738 Y3.722 E4.56738
G1 X36.055 Y3.976 E4.64272
G1 X36.342 Y4.266 E4.71843
G1 X36.601 Y4.593 E4.79591
G1 X36.833 Y4.960 E4.87646
G1 X37.038 Y5.369 E4.96140
G1 X37.216 Y5.819 E5.05123
G1 X37.421 Y6.530 E5.18852
G1 X37.513 Y7.005 E5.27824
M73 P67 R0
M73 Q67 S0
G1 X37.573 Y7.488 E5.36861
G1 X37.617 Y8.464 E5.54989
G1 X37.714 Y8.767 E5.60894
G1 X37.946 Y9.026 E5.67338
G1 X38.141 Y9.137 E5.71508
G1 X38.379 Y9.201 E5.76084
G1 X40.260 Y9.398 E6.11179
M73 P68 R0
M73 Q68 S0
G1 X41.643 Y9.608 E6.37143
G1 X42.764 Y9.843 E6.58391
G1 X43.110 Y9.945 E6.65088
G1 X43.436 Y10.072 E6.71573
G1 X43.721 Y10.220 E6.77541
G1 X44.459 Y10.773 E6.94660
M73 P69 R0
M73 Q69 S0
G1 X45.046 Y11.424 E7.10908
G1 X45.494 Y12.161 E7.26926
G1 X45.804 Y12.966 E7.42927
G1 X45.976 Y13.818 E7.59056
G1 X46.007 Y14.692 E7.75288
M73 P70 R0
M73 Q70 S0
G1 X45.895 Y15.562 E7.91578
G1 X45.638 Y16.409 E8.08000
G1 X45.242 Y17.208 E8.24548
G1 X44.698 Y17.947 E8.41563
G1 X44.533 Y18.115 E8.45936
G1 X44.344 Y18.269 E8.50469
M73 P71 R0
M73 Q71 S0
G1 X43.924 Y18.516 E8.59510
G1 X43.414 Y18.707 E8.69619
G1 X42.849 Y18.835 E8.80355
G1 X42.232 Y18.912 E8.91905
G1 X41.495 Y18.950 E9.05604
G1 X39.185 Y18.946 E9.48463
M73 P72 R0
M73 Q72 S0
G1 X38.440 Y18.985 E9.62312
G1 X38.113 Y19.032 E9.68430
G1 X37.888 Y19.124 E9.72945
G1 X37.644 Y19.347 E9.79088
G1 X37.534 Y19.655 E9.85152
G1 X37.534 Y19.888 E9.89481
G1 X37.582 Y20.110 E9.93681
G1 X37.828 Y21.010 E10.11008
M73 P73 R0
M73 Q73 S0
G1 X37.923 Y21.270 E10.16140
G1 X38.066 Y21.537 E10.21756
G1 X38.287 Y21.789 E10.27982
G1 X38.577 Y21.980 E10.34411
G1 X38.896 Y22.096 E10.40710
G1 X39.241 Y22.158 E10.47224
G1 X40.900 Y22.210 E10.78019
G1 X41.508 Y22.254 E10.89332
M73 P74 R0
M73 Q74 S0
G1 X42.096 Y22.348 E11.00392
G1 X42.457 Y22.438 E11.07283
G1 X42.788 Y22.550 E11.13782
G1 X43.084 Y22.690 E11.19849
G1 X43.350 Y22.860 E11.25700
G1 X43.589 Y23.059 E11.31478
G1 X43.801 Y23.288 E11.37275
G1 X43.987 Y23.547 E11.43192
G1 X44.142 Y23.842 E11.49379
G1 X44.270 Y24.190 E11.56245
G1 X44.434 Y24.837 E11.68635
M73 P75 R0
M73 Q75 S0
G1 X44.565 Y25.584 E11.82708
G1 X44.641 Y26.383 E11.97601
G1 X44.648 Y27.193 E12.12634
G1 X44.571 Y27.972 E12.27155
G1 X44.401 Y28.680 E12.40666
G1 X44.138 Y29.279 E12.52808
M73 P76 R0
M73 Q76 S0
G1 X43.783 Y29.745 E12.63681
G1 X43.323 Y30.082 E12.74257
G1 X42.669 Y30.302 E12.87079
G1 X39.665 Y30.816 E13.43618
M73 P77 R0
M73 Q77 S0
G1 X37.210 Y31.178 E13.89676
G1 X33.565 Y31.647 E14.57870
M73 P78 R0
M73 Q78 S0
G1 X31.342 Y31.854 E14.99301
M73 P79 R0
M73 Q79 S0
G1 X29.676 Y31.929 E15.30249
G1 X27.578 Y31.945 E15.69195
M73 P80 R0
M73 Q80 S0
G1 X25.476 Y31.914 E16.08191
G1 X22.508 Y31.785 E16.63320
M73 P81 R0
M73 Q81 S0
G1 X22.186 Y31.811 E16.69319
G1 X21.857 Y31.911 E16.75702
G1 X21.569 Y32.081 E16.81900
G1 X21.419 Y32.208 E16.85555
G1 X20.725 Y32.982 E17.04847
G1 X20.214 Y33.427 E17.17422
G1 X19.679 Y33.780 E17.29316
M73 P82 R0
M73 Q82 S0
G1 X19.120 Y34.042 E17.40772
G1 X18.541 Y34.217 E17.52005
G1 X17.942 Y34.305 E17.63236
G1 X17.325 Y34.304 E17.74687
G1 X16.691 Y34.213 E17.86565
G1 X16.043 Y34.028 E17.99076
G1 X15.382 Y33.746 E18.12417
M73 P83 R0
M73 Q83 S0
G1 X14.983 Y33.518 E18.20935
G1 X14.617 Y33.260 E18.29236
G1 X14.281 Y32.980 E18.37363
G1 X13.641 Y32.348 E18.54060
G1 X12.712 Y31.241 E18.80872
G1 X12.352 Y30.848 E18.90758
M73 P84 R0
M73 Q84 S0
G1 X11.952 Y30.461 E19.01093
G1 X11.158 Y29.809 E19.20161
G1 X9.570 Y28.664 E19.56480
G1 X9.213 Y28.384 E19.64897
G1 X8.529 Y27.778 E19.81871
M73 P85 R0
M73 Q85 S0
G1 X8.230 Y27.460 E19.89968
G1 X7.870 Y27.019 E20.00530
G1 X7.542 Y26.557 E20.11034
G1 X7.246 Y26.076 E20.21519
G1 X6.983 Y25.579 E20.31966
G1 X6.752 Y25.065 E20.42408
G1 X6.555 Y24.537 E20.52872
M73 P86 R0
M73 Q86 S0
G1 X6.390 Y23.995 E20.63379
G1 X6.259 Y23.443 E20.73921
G1 X6.161 Y22.880 E20.84527
G1 X6.096 Y22.304 E20.95286
G1 X6.015 Y21.011 E21.19322
G1 X5.997 Y20.371 E21.31206
M73 P87 R0
M73 Q87 S0
G1 X6.010 Y19.074 E21.55263
G1 X6.040 Y18.436 E21.67113
G1 X6.152 Y17.145 E21.91173
G1 X6.233 Y16.511 E22.03037
G1 X6.423 Y15.411 E22.23739
M73 P88 R0
M73 Q88 S0
G1 X6.532 Y14.979 E22.32006
G1 X6.665 Y14.558 E22.40214
G1 X6.822 Y14.152 E22.48288
G1 X7.003 Y13.761 E22.56286
G1 X7.209 Y13.386 E22.64221
G1 X7.442 Y13.027 E22.72167
G1 X7.703 Y12.684 E22.80167
G1 X7.994 Y12.357 E22.88288
G1 X8.318 Y12.044 E22.96654
M73 P89 R0
M73 Q89 S0
G1 X8.905 Y11.578 E23.10543
