; generated by PrusaSlicer 2.3.3+win64 on 2022-02-12 at 21:29:58 UTC

; 

; external perimeters extrusion width = 6.75mm
; perimeters extrusion width = 6.75mm
; infill extrusion width = 6.75mm
; solid infill extrusion width = 6.75mm
; top infill extrusion width = 6.00mm
; first layer extrusion width = 0.20mm

M73 P0 R0
M73 Q0 S0
M201 X400 Y400 Z400 E400 ; sets maximum accelerations, mm/sec^2
M203 X40 Y40 Z40 E50 ; sets maximum feedrates, mm/sec
M204 P400 R400 T400 ; sets acceleration (P, T) and retract acceleration (R), mm/sec^2
M205 X8.00 Y8.00 Z0.40 E4.50 ; sets the jerk limits, mm/sec
M205 S0 T0 ; sets the minimum extruding and travel feed rate, mm/sec
M107
M104 S200 ; set temperature
;TYPE:Custom
G90 ; use absolute coordinates
M83 ; extruder relative mode
G28
G1 E1.5
G92 E0.0
M109 S200 ; set temperature and wait for it to be reached
G21 ; set units to millimeters
G90 ; use absolute coordinates
M82 ; use absolute distances for extrusion
G92 E0
; Filament gcode
;LAYER_CHANGE
;Z:0.1
;HEIGHT:0.1
;BEFORE_LAYER_CHANGE
;
;WITNESS ME
;AND DELETE AFTER HERE FOR PANCAKES
;
G92 E0.0
;0.1


G1 Z0.100 F1200.000
;AFTER_LAYER_CHANGE
;0.1
G1 X12.081 Y28.087
;TYPE:External perimeter
;WIDTH:0.2
M73 P5 R0
M73 Q5 S0
G1 F900.000
G1 X12.257 Y28.050 E0.00134
G1 X14.062 Y28.142 E0.01475
M73 P6 R0
M73 Q6 S0
G1 X16.557 Y28.219 E0.03328
G1 X19.055 Y28.250 E0.05182
M73 P7 R0
M73 Q7 S0
G1 X21.151 Y28.245 E0.06739
G1 X23.303 Y28.211 E0.08336
M73 P8 R0
M73 Q8 S0
G1 X25.025 Y28.154 E0.09614
G1 X26.618 Y28.077 E0.10798
M73 P9 R0
M73 Q9 S0
G1 X29.026 Y27.922 E0.12590
G1 X29.185 Y27.928 E0.12708
G1 X29.331 Y27.972 E0.12821
G1 X29.479 Y28.101 E0.12966
M73 P10 R0
M73 Q10 S0
G1 X29.548 Y28.271 E0.13102
G1 X29.593 Y29.243 E0.13825
G1 X29.552 Y29.930 E0.14336
G1 X29.462 Y30.393 E0.14686
G1 X29.392 Y30.628 E0.14868
G1 X29.266 Y30.925 E0.15108
G1 X29.091 Y31.187 E0.15342
G1 X28.978 Y31.309 E0.15465
G1 X28.727 Y31.503 E0.15700
G1 X28.578 Y31.583 E0.15826
G1 X28.266 Y31.695 E0.16072
M73 P11 R0
M73 Q11 S0
G1 X27.106 Y31.950 E0.16954
G1 X26.333 Y32.079 E0.17536
G1 X25.172 Y32.231 E0.18405
G1 X22.855 Y32.447 E0.20132
M73 P12 R0
M73 Q12 S0
G1 X21.309 Y32.539 E0.21282
G1 X20.275 Y32.573 E0.22049
M73 P13 R0
M73 Q13 S0
G1 X18.549 Y32.582 E0.23331
G1 X16.872 Y32.532 E0.24576
G1 X16.033 Y32.466 E0.25200
M73 P14 R0
M73 Q14 S0
G1 X15.195 Y32.364 E0.25827
G1 X14.360 Y32.215 E0.26456
G1 X13.835 Y32.091 E0.26857
G1 X13.482 Y31.961 E0.27136
G1 X13.142 Y31.770 E0.27426
G1 X12.832 Y31.498 E0.27732
G1 X12.524 Y31.063 E0.28127
M73 P15 R0
M73 Q15 S0
G1 X12.374 Y30.789 E0.28360
G1 X12.148 Y30.233 E0.28805
G1 X12.000 Y29.662 E0.29243
G1 X11.901 Y28.908 E0.29807
G92 E0
G1 X24.282 Y6.831 F1200.000
M73 P20 R0
M73 Q20 S0
G1 F900.000
G1 X24.491 Y6.869 E0.00158
G1 X24.591 Y6.924 E0.00242
G1 X24.674 Y7.018 E0.00335
G1 X24.723 Y7.136 E0.00430
G1 X24.719 Y7.316 E0.00564
G1 X24.457 Y8.082 E0.01164
G1 X24.264 Y8.719 E0.01659
G1 X24.099 Y9.361 E0.02151
G1 X23.962 Y10.007 E0.02641
M73 P21 R0
M73 Q21 S0
G1 X23.852 Y10.657 E0.03130
G1 X23.770 Y11.312 E0.03620
G1 X23.716 Y11.970 E0.04110
G1 X23.689 Y12.634 E0.04603
G1 X23.688 Y13.300 E0.05098
G1 X23.714 Y13.972 E0.05597
M73 P22 R0
M73 Q22 S0
G1 X23.773 Y14.654 E0.06105
G1 X23.930 Y15.659 E0.06860
G1 X24.185 Y16.638 E0.07611
G1 X24.415 Y17.273 E0.08112
G1 X24.601 Y17.692 E0.08453
M73 P23 R0
M73 Q23 S0
G1 X24.806 Y18.091 E0.08786
G1 X25.031 Y18.468 E0.09111
G1 X25.278 Y18.820 E0.09431
G1 X25.549 Y19.147 E0.09746
G1 X25.845 Y19.447 E0.10059
G1 X26.168 Y19.719 E0.10372
G1 X26.521 Y19.961 E0.10690
G1 X26.906 Y20.174 E0.11017
G1 X27.328 Y20.355 E0.11358
G1 X28.063 Y20.597 E0.11932
M73 P24 R0
M73 Q24 S0
G1 X28.433 Y20.697 E0.12216
G1 X29.183 Y20.852 E0.12785
G1 X29.942 Y20.945 E0.13353
G1 X30.323 Y20.966 E0.13636
G1 X31.097 Y20.957 E0.14211
G1 X31.795 Y20.881 E0.14731
M73 P25 R0
M73 Q25 S0
G1 X32.464 Y20.733 E0.15240
G1 X33.104 Y20.509 E0.15743
G1 X33.409 Y20.370 E0.15992
G1 X34.003 Y20.026 E0.16502
G1 X34.538 Y19.616 E0.17002
G1 X34.755 Y19.400 E0.17230
G1 X34.943 Y19.166 E0.17453
G1 X35.099 Y18.909 E0.17675
M73 P26 R0
M73 Q26 S0
G1 X35.225 Y18.617 E0.17911
G1 X35.862 Y16.775 E0.19358
G1 X35.998 Y16.313 E0.19716
G1 X36.258 Y15.269 E0.20514
G1 X36.461 Y14.220 E0.21307
M73 P27 R0
M73 Q27 S0
G1 X36.597 Y13.166 E0.22097
G1 X36.661 Y12.103 E0.22887
G1 X36.664 Y11.571 E0.23282
G1 X36.638 Y10.924 E0.23762
M73 P28 R0
M73 Q28 S0
G1 X36.496 Y9.389 E0.24907
G1 X37.066 Y9.631 E0.25366
G1 X37.189 Y9.716 E0.25477
G1 X37.715 Y10.207 E0.26012
G1 X38.125 Y10.650 E0.26460
G1 X38.496 Y11.115 E0.26901
M73 P29 R0
M73 Q29 S0
G1 X38.825 Y11.602 E0.27338
G1 X39.112 Y12.111 E0.27771
G1 X39.357 Y12.641 E0.28205
G1 X39.557 Y13.192 E0.28640
G1 X39.712 Y13.763 E0.29079
G1 X39.821 Y14.355 E0.29525
G1 X39.883 Y14.961 E0.29978
M73 P30 R0
M73 Q30 S0
G1 X39.949 Y16.671 E0.31248
G1 X39.941 Y17.811 E0.32095
G1 X39.884 Y18.952 E0.32942
M73 P31 R0
M73 Q31 S0
G1 X39.836 Y19.523 E0.33368
G1 X39.696 Y20.666 E0.34223
G1 X39.590 Y21.212 E0.34635
G1 X39.442 Y21.732 E0.35037
G1 X39.249 Y22.223 E0.35428
G1 X39.011 Y22.682 E0.35812
M73 P32 R0
M73 Q32 S0
G1 X38.729 Y23.110 E0.36193
G1 X38.401 Y23.505 E0.36574
G1 X38.027 Y23.865 E0.36959
G1 X37.609 Y24.189 E0.37352
G1 X37.147 Y24.479 E0.37757
G1 X36.643 Y24.732 E0.38175
G1 X35.634 Y25.125 E0.38979
M73 P33 R0
M73 Q33 S0
G1 X35.120 Y25.288 E0.39379
G1 X34.341 Y25.496 E0.39978
G1 X33.080 Y25.753 E0.40933
G1 X32.077 Y25.911 E0.41686
G1 X31.072 Y26.039 E0.42438
M73 P34 R0
M73 Q34 S0
G1 X28.345 Y26.296 E0.44472
G1 X26.186 Y26.436 E0.46078
M73 P35 R0
M73 Q35 S0
G1 X23.305 Y26.546 E0.48218
M73 P36 R0
M73 Q36 S0
G1 X19.956 Y26.592 E0.50704
G1 X18.047 Y26.584 E0.52121
M73 P37 R0
M73 Q37 S0
G1 X16.137 Y26.548 E0.53539
G1 X13.273 Y26.438 E0.55666
M73 P38 R0
M73 Q38 S0
G1 X10.069 Y26.232 E0.58050
M73 P39 R0
M73 Q39 S0
G1 X8.943 Y26.125 E0.58889
G1 X7.818 Y25.986 E0.59731
G1 X5.942 Y25.667 E0.61143
M73 P40 R0
M73 Q40 S0
G1 X5.623 Y25.566 E0.61391
G1 X5.459 Y25.492 E0.61525
G1 X5.157 Y25.296 E0.61793
G1 X4.703 Y24.867 E0.62256
G1 X4.321 Y24.385 E0.62712
G1 X4.017 Y23.857 E0.63165
M73 P41 R0
M73 Q41 S0
G1 X3.802 Y23.292 E0.63613
G1 X3.687 Y22.698 E0.64062
G1 X3.680 Y22.086 E0.64517
G1 X3.792 Y21.468 E0.64983
G1 X4.031 Y20.858 E0.65469
G1 X4.402 Y20.267 E0.65987
G1 X4.910 Y19.706 E0.66549
M73 P42 R0
M73 Q42 S0
G1 X5.118 Y19.566 E0.66735
G1 X5.327 Y19.515 E0.66895
G1 X7.021 Y19.485 E0.68152
G1 X9.154 Y19.383 E0.69737
M73 P43 R0
M73 Q43 S0
G1 X10.138 Y19.292 E0.70471
G1 X10.619 Y19.220 E0.70832
G1 X11.091 Y19.120 E0.71190
G1 X11.381 Y19.033 E0.71415
G1 X11.629 Y18.918 E0.71617
G1 X11.833 Y18.772 E0.71804
G1 X11.914 Y18.690 E0.71890
G1 X12.058 Y18.473 E0.72083
G1 X12.112 Y18.345 E0.72186
M73 P44 R0
M73 Q44 S0
G1 X12.163 Y18.146 E0.72338
G1 X12.179 Y17.944 E0.72489
G1 X12.165 Y17.736 E0.72644
G1 X12.097 Y17.406 E0.72894
G1 X11.520 Y15.465 E0.74397
G1 X11.268 Y14.538 E0.75110
G1 X11.058 Y13.598 E0.75825
M73 P45 R0
M73 Q45 S0
G1 X10.980 Y13.121 E0.76183
G1 X10.927 Y12.639 E0.76544
G1 X10.905 Y12.151 E0.76906
G1 X10.929 Y11.653 E0.77276
G1 X11.037 Y11.154 E0.77655
G1 X11.340 Y10.470 E0.78211
M73 P46 R0
M73 Q46 S0
G1 X11.218 Y10.450 E0.78302
G1 X11.120 Y10.494 E0.78382
G1 X10.623 Y10.997 E0.78907
G1 X10.337 Y11.346 E0.79242
G1 X10.153 Y11.640 E0.79499
G1 X9.945 Y12.118 E0.79887
G1 X9.844 Y12.460 E0.80151
G1 X9.688 Y13.160 E0.80683
G1 X9.563 Y13.367 E0.80863
G1 X9.451 Y13.452 E0.80967
G1 X9.236 Y13.527 E0.81136
G1 X8.995 Y13.565 E0.81317
M73 P47 R0
M73 Q47 S0
G1 X8.425 Y13.622 E0.81743
G1 X7.852 Y13.644 E0.82168
G1 X6.996 Y13.599 E0.82804
G1 X6.706 Y13.561 E0.83022
G1 X6.130 Y13.446 E0.83458
G1 X5.933 Y13.379 E0.83612
G1 X5.758 Y13.273 E0.83764
G1 X5.614 Y13.135 E0.83912
G1 X5.504 Y12.973 E0.84057
G1 X5.427 Y12.799 E0.84198
G1 X5.300 Y12.398 E0.84511
M73 P48 R0
M73 Q48 S0
G1 X5.203 Y11.996 E0.84818
G1 X5.136 Y11.589 E0.85124
G1 X5.064 Y10.714 E0.85775
G1 X5.086 Y9.967 E0.86330
G1 X5.162 Y9.466 E0.86706
G1 X5.223 Y9.212 E0.86900
G1 X5.344 Y8.849 E0.87184
G1 X5.459 Y8.647 E0.87357
M73 P49 R0
M73 Q49 S0
G1 X5.538 Y8.552 E0.87449
G1 X5.716 Y8.408 E0.87619
G1 X5.925 Y8.312 E0.87789
G1 X6.147 Y8.256 E0.87959
G1 X9.611 Y7.690 E0.90564
M73 P50 R0
M73 Q50 S0
G1 X12.694 Y7.253 E0.92875
G1 X14.293 Y7.045 E0.94073
M73 P51 R0
M73 Q51 S0
G1 X15.902 Y6.879 E0.95273
G1 X17.225 Y6.788 E0.96258
G1 X19.221 Y6.729 E0.97740
M73 P52 R0
M73 Q52 S0
G1 X21.147 Y6.737 E0.99169
G1 X23.382 Y6.804 E1.00830
G92 E0
M73 P53 R0
M73 Q53 S0
G1 X29.582 Y4.463 F1200.000
M73 P54 R0
M73 Q54 S0
G1 F900.000
G1 X29.853 Y4.442 E0.00202
G1 X30.164 Y4.452 E0.00432
G1 X30.479 Y4.494 E0.00669
G1 X30.797 Y4.568 E0.00911
G1 X31.164 Y4.683 E0.01196
M73 P55 R0
M73 Q55 S0
G1 X31.512 Y4.826 E0.01475
G1 X31.840 Y4.995 E0.01750
G1 X32.150 Y5.188 E0.02021
G1 X32.441 Y5.405 E0.02290
G1 X32.714 Y5.641 E0.02558
G1 X32.970 Y5.898 E0.02827
G1 X33.211 Y6.173 E0.03098
G1 X33.644 Y6.765 E0.03643
G1 X33.939 Y7.250 E0.04064
M73 P56 R0
M73 Q56 S0
G1 X34.192 Y7.748 E0.04479
G1 X34.406 Y8.256 E0.04888
G1 X34.584 Y8.772 E0.05293
G1 X34.726 Y9.297 E0.05697
G1 X34.836 Y9.830 E0.06101
G1 X34.915 Y10.369 E0.06505
G1 X34.965 Y10.915 E0.06912
G1 X34.989 Y12.018 E0.07731
M73 P57 R0
M73 Q57 S0
G1 X34.965 Y12.608 E0.08169
G1 X34.914 Y13.191 E0.08604
G1 X34.742 Y14.341 E0.09467
G1 X34.488 Y15.469 E0.10325
M73 P58 R0
M73 Q58 S0
G1 X34.167 Y16.580 E0.11184
G1 X33.731 Y17.836 E0.12171
G1 X33.573 Y18.126 E0.12415
G1 X33.376 Y18.375 E0.12651
G1 X33.145 Y18.584 E0.12882
G1 X32.884 Y18.755 E0.13114
G1 X32.515 Y18.937 E0.13419
M73 P59 R0
M73 Q59 S0
G1 X32.255 Y19.035 E0.13625
G1 X31.765 Y19.168 E0.14002
G1 X31.274 Y19.256 E0.14373
G1 X30.786 Y19.301 E0.14736
G1 X30.303 Y19.304 E0.15095
G1 X29.824 Y19.269 E0.15452
G1 X29.350 Y19.196 E0.15807
G1 X28.882 Y19.088 E0.16164
M73 P60 R0
M73 Q60 S0
G1 X28.420 Y18.949 E0.16522
G1 X27.963 Y18.779 E0.16884
G1 X27.509 Y18.579 E0.17252
G1 X27.295 Y18.464 E0.17433
G1 X27.095 Y18.325 E0.17614
G1 X26.755 Y18.003 E0.17961
G1 X26.478 Y17.634 E0.18304
G1 X26.251 Y17.239 E0.18642
G1 X25.908 Y16.462 E0.19273
M73 P61 R0
M73 Q61 S0
G1 X25.672 Y15.726 E0.19846
G1 X25.512 Y15.009 E0.20391
G1 X25.415 Y14.332 E0.20899
G1 X25.370 Y13.715 E0.21358
G1 X25.370 Y12.833 E0.22012
G1 X25.432 Y11.700 E0.22855
M73 P62 R0
M73 Q62 S0
G1 X25.561 Y10.644 E0.23645
G1 X25.757 Y9.647 E0.24399
G1 X25.881 Y9.164 E0.24769
G1 X26.180 Y8.226 E0.25500
M73 P63 R0
M73 Q63 S0
G1 X26.426 Y7.595 E0.26002
G1 X26.711 Y6.983 E0.26503
G1 X27.046 Y6.393 E0.27007
G1 X27.442 Y5.834 E0.27516
G1 X27.909 Y5.313 E0.28035
G1 X28.154 Y5.091 E0.28281
G1 X28.411 Y4.901 E0.28518
M73 P64 R0
M73 Q64 S0
G1 X28.725 Y4.722 E0.28786
G92 E0
G1 X32.084 Y27.540 F1200.000
M73 P68 R0
M73 Q68 S0
G1 F900.000
G1 X31.829 Y27.613 E0.00197
G1 X31.588 Y27.723 E0.00394
G1 X31.371 Y27.891 E0.00598
G1 X31.223 Y28.121 E0.00801
G1 X31.151 Y28.377 E0.00998
G1 X31.119 Y28.634 E0.01190
G1 X31.121 Y29.165 E0.01584
G1 X31.173 Y29.964 E0.02178
M73 P69 R0
M73 Q69 S0
G1 X31.168 Y30.425 E0.02521
G1 X31.140 Y30.612 E0.02661
G1 X31.030 Y31.028 E0.02981
G1 X30.890 Y31.416 E0.03287
G1 X30.721 Y31.771 E0.03579
G1 X30.521 Y32.093 E0.03860
G1 X30.291 Y32.381 E0.04134
G1 X30.027 Y32.638 E0.04407
G1 X29.728 Y32.864 E0.04685
M73 P70 R0
M73 Q70 S0
G1 X29.391 Y33.057 E0.04974
G1 X29.014 Y33.218 E0.05278
G1 X28.245 Y33.429 E0.05870
G1 X27.198 Y33.639 E0.06662
G1 X25.782 Y33.851 E0.07725
M73 P71 R0
M73 Q71 S0
G1 X24.539 Y33.993 E0.08654
G1 X22.945 Y34.130 E0.09841
G1 X21.347 Y34.222 E0.11029
M73 P72 R0
M73 Q72 S0
G1 X19.748 Y34.267 E0.12217
G1 X18.569 Y34.270 E0.13092
G1 X17.395 Y34.243 E0.13964
M73 P73 R0
M73 Q73 S0
G1 X16.228 Y34.173 E0.14832
G1 X15.066 Y34.047 E0.15699
G1 X13.914 Y33.853 E0.16566
G1 X13.418 Y33.730 E0.16946
M73 P74 R0
M73 Q74 S0
G1 X12.966 Y33.568 E0.17302
G1 X12.552 Y33.369 E0.17643
G1 X12.175 Y33.133 E0.17973
G1 X11.833 Y32.859 E0.18298
G1 X11.524 Y32.547 E0.18624
G1 X11.247 Y32.197 E0.18955
G1 X11.002 Y31.808 E0.19297
G1 X10.786 Y31.379 E0.19653
G1 X10.601 Y30.910 E0.20028
M73 P75 R0
M73 Q75 S0
G1 X10.392 Y30.187 E0.20586
G1 X10.297 Y29.697 E0.20957
G1 X10.235 Y29.200 E0.21329
G1 X10.195 Y28.289 E0.22005
G1 X10.140 Y28.120 E0.22137
G1 X10.010 Y27.974 E0.22282
G1 X9.918 Y27.921 E0.22361
G1 X9.762 Y27.880 E0.22480
G1 X7.958 Y27.690 E0.23828
M73 P76 R0
M73 Q76 S0
G1 X6.935 Y27.544 E0.24594
G1 X5.866 Y27.340 E0.25402
G1 X5.116 Y27.142 E0.25978
M73 P77 R0
M73 Q77 S0
G1 X4.768 Y27.007 E0.26255
G1 X4.445 Y26.839 E0.26525
G1 X3.674 Y26.261 E0.27241
G1 X3.056 Y25.576 E0.27925
G1 X2.585 Y24.801 E0.28599
G1 X2.260 Y23.959 E0.29269
M73 P78 R0
M73 Q78 S0
G1 X2.082 Y23.070 E0.29941
G1 X2.051 Y22.160 E0.30617
G1 X2.169 Y21.252 E0.31297
G1 X2.434 Y20.370 E0.31981
G1 X2.847 Y19.537 E0.32671
M73 P79 R0
M73 Q79 S0
G1 X3.410 Y18.771 E0.33376
G1 X3.604 Y18.574 E0.33581
G1 X3.819 Y18.399 E0.33787
G1 X4.048 Y18.249 E0.33991
G1 X4.560 Y18.007 E0.34411
G1 X5.127 Y17.841 E0.34849
G1 X5.740 Y17.737 E0.35311
M73 P80 R0
M73 Q80 S0
G1 X6.426 Y17.679 E0.35822
G1 X7.176 Y17.661 E0.36379
G1 X9.040 Y17.669 E0.37762
G1 X9.736 Y17.632 E0.38280
M73 P81 R0
M73 Q81 S0
G1 X9.990 Y17.596 E0.38470
G1 X10.102 Y17.550 E0.38560
G1 X10.219 Y17.443 E0.38678
G1 X10.275 Y17.288 E0.38800
G1 X10.237 Y17.013 E0.39006
G1 X10.004 Y16.160 E0.39663
G1 X9.927 Y15.949 E0.39830
G1 X9.821 Y15.752 E0.39995
G1 X9.669 Y15.578 E0.40167
G1 X9.468 Y15.445 E0.40346
G1 X9.231 Y15.359 E0.40533
G1 X8.955 Y15.310 E0.40741
G1 X7.366 Y15.260 E0.41921
M73 P82 R0
M73 Q82 S0
G1 X6.752 Y15.215 E0.42378
G1 X6.151 Y15.118 E0.42830
G1 X5.774 Y15.018 E0.43120
G1 X5.418 Y14.890 E0.43400
G1 X5.089 Y14.733 E0.43671
G1 X4.787 Y14.545 E0.43935
G1 X4.515 Y14.326 E0.44194
M73 P83 R0
M73 Q83 S0
G1 X4.275 Y14.072 E0.44454
G1 X4.066 Y13.782 E0.44719
G1 X3.891 Y13.451 E0.44997
G1 X3.752 Y13.072 E0.45297
G1 X3.584 Y12.411 E0.45803
G1 X3.453 Y11.657 E0.46371
G1 X3.375 Y10.851 E0.46972
G1 X3.369 Y10.028 E0.47583
M73 P84 R0
M73 Q84 S0
G1 X3.448 Y9.226 E0.48181
G1 X3.626 Y8.481 E0.48750
G1 X3.914 Y7.827 E0.49280
G1 X4.319 Y7.295 E0.49776
G1 X4.857 Y6.901 E0.50271
M73 P85 R0
M73 Q85 S0
G1 X5.576 Y6.658 E0.50835
G1 X7.548 Y6.314 E0.52321
G1 X9.956 Y5.938 E0.54130
M73 P86 R0
M73 Q86 S0
G1 X12.830 Y5.547 E0.56283
G1 X15.005 Y5.287 E0.57908
M73 P87 R0
M73 Q87 S0
G1 X16.091 Y5.185 E0.58718
G1 X17.177 Y5.110 E0.59527
M73 P88 R0
M73 Q88 S0
G1 X18.949 Y5.059 E0.60842
G1 X21.681 Y5.069 E0.62871
M73 P89 R0
M73 Q89 S0
G1 X23.730 Y5.133 E0.64392
G1 X25.104 Y5.205 E0.65414
G1 X25.473 Y5.189 E0.65687
M73 P90 R0
M73 Q90 S0
G1 X25.712 Y5.116 E0.65873
G1 X25.927 Y4.990 E0.66058
G1 X26.113 Y4.818 E0.66246
G1 X26.697 Y4.156 E0.66902
G1 X27.230 Y3.692 E0.67426
G1 X27.794 Y3.321 E0.67927
G1 X28.386 Y3.043 E0.68412
G1 X29.001 Y2.857 E0.68890
M73 P91 R0
M73 Q91 S0
G1 X29.638 Y2.764 E0.69367
G1 X30.291 Y2.765 E0.69852
G1 X30.958 Y2.860 E0.70352
G1 X31.635 Y3.054 E0.70875
G1 X32.319 Y3.346 E0.71427
G1 X32.740 Y3.586 E0.71787
M73 P92 R0
M73 Q92 S0
G1 X33.120 Y3.855 E0.72132
G1 X33.466 Y4.149 E0.72470
G1 X33.788 Y4.464 E0.72804
G1 X35.023 Y5.871 E0.74193
G1 X35.361 Y6.234 E0.74562
G1 X35.731 Y6.590 E0.74942
M73 P93 R0
M73 Q93 S0
G1 X36.480 Y7.205 E0.75662
G1 X38.380 Y8.600 E0.77412
G1 X39.065 Y9.205 E0.78090
M73 P94 R0
M73 Q94 S0
G1 X39.376 Y9.536 E0.78427
G1 X39.742 Y9.984 E0.78856
G1 X40.074 Y10.452 E0.79283
G1 X40.375 Y10.940 E0.79708
G1 X40.642 Y11.445 E0.80132
G1 X40.875 Y11.966 E0.80555
G1 X41.075 Y12.501 E0.80979
M73 P95 R0
M73 Q95 S0
G1 X41.242 Y13.049 E0.81405
G1 X41.375 Y13.608 E0.81831
G1 X41.474 Y14.177 E0.82260
G1 X41.539 Y14.757 E0.82693
G1 X41.619 Y16.027 E0.83638
G1 X41.638 Y17.299 E0.84582
M73 P96 R0
M73 Q96 S0
G1 X41.594 Y18.569 E0.85525
G1 X41.484 Y19.836 E0.86470
G1 X41.306 Y21.099 E0.87416
M73 P97 R0
M73 Q97 S0
G1 X41.216 Y21.557 E0.87762
G1 X41.103 Y22.001 E0.88103
G1 X40.967 Y22.433 E0.88439
G1 X40.807 Y22.849 E0.88770
G1 X40.620 Y23.252 E0.89100
G1 X40.407 Y23.639 E0.89428
G1 X40.165 Y24.011 E0.89757
G1 X39.894 Y24.367 E0.90089
M73 P98 R0
M73 Q98 S0
G1 X39.593 Y24.706 E0.90425
G1 X39.260 Y25.028 E0.90770
G1 X38.650 Y25.512 E0.91347
G1 X37.998 Y25.924 E0.91920
