; generated by Slic3r 1.3.0 on 2022-02-12 at 17:01:29

; external perimeters extrusion width = 1.10mm (12.24mm^3/s)
; perimeters extrusion width = 1.07mm (23.56mm^3/s)
; infill extrusion width = 1.07mm (62.83mm^3/s)
; solid infill extrusion width = 1.07mm (15.71mm^3/s)
; top infill extrusion width = 1.07mm (11.78mm^3/s)

M107
M104 S5 ; set temperature
G28 ; home all axes
G1 E1.6 F30 ; lift nozzle

; Filament gcode

M109 S5 ; set temperature and wait for it to be reached
G21 ; set units to millimeters
G90 ; use absolute coordinates
M82 ; use absolute distances for extrusion
G92 E0
G1 Z1.000 F1800.000
G1 E-0.50000 F2400.00000
G92 E0
G1 X11.171 Y25.311 F1800.000
G1 E0.50000 F2400.00000
G1 F1800
G1 X11.307 Y25.272 E0.54990
G1 F1800
G1 X11.442 Y25.233 E0.59791
G1 F1800
G1 X11.578 Y25.194 E0.64402
G1 F1800
G1 X11.714 Y25.155 E0.68824
G1 F1800
G1 X11.850 Y25.116 E0.73056
G1 F1800
G1 X12.129 Y25.099 E0.81066
G1 F1800
G1 X12.338 Y25.090 E0.86847
G1 X13.171 Y25.138 E1.09905
G1 F1800
G1 X15.868 Y25.240 E1.82389
G1 X17.669 Y25.272 E2.30774
G1 X19.463 Y25.280 E2.78974
G1 X21.376 Y25.263 E3.30364
G1 X24.543 Y25.171 E4.15437
G1 X28.072 Y24.963 E5.10399
G1 F1800
G1 X28.369 Y24.972 E5.18709
G1 F1800
G1 X28.516 Y25.007 E5.23130
G1 F1800
G1 X28.663 Y25.043 E5.27760
G1 F1800
G1 X28.809 Y25.078 E5.32599
G1 F1800
G1 X28.956 Y25.113 E5.37646
G1 F1800
G1 X29.103 Y25.148 E5.42902
G1 F1800
G1 X29.176 Y25.166 E5.45635
G1 X29.179 Y25.245 E5.48495
G1 F1800
G1 X29.182 Y25.324 E5.51255
G1 F1800
G1 X29.184 Y25.412 E5.54206
G1 F1800
G1 X29.184 Y25.508 E5.57327
G1 F1800
G1 X29.184 Y25.604 E5.60329
G1 F1800
G1 X29.186 Y25.701 E5.63231
G1 F1800
G1 X29.189 Y25.859 E5.67775
G1 F1800
G1 X29.187 Y26.024 E5.72306
G1 F1800
G1 X29.177 Y26.311 E5.79902
G1 F1800
G1 X29.190 Y27.486 E6.09895
G1 F1800
G1 X29.161 Y28.029 E6.24296
G1 X29.064 Y28.418 E6.34929
G1 X28.982 Y28.647 E6.41365
G1 F1800
G1 X28.822 Y28.988 E6.51635
G1 X28.695 Y29.191 E6.58145
G1 X28.538 Y29.385 E6.64933
G1 X28.363 Y29.556 E6.71609
G1 X28.164 Y29.708 E6.78437
G1 X27.933 Y29.844 E6.85720
G1 X27.517 Y30.003 E6.97856
G1 X27.030 Y30.128 E7.11552
G1 X26.273 Y30.286 E7.32613
G1 X25.523 Y30.411 E7.53312
G1 X24.157 Y30.587 E7.90830
G1 X22.255 Y30.759 E8.42841
G1 X20.783 Y30.846 E8.83003
G1 X19.797 Y30.881 E9.09886
G1 X18.181 Y30.887 E9.53875
G1 X17.109 Y30.869 E9.83089
G1 X16.052 Y30.806 E10.11936
G1 X14.932 Y30.682 E10.42619
G1 X13.984 Y30.515 E10.68839
G1 X13.589 Y30.419 E10.79905
G1 X13.242 Y30.298 E10.89923
G1 X12.930 Y30.150 E10.99308
G1 X12.651 Y29.981 E11.08196
G1 X12.405 Y29.779 E11.16877
G1 X12.178 Y29.551 E11.25630
G1 X11.979 Y29.286 E11.34661
G1 X11.792 Y28.991 E11.44164
G1 X11.575 Y28.540 E11.57806
G1 X11.406 Y28.085 E11.71009
G1 X11.257 Y27.487 E11.87813
G1 X11.180 Y26.961 E12.02299
G1 X11.139 Y26.350 E12.18967
G1 X11.144 Y26.031 E12.27668
G1 F1800
G1 X11.149 Y25.846 E12.32857
G1 F1800
G1 X11.152 Y25.686 E12.37548
G1 F1800
G1 X11.156 Y25.574 E12.41020
G1 F1800
G1 X11.161 Y25.486 E12.43842
G1 F1800
G1 X11.166 Y25.398 E12.46778
G1 F1800
G1 X11.171 Y25.311 E12.49827
G1 X10.997 Y25.229 E12.56509
G1 F1800
G1 X10.881 Y25.174 E12.60791
G1 F1800
G1 X10.764 Y25.120 E12.64901
G1 F1800
G1 X10.642 Y25.070 E12.68954
G1 F1800
G1 X10.445 Y25.019 E12.74972
G1 F1800
G1 X10.247 Y24.968 E12.80771
G1 F1800
G1 X8.045 Y24.718 E13.41430
G1 X6.268 Y24.402 E13.90833
G1 F1800
G1 X5.695 Y24.225 E14.06818
G1 X5.406 Y24.080 E14.15444
G1 X5.090 Y23.849 E14.25868
G1 F1800
G1 X4.685 Y23.487 E14.40836
G1 X4.248 Y22.958 E14.59788
G1 X3.903 Y22.365 E14.78710
G1 X3.660 Y21.721 E14.97679
G1 F1800
G1 X3.534 Y21.128 E15.13952
G1 X3.512 Y20.852 E15.21370
G1 X3.506 Y20.333 E15.35308
G1 X3.598 Y19.678 E15.53051
G1 X3.670 Y19.419 E15.60247
G1 X3.860 Y18.893 E15.75249
G1 X4.164 Y18.330 E15.92406
G1 X4.366 Y18.048 E16.01725
G1 F1800
G1 X4.735 Y17.615 E16.17571
G1 X4.862 Y17.496 E16.22430
G1 X5.124 Y17.321 E16.31182
G1 F1800
G1 X5.470 Y17.178 E16.41312
G1 X5.802 Y17.105 E16.50481
G1 F1800
G1 X6.297 Y17.057 E16.64334
G1 F1800
G1 X7.195 Y17.015 E16.90080
G1 X8.925 Y16.981 E17.39607
G1 F1800
G1 X9.674 Y16.949 E17.60401
G1 X10.120 Y16.907 E17.72824
G1 X10.396 Y16.862 E17.80571
G1 X10.523 Y16.815 E17.84332
G1 F1800
G1 X10.745 Y16.728 E17.91220
G1 F1800
G1 X10.968 Y16.642 E17.98396
G1 F1800
G1 X11.066 Y16.577 E18.02025
G1 F1800
G1 X11.155 Y16.511 E18.05599
G1 F1800
G1 X11.205 Y16.463 E18.07860
G1 X11.236 Y16.348 E18.11755
G1 F1800
G1 X11.250 Y16.246 E18.15072
G1 F1800
G1 X11.226 Y16.002 E18.22700
G1 F1800
G1 X11.202 Y15.757 E18.30011
G1 F1800
G1 X11.177 Y15.513 E18.37003
G1 F1800
G1 X10.962 Y14.726 E18.59205
G1 X10.725 Y14.023 E18.79392
G1 F1800
G1 X10.619 Y13.795 E18.86539
G1 F1800
G1 X10.548 Y13.662 E18.90972
G1 F1800
G1 X10.482 Y13.551 E18.94897
G1 F1800
G1 X10.418 Y13.446 E18.98764
G1 F1800
G1 X10.368 Y13.371 E19.01663
G1 F1800
G1 X10.305 Y13.280 E19.05355
G1 F1800
G1 X10.246 Y13.195 E19.08943
G1 F1800
G1 X10.218 Y13.156 E19.10672
G1 X10.120 Y13.157 E19.14135
G1 F1800
G1 X10.023 Y13.158 E19.17482
G1 F1800
G1 X9.912 Y13.159 E19.21168
G1 F1800
G1 X9.785 Y13.158 E19.25260
G1 F1800
G1 X9.676 Y13.157 E19.28634
G1 F1800
G1 X9.541 Y13.156 E19.32678
G1 F1800
G1 X9.354 Y13.151 E19.38151
G1 F1800
G1 X9.077 Y13.160 E19.46014
G1 F1800
G1 X8.215 Y13.171 E19.69783
G1 F1800
G1 X7.222 Y13.119 E19.96132
G1 X6.728 Y13.035 E20.09393
G1 X6.440 Y12.971 E20.17210
G1 X6.173 Y12.884 E20.24635
G1 X5.936 Y12.772 E20.31595
G1 X5.729 Y12.641 E20.38083
G1 X5.555 Y12.489 E20.44200
G1 X5.407 Y12.321 E20.50140
G1 X5.280 Y12.130 E20.56209
G1 X5.173 Y11.911 E20.62673
G1 X5.075 Y11.636 E20.70415
G1 X4.939 Y11.108 E20.84862
G1 X4.823 Y10.412 E21.03532
G1 F1800
G1 X4.765 Y9.632 E21.24869
G1 X4.771 Y9.067 E21.40306
G1 X4.842 Y8.416 E21.58169
G1 X4.941 Y8.002 E21.69784
G1 X5.041 Y7.701 E21.78423
G1 X5.185 Y7.390 E21.87784
G1 X5.409 Y7.099 E21.97783
G1 F1800
G1 X5.737 Y6.834 E22.09627
G1 X6.005 Y6.723 E22.17785
G1 F1800
G1 X6.224 Y6.649 E22.24054
G1 X6.449 Y6.604 E22.30311
G1 X9.698 Y6.068 E23.19797
G1 X13.567 Y5.534 E24.25973
G1 X14.924 Y5.377 E24.63096
G1 X15.920 Y5.286 E24.90289
G1 X17.604 Y5.191 E25.36131
G1 X19.168 Y5.165 E25.78629
G1 X22.061 Y5.210 E26.57292
G1 X23.528 Y5.265 E26.97187
G1 X23.833 Y5.304 E27.05542
G1 F1800
G1 X24.135 Y5.360 E27.14183
G1 F1800
G1 X24.282 Y5.405 E27.18685
G1 F1800
G1 X24.395 Y5.443 E27.22307
G1 F1800
G1 X24.511 Y5.487 E27.26237
G1 F1800
G1 X24.628 Y5.530 E27.30336
G1 F1800
G1 X24.704 Y5.563 E27.33192
G1 F1800
G1 X24.780 Y5.597 E27.36146
G1 F1800
G1 X24.818 Y5.614 E27.37672
G1 X24.816 Y5.718 E27.41502
G1 F1800
G1 X24.814 Y5.823 E27.45197
G1 F1800
G1 X24.811 Y5.927 E27.48757
G1 F1800
G1 X24.809 Y6.031 E27.52183
G1 F1800
G1 X24.800 Y6.123 E27.55080
G1 F1800
G1 X24.772 Y6.307 E27.60783
G1 F1800
G1 X24.733 Y6.511 E27.66864
G1 F1800
G1 X24.672 Y6.734 E27.73376
G1 F1800
G1 X24.380 Y7.582 E27.97792
G1 X24.105 Y8.587 E28.26148
G1 X23.891 Y9.733 E28.57880
G1 X23.764 Y11.036 E28.93500
G1 X23.742 Y12.073 E29.21742
G1 X23.752 Y12.542 E29.34516
G1 X23.801 Y13.172 E29.51717
G1 X23.954 Y14.131 E29.78148
G1 X24.177 Y14.973 E30.01849
G1 X24.464 Y15.732 E30.23939
G1 X24.677 Y16.169 E30.37187
G1 X24.866 Y16.492 E30.47339
G1 X25.271 Y17.030 E30.65679
G1 X25.584 Y17.330 E30.77492
G1 X25.748 Y17.462 E30.83211
G1 X26.090 Y17.680 E30.94267
G1 X26.637 Y17.936 E31.10696
G1 X27.270 Y18.154 E31.28922
G1 X28.063 Y18.349 E31.51154
G1 X28.870 Y18.457 E31.73309
G1 X29.582 Y18.470 E31.92679
G1 X29.831 Y18.459 E31.99483
G1 X30.402 Y18.391 E32.15125
G1 X30.938 Y18.271 E32.30082
G1 X31.466 Y18.094 E32.45242
G1 X32.023 Y17.804 E32.62320
G1 X32.494 Y17.455 E32.78278
G1 X32.701 Y17.252 E32.86163
G1 X32.801 Y17.122 E32.90632
G1 X32.955 Y16.867 E32.98757
G1 X33.099 Y16.512 E33.09166
G1 X33.515 Y15.314 E33.43683
G1 X33.826 Y14.222 E33.74584
G1 X34.034 Y13.291 E34.00553
G1 X34.141 Y12.661 E34.17952
G1 X34.234 Y11.897 E34.38898
G1 X34.295 Y10.929 E34.65305
G1 X34.271 Y9.854 E34.94558
G1 X34.170 Y8.737 E35.25088
G1 F1800
G1 X34.177 Y8.600 E35.28926
G1 F1800
G1 X34.191 Y8.454 E35.33223
G1 F1800
G1 X34.206 Y8.308 E35.37703
G1 F1800
G1 X34.221 Y8.161 E35.42365
G1 F1800
G1 X34.238 Y8.076 E35.45212
G1 F1800
G1 X34.264 Y7.987 E35.48378
G1 F1800
G1 X34.290 Y7.898 E35.51672
G1 F1800
G1 X34.316 Y7.808 E35.55094
G1 F1800
G1 X34.342 Y7.719 E35.58643
G1 F1800
G1 X34.368 Y7.630 E35.62320
G1 F1800
G1 X34.381 Y7.585 E35.64222
G1 X34.511 Y7.621 E35.69724
G1 F1800
G1 X34.641 Y7.656 E35.75042
G1 F1800
G1 X34.771 Y7.691 E35.80176
G1 F1800
G1 X34.900 Y7.726 E35.85126
G1 F1800
G1 X35.030 Y7.762 E35.89892
G1 F1800
G1 X35.160 Y7.797 E35.94474
G1 F1800
G1 X35.290 Y7.832 E35.98872
G1 F1800
G1 X35.420 Y7.868 E36.03086
G1 F1800
G1 X35.549 Y7.903 E36.07115
G1 F1800
G1 X35.679 Y7.938 E36.10961
G1 F1800
G1 X35.744 Y7.956 E36.12791
G1 X35.881 Y8.042 E36.17190
G1 F1800
G1 X36.205 Y8.290 E36.27895
G1 X36.635 Y8.682 E36.43156
G1 F1800
G1 X37.025 Y9.087 E36.58325
G1 X37.396 Y9.550 E36.74346
G1 X37.783 Y10.128 E36.93117
G1 X38.079 Y10.661 E37.09568
G1 X38.297 Y11.136 E37.23684
G1 X38.532 Y11.796 E37.42604
G1 X38.691 Y12.392 E37.59238
G1 X38.804 Y13.006 E37.76093
G1 X38.894 Y14.101 E38.05750
G1 X38.934 Y15.200 E38.35435
G1 X38.926 Y16.303 E38.65218
G1 X38.895 Y16.970 E38.83233
G1 X38.822 Y17.940 E39.09490
G1 X38.684 Y19.054 E39.39789
G1 X38.553 Y19.704 E39.57710
G1 X38.396 Y20.264 E39.73390
G1 X38.228 Y20.704 E39.86108
G1 X37.979 Y21.203 E40.01172
G1 X37.704 Y21.640 E40.15105
G1 X37.485 Y21.923 E40.24762
G1 X37.246 Y22.197 E40.34578
G1 X36.825 Y22.590 E40.50126
G1 X36.366 Y22.932 E40.65565
G1 X35.950 Y23.196 E40.78866
G1 X35.347 Y23.500 E40.97094
G1 X35.058 Y23.619 E41.05538
G1 X34.415 Y23.864 E41.24110
G1 X33.831 Y24.044 E41.40615
G1 X33.055 Y24.250 E41.62272
G1 X31.951 Y24.478 E41.92711
G1 X31.226 Y24.568 E42.12443
G1 F1800
G1 X30.372 Y24.708 E42.35177
G1 F1800
G1 X30.119 Y24.773 E42.42316
G1 F1800
G1 X29.929 Y24.829 E42.47910
G1 F1800
G1 X29.768 Y24.887 E42.52941
G1 F1800
G1 X29.654 Y24.932 E42.56650
G1 F1800
G1 X29.538 Y24.984 E42.60650
G1 F1800
G1 X29.419 Y25.044 E42.65015
G1 F1800
G1 X29.299 Y25.104 E42.69563
G1 F1800
G1 X29.180 Y25.164 E42.74292
G1 F1800
G1 X29.176 Y25.166 E42.74454
G1 E42.24454 F2400.00000
G92 E0
G1 X33.632 Y6.549 F1800.000
G1 E0.50000 F2400.00000
G1 F1800
G1 X33.464 Y6.319 E0.58860
G1 F1800
G1 X33.282 Y6.066 E0.68165
G1 F1800
G1 X33.116 Y5.851 E0.75906
G1 F1800
G1 X32.963 Y5.653 E0.82799
G1 F1800
G1 X32.658 Y5.265 E0.96008
G1 F1800
G1 X32.183 Y4.698 E1.15228
G1 X31.846 Y4.347 E1.27877
G1 X31.581 Y4.098 E1.37316
G1 X31.296 Y3.872 E1.46782
G1 F1800
G1 X30.994 Y3.670 E1.56489
G1 X30.552 Y3.440 E1.69793
G1 X30.116 Y3.262 E1.82377
G1 X29.583 Y3.112 E1.97171
G1 X29.069 Y3.039 E2.11039
G1 X28.851 Y3.029 E2.16850
G1 X28.628 Y3.030 E2.22828
G1 X28.263 Y3.072 E2.32620
G1 X28.016 Y3.118 E2.39334
G1 X27.626 Y3.236 E2.50237
G1 X27.175 Y3.448 E2.63539
G1 X26.955 Y3.583 E2.70432
G1 X26.677 Y3.784 E2.79603
G1 X26.324 Y4.103 E2.92322
G1 X25.745 Y4.757 E3.15651
G1 F1800
G1 X25.574 Y4.945 E3.22656
G1 F1800
G1 X25.454 Y5.070 E3.27593
G1 F1800
G1 X25.329 Y5.191 E3.32711
G1 F1800
G1 X25.223 Y5.283 E3.37031
G1 F1800
G1 X25.116 Y5.376 E3.41514
G1 F1800
G1 X25.058 Y5.422 E3.43922
G1 F1800
G1 X24.988 Y5.479 E3.46983
G1 F1800
G1 X24.911 Y5.541 E3.50385
G1 F1800
G1 X24.818 Y5.614 E3.54632
G1 E3.04632 F2400.00000
G92 E0
; Filament-specific end gcode 
;END gcode for filament

M104 S0 ; turn off temperature
G28 X0  ; home X axis
M84     ; disable motors

M140 S0 ; set bed temperature
; filament used = 45.3mm (0.3cm3)
; total filament cost = 0.0

; avoid_crossing_perimeters = 0
; bed_shape = 0x0,100x0,100x100,0x100
; bed_temperature = 0
; before_layer_gcode = 
; between_objects_gcode = 
; bridge_acceleration = 0
; bridge_fan_speed = 100
; brim_connections_width = 0
; brim_width = 0
; complete_objects = 0
; cooling = 1
; default_acceleration = 0
; disable_fan_first_layers = 3
; duplicate_distance = 6
; end_filament_gcode = "; Filament-specific end gcode \n;END gcode for filament\n"
; end_gcode = M104 S0 ; turn off temperature\nG28 X0  ; home X axis\nM84     ; disable motors\n
; extruder_clearance_height = 20
; extruder_clearance_radius = 20
; extruder_offset = 0x0
; extrusion_axis = E
; extrusion_multiplier = 1
; fan_always_on = 0
; fan_below_layer_time = 60
; filament_colour = #FFFFFF
; filament_cost = 0
; filament_density = 0
; filament_diameter = 3
; filament_max_volumetric_speed = 0
; filament_notes = ""
; first_layer_acceleration = 0
; first_layer_bed_temperature = 0
; first_layer_extrusion_width = 200%
; first_layer_speed = 30
; first_layer_temperature = 5
; gcode_arcs = 0
; gcode_comments = 0
; gcode_flavor = reprap
; has_heatbed = 1
; infill_acceleration = 0
; infill_first = 0
; interior_brim_width = 0
; layer_gcode = 
; max_fan_speed = 100
; max_layer_height = 1
; max_print_speed = 80
; max_volumetric_speed = 0
; min_fan_speed = 35
; min_layer_height = 0.15
; min_print_speed = 10
; min_skirt_length = 0
; notes = 
; nozzle_diameter = 1
; only_retract_when_crossing_perimeters = 1
; ooze_prevention = 0
; output_filename_format = [input_filename_base].gcode
; perimeter_acceleration = 0
; post_process = 
; pressure_advance = 0
; printer_notes = 
; resolution = 0
; retract_before_travel = 2
; retract_layer_change = 0
; retract_length = 0.5
; retract_length_toolchange = 10
; retract_lift = 0
; retract_lift_above = 0
; retract_lift_below = 0
; retract_restart_extra = 0
; retract_restart_extra_toolchange = 0
; retract_speed = 40
; skirt_distance = 6
; skirt_height = 1
; skirts = 0
; slowdown_below_layer_time = 5
; spiral_vase = 0
; standby_temperature_delta = -5
; start_filament_gcode = "; Filament gcode\n"
; start_gcode = G28 ; home all axes\nG1 E1.6 F30 ; lift nozzle\n
; temperature = 0
; threads = 12
; toolchange_gcode = 
; travel_speed = 30
; use_firmware_retraction = 0
; use_relative_e_distances = 0
; use_set_and_wait_bed = 0
; use_set_and_wait_extruder = 0
; use_volumetric_e = 0
; vibration_limit = 0
; wipe = 0
; z_offset = 0
; z_steps_per_mm = 0
; adaptive_slicing = 0
; adaptive_slicing_quality = 75%
; dont_support_bridges = 1
; extrusion_width = 0
; first_layer_height = 1
; infill_only_where_needed = 0
; interface_shells = 0
; layer_height = 0.9
; match_horizontal_surfaces = 0
; raft_layers = 0
; regions_overlap = 0
; seam_position = aligned
; sequential_print_priority = 0
; support_material = 0
; support_material_angle = 0
; support_material_buildplate_only = 0
; support_material_contact_distance = 0.2
; support_material_enforce_layers = 0
; support_material_extruder = 1
; support_material_extrusion_width = 0
; support_material_interface_extruder = 1
; support_material_interface_extrusion_width = 0
; support_material_interface_layers = 3
; support_material_interface_spacing = 0
; support_material_interface_speed = 100%
; support_material_max_layers = 0
; support_material_pattern = pillars
; support_material_spacing = 2.5
; support_material_speed = 60
; support_material_threshold = 60%
; xy_size_compensation = 0
; bottom_infill_pattern = rectilinear
; bottom_solid_layers = 0
; bridge_flow_ratio = 1
; bridge_speed = 60
; external_perimeter_extrusion_width = 0
; external_perimeter_speed = 50%
; external_perimeters_first = 0
; extra_perimeters = 0
; fill_angle = 45
; fill_density = 0%
; fill_gaps = 1
; fill_pattern = stars
; gap_fill_speed = 20
; infill_every_layers = 1
; infill_extruder = 1
; infill_extrusion_width = 0
; infill_overlap = 55%
; infill_speed = 80
; overhangs = 1
; perimeter_extruder = 1
; perimeter_extrusion_width = 0
; perimeter_speed = 30
; perimeters = 1
; small_perimeter_speed = 15
; solid_infill_below_area = 70
; solid_infill_every_layers = 0
; solid_infill_extruder = 1
; solid_infill_extrusion_width = 0
; solid_infill_speed = 20
; thin_walls = 1
; top_infill_extrusion_width = 0
; top_infill_pattern = rectilinear
; top_solid_infill_speed = 15
; top_solid_layers = 0
