; generated by Slic3r 1.3.0 on 2022-02-12 at 17:42:09

; external perimeters extrusion width = 1.10mm (12.24mm^3/s)
; perimeters extrusion width = 1.07mm (23.56mm^3/s)
; infill extrusion width = 1.07mm (62.83mm^3/s)
; solid infill extrusion width = 1.07mm (15.71mm^3/s)
; top infill extrusion width = 1.07mm (11.78mm^3/s)

M107
M104 S5 ; set temperature
G28 ; home all axes
G1 E1.6 F30 ; lift nozzle

; Filament gcode

M109 S5 ; set temperature and wait for it to be reached
G21 ; set units to millimeters
G90 ; use absolute coordinates
M82 ; use absolute distances for extrusion
G92 E0
G1 Z1.000 F1800.000
G1 E-0.60000 F2400.00000
G92 E0
G1 X3.816 Y24.584 F1800.000
G1 E0.60000 F2400.00000
G1 F1800
G1 X3.908 Y24.567 E0.62572
G1 F1800
G1 X4.000 Y24.551 E0.65017
G1 F1800
G1 X4.092 Y24.535 E0.67334
G1 F1800
G1 X4.184 Y24.518 E0.69525
G1 F1800
G1 X4.324 Y24.520 E0.72622
G1 F1800
G1 X4.498 Y24.531 E0.76260
G1 F1800
G1 X4.672 Y24.543 E0.79691
G1 F1800
G1 X4.906 Y24.583 E0.84081
G1 F1800
G1 X5.223 Y24.632 E0.89719
G1 X5.509 Y24.642 E0.94755
G1 X6.056 Y24.569 E1.04450
G1 F1800
G1 X6.305 Y24.498 E1.09211
G1 X6.682 Y24.356 E1.16629
G1 X6.932 Y24.200 E1.22050
G1 X7.122 Y24.002 E1.27106
G1 X7.251 Y23.764 E1.32091
G1 X7.312 Y23.481 E1.37408
G1 X7.313 Y23.359 E1.39651
G1 X7.265 Y23.133 E1.43915
G1 X7.103 Y22.796 E1.50786
G1 X6.719 Y22.323 E1.61996
G1 F1800
G1 X6.459 Y22.053 E1.68481
G1 F1800
G1 X6.149 Y21.736 E1.75713
G1 F1800
G1 X5.617 Y21.252 E1.86739
G1 F1800
G1 X5.138 Y20.848 E1.95710
G1 F1800
G1 X4.990 Y20.697 E1.99013
G1 F1800
G1 X4.941 Y20.614 E2.00631
G1 F1800
G1 X4.893 Y20.531 E2.02378
G1 F1800
G1 X4.844 Y20.448 E2.04254
G1 F1800
G1 X4.795 Y20.365 E2.06259
G1 F1800
G1 X4.746 Y20.283 E2.08394
G1 F1800
G1 X4.722 Y20.241 E2.09526
G1 X4.664 Y20.249 E2.10899
G1 F1800
G1 X4.595 Y20.259 E2.12485
G1 F1800
G1 X4.480 Y20.258 E2.14951
G1 F1800
G1 X4.364 Y20.257 E2.17266
G1 F1800
G1 X4.249 Y20.256 E2.19430
G1 F1800
G1 X4.134 Y20.255 E2.21442
G1 F1800
G1 X4.008 Y20.241 E2.23490
G1 F1800
G1 X3.458 Y20.066 E2.32229
G1 X2.854 Y19.946 E2.41544
G1 F1800
G1 X2.699 Y19.959 E2.44009
G1 X2.252 Y20.095 E2.51423
G1 X1.886 Y20.297 E2.58055
G1 X1.750 Y20.415 E2.60907
G1 X1.532 Y20.672 E2.66253
G1 X1.374 Y20.938 E2.71153
G1 X1.303 Y21.149 E2.74693
G1 X1.281 Y21.329 E2.77569
G1 X1.281 Y21.531 E2.80772
G1 X1.313 Y21.834 E2.85597
G1 X1.375 Y22.029 E2.88843
G1 X1.481 Y22.227 E2.92409
G1 X1.775 Y22.628 E3.00293
G1 X1.989 Y22.874 E3.05455
G1 X2.632 Y23.472 E3.19392
G1 F1800
G1 X2.815 Y23.628 E3.23389
G1 X3.211 Y23.896 E3.31356
G1 F1800
G1 X3.394 Y24.042 E3.35517
G1 F1800
G1 X3.473 Y24.129 E3.37725
G1 F1800
G1 X3.539 Y24.208 E3.39804
G1 F1800
G1 X3.604 Y24.288 E3.42012
G1 F1800
G1 X3.661 Y24.361 E3.44105
G1 F1800
G1 X3.709 Y24.430 E3.46090
G1 F1800
G1 X3.751 Y24.491 E3.47976
G1 F1800
G1 X3.794 Y24.553 E3.49952
G1 F1800
G1 X3.816 Y24.584 E3.50985
G1 X3.775 Y24.814 E3.57429
G1 F1800
G1 X3.734 Y25.045 E3.63585
G1 F1800
G1 X3.692 Y25.275 E3.69453
G1 F1800
G1 X3.696 Y26.189 E3.91218
G1 X3.734 Y26.995 E4.10444
G1 F1800
G1 X3.832 Y27.499 E4.23089
G1 X4.013 Y28.100 E4.38582
G1 F1800
G1 X4.211 Y28.602 E4.51410
G1 X4.602 Y29.378 E4.72110
G1 X4.935 Y29.846 E4.85778
G1 X5.437 Y30.451 E5.04482
G1 F1800
G1 X5.776 Y30.807 E5.16657
G1 X6.224 Y31.182 E5.31127
G1 F1800
G1 X6.783 Y31.602 E5.49051
G1 X7.409 Y31.964 E5.67580
G1 F1800
G1 X8.518 Y32.589 E5.98930
G1 F1800
G1 X9.025 Y32.840 E6.13457
G1 X10.096 Y33.279 E6.43166
G1 X11.293 Y33.638 E6.75237
G1 X11.854 Y33.749 E6.89909
G1 F1800
G1 X13.019 Y33.948 E7.19348
G1 X13.681 Y33.978 E7.35844
G1 X14.900 Y33.934 E7.66241
G1 F1800
G1 X15.195 Y33.896 E7.73867
G1 F1800
G1 X15.302 Y33.863 E7.76832
G1 X15.383 Y33.814 E7.79340
G1 F1800
G1 X15.544 Y33.714 E7.84621
G1 F1800
G1 X15.706 Y33.614 E7.90170
G1 F1800
G1 X15.867 Y33.515 E7.95987
G1 F1800
G1 X15.987 Y33.431 E8.00669
G1 F1800
G1 X16.059 Y33.367 E8.03886
G1 F1800
G1 X16.126 Y33.307 E8.06992
G1 F1800
G1 X16.159 Y33.277 E8.08601
G1 X16.123 Y33.217 E8.11121
G1 F1800
G1 X16.087 Y33.156 E8.13548
G1 F1800
G1 X16.051 Y33.096 E8.15882
G1 F1800
G1 X16.015 Y33.038 E8.18075
G1 F1800
G1 X15.967 Y32.974 E8.20531
G1 F1800
G1 X15.909 Y32.903 E8.23225
G1 F1800
G1 X15.850 Y32.833 E8.25791
G1 F1800
G1 X15.791 Y32.762 E8.28229
G1 F1800
G1 X15.733 Y32.692 E8.30540
G1 F1800
G1 X15.674 Y32.621 E8.32723
G1 F1800
G1 X15.616 Y32.551 E8.34779
G1 F1800
G1 X15.545 Y32.479 E8.36900
G1 F1800
G1 X15.321 Y32.339 E8.42118
G1 F1800
G1 X15.097 Y32.200 E8.46977
G1 F1800
G1 X14.409 Y31.914 E8.59670
G1 X13.943 Y31.695 E8.68434
G1 X13.485 Y31.449 E8.77305
G1 F1800
G1 X12.741 Y30.985 E8.92911
G1 X12.318 Y30.678 E9.02216
G1 X11.892 Y30.331 E9.12009
G1 X11.541 Y29.971 E9.20949
G1 F1800
G1 X11.424 Y29.783 E9.25075
G1 X11.358 Y29.587 E9.28954
G1 X11.349 Y29.395 E9.32543
G1 X11.372 Y29.225 E9.35745
G1 F1800
G1 X11.444 Y28.926 E9.41168
G1 X11.687 Y28.357 E9.52069
G1 X12.542 Y26.757 E9.84078
G1 X12.929 Y26.133 E9.97020
G1 F1800
G1 X13.584 Y25.218 E10.17789
G1 X14.183 Y24.475 E10.35388
G1 X14.765 Y23.843 E10.51225
G1 X15.151 Y23.525 E10.60439
G1 X15.392 Y23.377 E10.65661
G1 X15.707 Y23.219 E10.72162
G1 X15.952 Y23.135 E10.76938
G1 X16.297 Y23.055 E10.83469
G1 X16.826 Y23.021 E10.93237
G1 X17.478 Y23.092 E11.05338
G1 X18.136 Y23.238 E11.17760
G1 X18.520 Y23.352 E11.25146
G1 X19.357 Y23.678 E11.41721
G1 X22.836 Y25.343 E12.12836
G1 X26.749 Y27.107 E12.91992
G1 X27.190 Y27.358 E13.01357
G1 X27.535 Y27.600 E13.09114
G1 X27.855 Y27.897 E13.17173
G1 X27.931 Y28.004 E13.19581
G1 X28.034 Y28.239 E13.24331
G1 X28.060 Y28.464 E13.28492
G1 X28.040 Y28.627 E13.31518
G1 X27.973 Y28.790 E13.34766
G1 X27.874 Y28.919 E13.37777
G1 F1800
G1 X27.716 Y29.075 E13.41674
G1 F1800
G1 X27.226 Y29.497 E13.52482
G1 F1800
G1 X26.711 Y29.925 E13.62892
G1 F1800
G1 X26.430 Y30.139 E13.68082
G1 X26.400 Y30.187 E13.68915
G1 F1800
G1 X26.341 Y30.283 E13.70738
G1 F1800
G1 X26.281 Y30.380 E13.72714
G1 F1800
G1 X26.222 Y30.476 E13.74843
G1 F1800
G1 X26.162 Y30.573 E13.77126
G1 F1800
G1 X26.103 Y30.669 E13.79562
G1 F1800
G1 X26.043 Y30.766 E13.82152
G1 F1800
G1 X25.984 Y30.862 E13.84895
G1 F1800
G1 X25.924 Y30.959 E13.87791
G1 F1800
G1 X25.865 Y31.055 E13.90841
G1 F1800
G1 X25.845 Y31.123 E13.92829
G1 F1800
G1 X25.827 Y31.191 E13.94901
G1 F1800
G1 X25.810 Y31.259 E13.97059
G1 F1800
G1 X25.794 Y31.327 E13.99311
G1 F1800
G1 X25.777 Y31.394 E14.01656
G1 X25.926 Y31.454 E14.07034
G1 F1800
G1 X26.025 Y31.495 E14.10476
G1 F1800
G1 X26.124 Y31.535 E14.13774
G1 F1800
G1 X26.173 Y31.555 E14.15351
G1 X26.287 Y31.559 E14.18721
G1 F1800
G1 X26.515 Y31.567 E14.25149
G1 F1800
G1 X26.744 Y31.576 E14.31263
G1 F1800
G1 X26.972 Y31.584 E14.37061
G1 F1800
G1 X27.086 Y31.588 E14.39803
G1 X27.991 Y31.405 E14.61986
G1 X29.075 Y31.131 E14.88843
G1 F1800
G1 X29.340 Y31.068 E14.95105
G1 F1800
G1 X29.774 Y30.970 E15.05672
G1 X30.613 Y30.673 E15.26843
G1 F1800
G1 X31.583 Y30.348 E15.50372
G1 X32.422 Y30.016 E15.71121
G1 F1800
G1 X33.327 Y29.623 E15.94793
G1 X35.439 Y28.584 E16.51284
G1 F1800
G1 X35.917 Y28.337 E16.64723
G1 X37.965 Y27.030 E17.25501
G1 F1800
G1 X38.500 Y26.676 E17.42252
G1 F1800
G1 X39.007 Y26.303 E17.59152
G1 X39.595 Y25.799 E17.79953
G1 X39.797 Y25.577 E17.88037
G1 F1800
G1 X40.744 Y24.682 E18.21788
G1 X41.212 Y24.190 E18.39385
G1 X42.294 Y22.843 E18.84141
G1 X42.801 Y22.114 E19.07148
G1 F1800
G1 X43.389 Y21.210 E19.34013
G1 X44.018 Y20.102 E19.65773
G1 X44.263 Y19.506 E19.81820
G1 X44.716 Y18.532 E20.08584
G1 X45.050 Y17.518 E20.35196
G1 F1800
G1 X45.256 Y16.940 E20.51103
G1 F1800
G1 X45.294 Y16.658 E20.58698
G1 F1800
G1 X45.317 Y16.381 E20.65916
G1 F1800
G1 X45.463 Y15.598 E20.85819
G1 X45.505 Y15.220 E20.95299
G1 X45.526 Y14.856 E21.04402
G1 X45.524 Y14.211 E21.20507
G1 F1800
G1 X45.497 Y13.538 E21.36698
G1 X45.368 Y12.781 E21.55137
G1 F1800
G1 X45.121 Y11.664 E21.81721
G1 F1800
G1 X45.066 Y11.423 E21.87693
G1 X44.919 Y11.112 E21.95989
G1 F1800
G1 X44.737 Y10.625 E22.08165
G1 F1800
G1 X44.626 Y10.318 E22.16254
G1 X44.456 Y9.980 E22.25618
G1 X43.990 Y9.137 E22.49478
G1 X43.644 Y8.563 E22.66068
G1 X42.452 Y6.901 E23.16708
G1 X41.970 Y6.362 E23.34618
G1 X40.985 Y5.387 E23.68925
G1 X40.407 Y4.882 E23.87931
G1 X39.241 Y4.044 E24.23470
G1 X38.682 Y3.667 E24.40176
G1 X37.256 Y2.909 E24.80169
G1 F1800
G1 X37.129 Y2.791 E24.84597
G1 F1800
G1 X37.002 Y2.674 E24.89258
G1 F1800
G1 X36.875 Y2.556 E24.94152
G1 F1800
G1 X36.748 Y2.438 E24.99281
G1 F1800
G1 X36.621 Y2.321 E25.04642
G1 X36.994 Y1.912 E25.21790
G1 F1800
G1 X37.242 Y1.639 E25.32715
G1 F1800
G1 X37.490 Y1.367 E25.43138
G1 F1800
G1 X37.739 Y1.094 E25.53057
G1 E24.93057 F2400.00000
G92 E0
G1 X35.560 Y2.068 F1800.000
G1 E0.60000 F2400.00000
G1 F1800
G1 X35.399 Y2.033 E0.64024
G1 F1800
G1 X35.188 Y1.989 E0.69105
G1 F1800
G1 X35.018 Y1.959 E0.72958
G1 F1800
G1 X34.818 Y1.926 E0.77296
G1 F1800
G1 X34.583 Y1.898 E0.82154
G1 F1800
G1 X34.129 Y1.864 E0.91131
G1 F1800
G1 X12.158 Y1.856 E5.03168
G1 X11.900 Y1.878 E5.08013
G1 F1800
G1 X11.669 Y1.917 E5.12628
G1 F1800
G1 X10.534 Y2.234 E5.37309
G1 F1800
G1 X9.399 Y2.551 E5.63632
G1 X10.704 Y2.500 F1800.000
G1 F1800
G1 X10.773 Y2.392 E5.66865
G1 F1800
G1 X10.831 Y2.287 E5.70002
G1 F1800
G1 X10.889 Y2.182 E5.73268
G1 X10.105 Y1.366 E6.04050
G1 F1800
G1 X9.844 Y1.094 E6.13824
G1 X10.704 Y2.500 F1800.000
G1 F1800
G1 X10.222 Y3.089 E6.32214
G1 X9.672 Y4.070 E6.59387
G1 X9.514 Y4.404 E6.68316
G1 X9.258 Y5.104 E6.86329
G1 X9.061 Y5.862 E7.05262
G1 X8.935 Y6.643 E7.24383
G1 X8.897 Y7.514 E7.45451
G1 X8.910 Y9.198 E7.86134
G1 X9.008 Y10.382 E8.14846
G1 F1800
G1 X9.074 Y11.103 E8.33157
G1 X9.221 Y11.925 E8.54285
G1 X9.352 Y12.492 E8.68979
G1 X9.463 Y12.782 E8.76833
G1 F1800
G1 X9.620 Y13.206 E8.87902
G1 F1800
G1 X9.663 Y13.385 E8.92520
G1 F1800
G1 X9.701 Y13.583 E8.97818
G1 F1800
G1 X9.739 Y13.781 E9.03333
G1 F1800
G1 X9.757 Y13.913 E9.07091
G1 F1800
G1 X9.769 Y14.050 E9.11168
G1 F1800
G1 X9.781 Y14.186 E9.15428
G1 F1800
G1 X9.793 Y14.323 E9.19871
G1 F1800
G1 X9.805 Y14.460 E9.24496
G1 X9.761 Y14.480 E9.26122
G1 F1800
G1 X9.673 Y14.521 E9.29246
G1 F1800
G1 X9.585 Y14.561 E9.32243
G1 F1800
G1 X9.497 Y14.601 E9.35112
G1 F1800
G1 X9.350 Y14.693 E9.40049
G1 F1800
G1 X9.143 Y14.838 E9.46889
G1 F1800
G1 X8.935 Y14.982 E9.53405
G1 F1800
G1 X8.832 Y15.054 E9.56509
G1 X7.299 Y16.642 E10.10793
G1 X6.331 Y17.835 E10.48598
G1 X5.389 Y19.136 E10.88105
G1 X5.168 Y19.476 E10.98080
G1 F1800
G1 X4.722 Y20.241 E11.18930
G1 E10.58930 F2400.00000
G92 E0
G1 X11.181 Y16.603 F1800.000
G1 E0.60000 F2400.00000
G1 F1800
G1 X11.395 Y17.008 E0.71238
G1 F1800
G1 X11.586 Y17.351 E0.80425
G1 F1800
G1 X11.776 Y17.694 E0.89069
G1 F1800
G1 X11.966 Y18.037 E0.97168
G1 F1800
G1 X12.156 Y18.380 E1.04723
G1 F1800
G1 X12.346 Y18.723 E1.11735
G1 F1800
G1 X12.536 Y19.067 E1.18203
G1 F1800
G1 X12.726 Y19.410 E1.24126
G1 F1800
G1 X12.836 Y19.613 E1.27293
G1 F1800
G1 X12.844 Y19.686 E1.28236
G1 F1800
G1 X12.838 Y19.711 E1.28536
G1 E0.68536 F2400.00000
G92 E0
G1 X11.181 Y16.603 F1800.000
G1 E0.60000 F2400.00000
G1 F1800
G1 X10.947 Y16.167 E0.72667
G1 F1800
G1 X10.655 Y15.596 E0.89710
G1 F1800
G1 X10.459 Y15.224 E1.01265
G1 X10.388 Y15.137 E1.04357
G1 F1800
G1 X10.245 Y14.963 E1.10854
G1 F1800
G1 X10.102 Y14.789 E1.17664
G1 F1800
G1 X9.959 Y14.616 E1.24789
G1 F1800
G1 X9.854 Y14.501 E1.29918
G1 F1800
G1 X9.805 Y14.460 E1.32070
G1 E0.72070 F2400.00000
G92 E0
G1 X17.718 Y33.182 F1800.000
G1 E0.60000 F2400.00000
G1 F1800
G1 X17.769 Y33.177 E0.61142
G1 F1800
G1 X17.955 Y33.168 E0.65104
G1 F1800
G1 X18.182 Y33.166 E0.69665
G1 F1800
G1 X18.560 Y33.202 E0.76849
G1 F1800
G1 X18.981 Y33.239 E0.84393
G1 F1800
G1 X19.282 Y33.259 E0.89457
G1 X20.096 Y33.262 E1.03139
G1 X20.422 Y33.243 E1.08634
G1 X20.773 Y33.187 E1.14597
G1 X21.543 Y32.935 E1.28206
G1 X22.806 Y32.386 E1.51350
G1 F1800
G1 X23.137 Y32.268 E1.57627
G1 F1800
G1 X23.358 Y32.207 E1.61983
G1 E1.01983 F2400.00000
G92 E0
G1 X17.070 Y24.982 F1800.000
G1 E0.60000 F2400.00000
G1 F1800
G1 X16.942 Y25.058 E0.60501
G1 F1800
G1 X16.797 Y25.152 E0.61265
G1 F1800
G1 X16.551 Y25.341 E0.62943
G1 F1800
G1 X16.208 Y25.642 E0.66012
G1 F1800
G1 X15.665 Y26.221 E0.72331
G1 X15.087 Y26.916 E0.79529
G1 F1800
G1 X14.536 Y27.669 E0.87721
G1 X13.663 Y28.982 E1.01566
G1 F1800
G1 X13.583 Y29.112 E1.02790
G1 F1800
G1 X13.538 Y29.197 E1.03446
G1 F1800
G1 X13.507 Y29.258 E1.03852
G1 F1800
G1 X13.476 Y29.318 E1.04164
G1 F1800
G1 X13.388 Y29.538 E1.04926
G1 E0.44926 F2400.00000
G92 E0
; Filament-specific end gcode 
;END gcode for filament

M104 S0 ; turn off temperature
G28 X0  ; home X axis
M84     ; disable motors

M140 S0 ; set bed temperature
; filament used = 38.4mm (0.3cm3)
; total filament cost = 0.0

; avoid_crossing_perimeters = 0
; bed_shape = 0x0,100x0,100x100,0x100
; bed_temperature = 0
; before_layer_gcode = 
; between_objects_gcode = 
; bridge_acceleration = 0
; bridge_fan_speed = 100
; brim_connections_width = 0
; brim_width = 0
; complete_objects = 0
; cooling = 1
; default_acceleration = 0
; disable_fan_first_layers = 3
; duplicate_distance = 6
; end_filament_gcode = "; Filament-specific end gcode \n;END gcode for filament\n"
; end_gcode = M104 S0 ; turn off temperature\nG28 X0  ; home X axis\nM84     ; disable motors\n
; extruder_clearance_height = 20
; extruder_clearance_radius = 20
; extruder_offset = 0x0
; extrusion_axis = E
; extrusion_multiplier = 1
; fan_always_on = 0
; fan_below_layer_time = 60
; filament_colour = #FFFFFF
; filament_cost = 0
; filament_density = 0
; filament_diameter = 3
; filament_max_volumetric_speed = 0
; filament_notes = ""
; first_layer_acceleration = 0
; first_layer_bed_temperature = 0
; first_layer_extrusion_width = 200%
; first_layer_speed = 30
; first_layer_temperature = 5
; gcode_arcs = 0
; gcode_comments = 0
; gcode_flavor = reprap
; has_heatbed = 1
; infill_acceleration = 0
; infill_first = 0
; interior_brim_width = 0
; layer_gcode = 
; max_fan_speed = 100
; max_layer_height = 1
; max_print_speed = 80
; max_volumetric_speed = 0
; min_fan_speed = 35
; min_layer_height = 0.15
; min_print_speed = 10
; min_skirt_length = 0
; notes = 
; nozzle_diameter = 1
; only_retract_when_crossing_perimeters = 1
; ooze_prevention = 0
; output_filename_format = [input_filename_base].gcode
; perimeter_acceleration = 0
; post_process = 
; pressure_advance = 0
; printer_notes = 
; resolution = 0
; retract_before_travel = 2
; retract_layer_change = 0
; retract_length = 0.6
; retract_length_toolchange = 10
; retract_lift = 0
; retract_lift_above = 0
; retract_lift_below = 0
; retract_restart_extra = 0
; retract_restart_extra_toolchange = 0
; retract_speed = 40
; skirt_distance = 6
; skirt_height = 1
; skirts = 0
; slowdown_below_layer_time = 5
; spiral_vase = 0
; standby_temperature_delta = -5
; start_filament_gcode = "; Filament gcode\n"
; start_gcode = G28 ; home all axes\nG1 E1.6 F30 ; lift nozzle\n
; temperature = 0
; threads = 12
; toolchange_gcode = 
; travel_speed = 30
; use_firmware_retraction = 0
; use_relative_e_distances = 0
; use_set_and_wait_bed = 0
; use_set_and_wait_extruder = 0
; use_volumetric_e = 0
; vibration_limit = 0
; wipe = 0
; z_offset = 0
; z_steps_per_mm = 0
; adaptive_slicing = 0
; adaptive_slicing_quality = 75%
; dont_support_bridges = 1
; extrusion_width = 0
; first_layer_height = 1
; infill_only_where_needed = 0
; interface_shells = 0
; layer_height = 0.9
; match_horizontal_surfaces = 0
; raft_layers = 0
; regions_overlap = 0
; seam_position = aligned
; sequential_print_priority = 0
; support_material = 0
; support_material_angle = 0
; support_material_buildplate_only = 0
; support_material_contact_distance = 0.2
; support_material_enforce_layers = 0
; support_material_extruder = 1
; support_material_extrusion_width = 0
; support_material_interface_extruder = 1
; support_material_interface_extrusion_width = 0
; support_material_interface_layers = 3
; support_material_interface_spacing = 0
; support_material_interface_speed = 100%
; support_material_max_layers = 0
; support_material_pattern = pillars
; support_material_spacing = 2.5
; support_material_speed = 60
; support_material_threshold = 60%
; xy_size_compensation = 0
