; generated by Slic3r 1.3.0 on 2022-02-12 at 18:20:59

; external perimeters extrusion width = 1.10mm (12.24mm^3/s)
; perimeters extrusion width = 1.07mm (23.56mm^3/s)
; infill extrusion width = 1.07mm (62.83mm^3/s)
; solid infill extrusion width = 1.07mm (15.71mm^3/s)
; top infill extrusion width = 1.07mm (11.78mm^3/s)

M107
M104 S5 ; set temperature
G28 ; home all axes
G1 E1.6 F30 ; lift nozzle

; Filament gcode

M109 S5 ; set temperature and wait for it to be reached
G21 ; set units to millimeters
G90 ; use absolute coordinates
M82 ; use absolute distances for extrusion
G92 E0
G1 Z1.000 F1800.000
G1 E-0.50000 F2400.00000
G92 E0
G1 X8.334 Y8.625 F1800.000
G1 E0.50000 F2400.00000
G1 F1800
G1 X11.294 Y7.020 E1.35056
G1 X13.048 Y6.267 E1.83260
G1 X15.903 Y5.340 E2.59080
G1 X15.456 Y4.154 E2.91095
G1 X15.610 Y3.911 E2.98374
G1 X15.888 Y3.306 E3.15173
G1 X16.175 Y2.875 E3.28260
G1 X16.526 Y2.494 E3.41348
G1 X16.932 Y2.172 E3.54435
G1 X17.384 Y1.918 E3.67523
G1 X17.870 Y1.738 E3.80610
G1 X18.378 Y1.636 E3.93698
G1 X18.895 Y1.615 E4.06785
G1 X19.410 Y1.675 E4.19873
G1 X20.531 Y1.989 E4.49278
G1 X20.615 Y2.147 E4.53815
G1 X22.962 Y3.406 E5.21072
G1 X24.915 Y4.658 E5.79680
G1 X26.766 Y6.058 E6.38289
G1 X28.503 Y7.597 E6.96898
G1 X30.437 Y9.599 E7.67204
G1 X33.521 Y9.599 E8.45110
G1 X33.848 Y9.518 E8.53602
G1 X34.125 Y9.515 E8.60607
G1 X34.391 Y9.594 E8.67611
G1 X35.084 Y9.990 E8.87777
G1 X35.833 Y9.543 E9.09794
G1 X36.023 Y9.470 E9.14934
G1 X36.222 Y9.430 E9.20073
G1 X36.426 Y9.424 E9.25213
G1 X36.627 Y9.452 E9.30353
G1 X36.821 Y9.514 E9.35493
G1 X37.002 Y9.608 E9.40633
G1 X37.164 Y9.730 E9.45773
G1 X37.303 Y9.879 E9.50912
G1 X37.415 Y10.049 E9.56052
G1 X37.497 Y10.235 E9.61192
G1 X37.756 Y11.273 E9.88202
G1 X39.123 Y11.273 E10.22724
G1 X40.118 Y11.476 E10.48381
G1 X41.084 Y11.846 E10.74498
G1 X41.975 Y12.370 E11.00615
G1 X42.768 Y13.033 E11.26732
G1 X43.914 Y14.369 E11.71186
G1 X43.988 Y14.347 E11.73126
G1 X44.425 Y14.989 E11.92742
G1 X43.595 Y16.067 E12.27112
G1 X43.740 Y16.290 E12.33830
G1 X42.872 Y16.834 E12.59711
G1 X43.528 Y18.896 E13.14378
G1 X42.512 Y18.531 E13.41660
G1 X39.987 Y19.232 E14.07833
G1 X37.768 Y19.632 E14.64798
G1 X35.521 Y19.826 E15.21764
G1 X33.108 Y19.810 E15.82705
G1 X32.689 Y19.902 E15.93539
G1 X32.317 Y20.050 E16.03661
G1 X31.975 Y20.259 E16.13783
G1 X31.661 Y20.528 E16.24225
G1 X29.092 Y23.781 E17.28932
G1 X26.567 Y26.599 E18.24493
G1 X23.871 Y29.250 E19.19998
G1 X23.349 Y29.699 E19.37395
G1 X22.802 Y30.031 E19.53545
G1 X22.209 Y30.269 E19.69695
G1 X21.584 Y30.406 E19.85845
G1 X20.946 Y30.440 E20.01995
G1 X19.890 Y30.320 E20.28832
G1 X19.174 Y30.752 E20.49951
G1 X18.788 Y30.910 E20.60481
G1 X18.382 Y31.004 E20.71010
G1 X17.967 Y31.035 E20.81540
G1 X17.551 Y30.999 E20.92069
G1 X17.146 Y30.899 E21.02599
G1 X16.762 Y30.738 E21.13128
G1 X16.408 Y30.518 E21.23658
G1 X16.093 Y30.245 E21.34187
G1 X15.484 Y29.523 E21.58049
G1 X13.561 Y29.473 E22.06632
G1 X12.182 Y29.231 E22.42003
G1 X10.853 Y28.789 E22.77374
G1 X9.604 Y28.156 E23.12745
G1 X8.461 Y27.347 E23.48116
G1 X7.450 Y26.378 E23.83487
G1 X4.992 Y23.204 E24.84894
G1 X4.570 Y27.820 E26.01988
G1 X4.656 Y29.970 E26.56322
G1 X4.746 Y30.564 E26.71492
G1 X4.742 Y31.029 E26.83243
G1 X4.665 Y31.488 E26.94994
G1 X4.516 Y31.928 E27.06745
G1 X4.299 Y32.340 E27.18496
G1 X4.020 Y32.712 E27.30246
G1 X3.654 Y33.065 E27.43094
G1 X3.502 Y33.192 E27.48099
G1 X3.372 Y33.268 E27.51896
G1 X3.231 Y33.320 E27.55692
G1 X3.083 Y33.349 E27.59488
G1 X2.933 Y33.352 E27.63284
G1 X2.784 Y33.331 E27.67080
G1 X2.641 Y33.285 E27.70877
G1 X2.508 Y33.215 E27.74673
G1 X2.388 Y33.124 E27.78469
G1 X2.285 Y33.015 E27.82265
G1 X2.202 Y32.890 E27.86061
G1 X2.141 Y32.752 E27.89857
G1 X2.104 Y32.607 E27.93654
G1 X2.091 Y32.457 E27.97450
G1 X2.104 Y32.307 E28.01246
G1 X2.346 Y31.371 E28.25672
G1 X1.373 Y30.761 E28.54695
G1 X1.563 Y30.313 E28.66994
G1 X1.903 Y29.045 E29.00153
G1 X2.272 Y27.989 E29.28403
G1 X2.737 Y27.284 E29.49732
G1 X3.161 Y26.318 E29.76381
G1 X4.037 Y22.761 E30.68928
G1 X4.740 Y22.878 E30.86922
G1 X4.185 Y22.162 E31.09822
G1 X4.327 Y21.585 E31.24830
G1 X4.479 Y21.407 E31.30750
G1 X4.609 Y21.297 E31.35046
G1 X4.755 Y21.210 E31.39341
G1 X4.913 Y21.147 E31.43637
G1 X5.812 Y20.950 E31.66882
G1 X6.091 Y19.372 E32.07345
G1 X6.167 Y18.329 E32.33765
G1 X5.611 Y14.712 E33.26212
G1 X5.337 Y11.213 E34.14855
G1 X5.322 Y7.734 E35.02728
G1 X5.348 Y7.538 E35.07705
G1 X5.401 Y7.362 E35.12371
G1 X5.481 Y7.195 E35.17037
G1 X5.587 Y7.044 E35.21703
G1 X5.716 Y6.911 E35.26369
G1 X6.285 Y6.484 E35.44348
G1 X6.310 Y6.207 E35.51394
G1 X7.084 Y6.041 E35.71399
G1 X8.259 Y8.153 E36.32429
G1 X8.310 Y8.477 E36.40708
G1 X8.850 Y6.755 F1800.000
G1 F1800
G1 X8.716 Y6.446 E36.41714
G1 X8.561 Y6.153 E36.42706
G1 X8.383 Y5.872 E36.43702
G1 X8.180 Y5.599 E36.44719
G1 F1800
G1 X8.051 Y5.451 E36.45082
G1 X7.091 Y4.888 F1800.000
G1 F1800
G1 X6.757 Y4.885 E36.45793
G1 F1800
G1 X6.268 Y4.953 E36.47312
G1 X5.918 Y5.080 E36.48458
G1 F1800
G1 X5.719 Y5.188 E36.48950
G1 E35.98950 F2400.00000
G92 E0
G1 X8.850 Y6.755 F1800.000
G1 E0.50000 F2400.00000
G1 F1800
G1 X8.961 Y7.074 E0.50710
G1 E0.00710 F2400.00000
G92 E0
G1 X45.410 Y12.895 F1800.000
G1 E0.50000 F2400.00000
G1 F1800
G1 X45.988 Y14.873 E0.65688
G1 X45.954 Y14.906 E0.66055
G1 F1800
G1 X45.884 Y14.972 E0.66682
G1 F1800
G1 X45.814 Y15.039 E0.67176
G1 F1800
G1 X45.745 Y15.105 E0.67537
G1 F1800
G1 X45.675 Y15.172 E0.67764
G1 F1800
G1 X45.640 Y15.205 E0.67811
G1 E0.17811 F2400.00000
G92 E0
G1 X44.468 Y18.323 F1800.000
G1 E0.50000 F2400.00000
G1 F1800
G1 X46.865 Y18.190 E1.10635
G1 X49.712 Y18.249 E1.82552
G1 X52.546 Y18.525 E2.54468
G1 X55.350 Y19.017 E3.26385
G1 X58.109 Y19.721 E3.98302
G1 X58.831 Y19.966 E4.17552
G1 X58.715 Y20.838 E4.39788
G1 X55.760 Y21.026 E5.14598
G1 X53.117 Y20.978 E5.81354
G1 X50.487 Y20.714 E6.48109
G1 X47.888 Y20.236 E7.14865
G1 X45.336 Y19.547 E7.81620
G1 X44.342 Y19.189 E8.08314
G1 X44.447 Y18.472 E8.26635
G1 E7.76635 F2400.00000
G92 E0
G1 X47.325 Y14.354 F1800.000
G1 E0.50000 F2400.00000
G1 F1800
G1 X47.277 Y13.426 E0.73456
G1 X49.363 Y13.016 E1.27153
G1 X51.816 Y12.754 E1.89446
G1 X54.281 Y12.707 E2.51739
G1 X56.742 Y12.876 E3.14031
G1 X58.185 Y13.103 E3.50940
G1 X58.164 Y14.040 E3.74607
G1 X54.841 Y14.409 E4.59066
G1 X51.739 Y14.545 E5.37494
G1 X48.635 Y14.472 E6.15922
G1 X47.475 Y14.367 E6.45333
G1 E5.95333 F2400.00000
G92 E0
; Filament-specific end gcode 
;END gcode for filament

M104 S0 ; turn off temperature
G28 X0  ; home X axis
M84     ; disable motors

M140 S0 ; set bed temperature
; filament used = 49.9mm (0.4cm3)
; total filament cost = 0.0

; avoid_crossing_perimeters = 0
; bed_shape = 0x0,100x0,100x100,0x100
; bed_temperature = 0
; before_layer_gcode = 
; between_objects_gcode = 
; bridge_acceleration = 0
; bridge_fan_speed = 100
; brim_connections_width = 0
; brim_width = 0
; complete_objects = 0
; cooling = 1
; default_acceleration = 0
; disable_fan_first_layers = 3
; duplicate_distance = 6
; end_filament_gcode = "; Filament-specific end gcode \n;END gcode for filament\n"
; end_gcode = M104 S0 ; turn off temperature\nG28 X0  ; home X axis\nM84     ; disable motors\n
; extruder_clearance_height = 20
; extruder_clearance_radius = 20
; extruder_offset = 0x0
; extrusion_axis = E
; extrusion_multiplier = 1
; fan_always_on = 0
; fan_below_layer_time = 60
; filament_colour = #FFFFFF
; filament_cost = 0
; filament_density = 0
; filament_diameter = 3
; filament_max_volumetric_speed = 0
; filament_notes = ""
; first_layer_acceleration = 0
; first_layer_bed_temperature = 0
; first_layer_extrusion_width = 200%
; first_layer_speed = 30
; first_layer_temperature = 5
; gcode_arcs = 0
; gcode_comments = 0
; gcode_flavor = reprap
; has_heatbed = 1
; infill_acceleration = 0
; infill_first = 0
; interior_brim_width = 0
; layer_gcode = 
; max_fan_speed = 100
; max_layer_height = 1
; max_print_speed = 80
; max_volumetric_speed = 0
; min_fan_speed = 35
; min_layer_height = 0.15
; min_print_speed = 10
; min_skirt_length = 0
; notes = 
; nozzle_diameter = 1
; only_retract_when_crossing_perimeters = 1
; ooze_prevention = 0
; output_filename_format = [input_filename_base].gcode
; perimeter_acceleration = 0
; post_process = 
; pressure_advance = 0
; printer_notes = 
; resolution = 0
; retract_before_travel = 2
; retract_layer_change = 0
; retract_length = 0.5
; retract_length_toolchange = 10
; retract_lift = 0
; retract_lift_above = 0
; retract_lift_below = 0
; retract_restart_extra = 0
; retract_restart_extra_toolchange = 0
; retract_speed = 40
; skirt_distance = 6
; skirt_height = 1
; skirts = 0
; slowdown_below_layer_time = 5
; spiral_vase = 0
; standby_temperature_delta = -5
; start_filament_gcode = "; Filament gcode\n"
; start_gcode = G28 ; home all axes\nG1 E1.6 F30 ; lift nozzle\n
; temperature = 0
; threads = 12
; toolchange_gcode = 
; travel_speed = 30
; use_firmware_retraction = 0
; use_relative_e_distances = 0
; use_set_and_wait_bed = 0
; use_set_and_wait_extruder = 0
; use_volumetric_e = 0
; vibration_limit = 0
; wipe = 0
; z_offset = 0
; z_steps_per_mm = 0
; adaptive_slicing = 0
; adaptive_slicing_quality = 75%
; dont_support_bridges = 1
; extrusion_width = 0
; first_layer_height = 1
; infill_only_where_needed = 0
; interface_shells = 0
; layer_height = 0.9
; match_horizontal_surfaces = 0
; raft_layers = 0
; regions_overlap = 0
; seam_position = aligned
; sequential_print_priority = 0
; support_material = 0
; support_material_angle = 0
; support_material_buildplate_only = 0
; support_material_contact_distance = 0.2
; support_material_enforce_layers = 0
; support_material_extruder = 1
; support_material_extrusion_width = 0
; support_material_interface_extruder = 1
; support_material_interface_extrusion_width = 0
; support_material_interface_layers = 3
; support_material_interface_spacing = 0
; support_material_interface_speed = 100%
; support_material_max_layers = 0
; support_material_pattern = pillars
; support_material_spacing = 2.5
; support_material_speed = 60
; support_material_threshold = 60%
; xy_size_compensation = 0
; bottom_infill_pattern = rectilinear
; bottom_solid_layers = 0
; bridge_flow_ratio = 1
; bridge_speed = 60
; external_perimeter_extrusion_width = 0
; external_perimeter_speed = 50%
; external_perimeters_first = 0
; extra_perimeters = 0
; fill_angle = 45
; fill_density = 0%
; fill_gaps = 1
; fill_pattern = stars
; gap_fill_speed = 20
; infill_every_layers = 1
; infill_extruder = 1
; infill_extrusion_width = 0
; infill_overlap = 55%
; infill_speed = 80
; overhangs = 1
; perimeter_extruder = 1
; perimeter_extrusion_width = 0
; perimeter_speed = 30
; perimeters = 1
; small_perimeter_speed = 15
; solid_infill_below_area = 70
; solid_infill_every_layers = 0
; solid_infill_extruder = 1
; solid_infill_extrusion_width = 0
; solid_infill_speed = 20
; thin_walls = 1
; top_infill_extrusion_width = 0
; top_infill_pattern = rectilinear
; top_solid_infill_speed = 15
; top_solid_layers = 0
