; generated by Slic3r 1.3.0 on 2022-02-12 at 23:49:27

; external perimeters extrusion width = 1.10mm (12.24mm^3/s)
; perimeters extrusion width = 1.07mm (23.56mm^3/s)
; infill extrusion width = 1.07mm (62.83mm^3/s)
; solid infill extrusion width = 1.07mm (15.71mm^3/s)
; top infill extrusion width = 1.07mm (11.78mm^3/s)

M107
M104 S5 ; set temperature
G28 ; home all axes
G1 E1.6 F30 ; lift nozzle

; Filament gcode

M109 S5 ; set temperature and wait for it to be reached
G21 ; set units to millimeters
G90 ; use absolute coordinates
M82 ; use absolute distances for extrusion
G92 E0
G1 Z1.000 F1800.000
G1 E-0.80000 F2400.00000
G92 E0
G1 X25.843 Y21.418 F1800.000
G1 E0.80000 F2400.00000
G1 F1800
G1 X24.343 Y23.043 E1.35856
G1 X23.358 Y24.232 E1.74836
G1 X22.439 Y25.471 E2.13815
G1 X21.589 Y26.759 E2.52795
G1 X20.808 Y28.090 E2.91774
G1 X20.413 Y28.857 E3.13565
G1 X19.935 Y28.827 E3.25669
G1 X18.854 Y28.670 E3.53255
G1 X17.789 Y28.425 E3.80841
G1 X16.748 Y28.095 E4.08426
G1 X15.996 Y27.788 E4.28953
G1 X18.234 Y25.622 E5.07612
G1 X21.557 Y22.542 E6.22056
G1 X25.023 Y19.465 E7.39130
G1 X25.265 Y19.151 E7.49141
G1 X25.429 Y18.997 E7.54805
G1 X25.614 Y18.871 E7.60469
G1 X25.817 Y18.775 E7.66133
G1 X26.032 Y18.713 E7.71797
G1 X26.254 Y18.684 E7.77461
G1 X26.479 Y18.691 E7.83125
G1 X26.699 Y18.733 E7.88788
G1 X26.910 Y18.808 E7.94452
G1 X27.122 Y18.924 E8.00548
G1 X28.499 Y19.917 E8.43428
G1 X29.998 Y20.885 E8.88505
G1 X31.544 Y21.776 E9.33583
G1 X33.134 Y22.588 E9.78661
G1 X34.763 Y23.317 E10.23738
G1 X36.426 Y23.963 E10.68816
G1 X38.155 Y24.535 E11.14798
G1 X38.429 Y24.590 E11.21874
G1 X38.561 Y24.639 E11.25415
G1 X38.683 Y24.707 E11.28956
G1 X38.888 Y24.897 E11.36017
G1 X39.024 Y25.141 E11.43076
G1 X39.068 Y25.327 E11.47892
G1 X37.478 Y26.512 E11.97974
G1 X35.676 Y27.747 E12.53171
G1 X33.827 Y28.911 E13.08367
G1 X30.165 Y31.020 E14.15089
G1 X33.170 Y32.279 E14.97392
G1 X31.145 Y32.275 E15.48550
G1 X29.099 Y32.167 E16.00298
G1 X27.061 Y31.955 E16.52045
G1 X25.846 Y31.765 E16.83110
G1 X26.731 Y31.283 E17.08558
G1 X28.425 Y30.270 E17.58419
G1 X30.077 Y29.189 E18.08280
G1 X31.684 Y28.043 E18.58142
G1 X34.328 Y25.990 E19.42693
G1 X31.915 Y24.392 E20.15802
G1 X30.603 Y23.613 E20.54329
G1 X29.255 Y22.899 E20.92856
G1 X27.874 Y22.252 E21.31383
G1 X25.981 Y21.475 E21.83061
G1 E21.03061 F2400.00000
G92 E0
G1 X42.152 Y22.599 F1800.000
G1 E0.80000 F2400.00000
G1 F1800
G1 X42.119 Y21.995 E0.95295
G1 X42.716 Y21.703 E1.12100
G1 X43.283 Y21.477 E1.27489
G1 X43.861 Y21.285 E1.42878
G1 X44.449 Y21.127 E1.58267
G1 X45.046 Y21.003 E1.73656
G1 X45.648 Y20.914 E1.89046
G1 X46.248 Y20.861 E2.04247
G1 X47.086 Y20.847 E2.25423
G1 X47.864 Y20.891 E2.45104
G1 X47.806 Y21.232 E2.53842
G1 X47.706 Y21.556 E2.62420
G1 X47.061 Y21.632 E2.78827
G1 X45.846 Y21.812 E3.09860
G1 X44.636 Y22.029 E3.40892
G1 X43.434 Y22.284 E3.71925
G1 X42.297 Y22.561 E4.01504
G1 E3.21504 F2400.00000
G92 E0
G1 X42.966 Y26.624 F1800.000
G1 E0.80000 F2400.00000
G1 F1800
G1 X43.726 Y26.551 E0.99306
G1 X44.602 Y26.428 E1.21636
G1 X45.471 Y26.267 E1.43968
G1 X46.333 Y26.067 E1.66299
G1 X47.184 Y25.831 E1.88630
G1 X48.025 Y25.556 E2.10961
G1 X49.126 Y25.129 E2.40793
G1 X49.098 Y25.465 E2.49299
G1 X49.029 Y25.870 E2.59675
G1 X48.927 Y26.268 E2.70050
G1 X48.792 Y26.656 E2.80426
G1 X48.626 Y27.031 E2.90802
G1 X48.410 Y27.421 E3.02058
G1 X47.919 Y27.519 E3.14704
G1 X47.033 Y27.655 E3.37339
G1 X46.142 Y27.752 E3.59974
G1 X45.248 Y27.810 E3.82609
G1 X44.352 Y27.829 E4.05244
G1 X43.456 Y27.808 E4.27879
G1 X42.832 Y27.767 E4.43670
G1 X42.911 Y27.318 E4.55185
G1 X42.961 Y26.774 E4.68986
G1 E3.88986 F2400.00000
G92 E0
G1 X39.595 Y9.111 F1800.000
G1 E0.80000 F2400.00000
G1 F1800
G1 X39.090 Y9.189 E0.92898
G1 X38.123 Y9.268 E1.17407
G1 X38.213 Y9.220 E1.19986
G1 X40.018 Y8.776 E1.66934
G1 X40.797 Y8.559 E1.87351
G1 X40.667 Y8.854 E1.95514
G1 X40.095 Y9.007 E2.10457
G1 X39.742 Y9.080 E2.19567
G1 E1.39567 F2400.00000
G92 E0
G1 X38.853 Y5.140 F1800.000
G1 E0.80000 F2400.00000
G1 F1800
G1 X38.638 Y5.180 E0.85509
G1 X38.625 Y5.103 E0.87490
G1 X38.644 Y4.957 E0.91204
G1 X38.937 Y4.837 E0.99201
G1 X39.531 Y4.669 E1.14795
G1 X40.154 Y4.566 E1.30742
G1 X40.441 Y4.543 E1.38011
G1 X40.858 Y4.538 E1.48550
G1 X41.263 Y4.564 E1.58791
G1 X40.292 Y4.844 E1.84320
G1 X39.755 Y4.971 E1.98254
G1 X39.000 Y5.112 E2.17645
G1 E1.37645 F2400.00000
G92 E0
G1 X33.872 Y8.203 F1800.000
G1 E0.80000 F2400.00000
G1 F1800
G1 X31.503 Y6.692 E1.50979
G1 X30.617 Y6.202 E1.76543
G1 X29.704 Y5.767 E2.02107
G1 X28.765 Y5.389 E2.27671
G1 X27.109 Y4.839 E2.71748
G1 X25.613 Y7.088 E3.39969
G1 X24.508 Y8.665 E3.88596
G1 X23.696 Y9.768 E4.23206
G1 X22.956 Y9.644 E4.42150
G1 X22.340 Y9.480 E4.58261
G1 X21.739 Y9.265 E4.74373
G1 X21.276 Y9.054 E4.87236
G1 X22.805 Y7.852 E5.36356
G1 X24.124 Y6.736 E5.79989
G1 X25.406 Y5.579 E6.23623
G1 X26.651 Y4.381 E6.67256
G1 X27.309 Y3.705 E6.91087
G1 X29.006 Y4.657 E7.40242
G1 X31.409 Y5.941 E8.09055
G1 X33.838 Y7.174 E8.77868
G1 X35.049 Y7.758 E9.11814
G1 X34.465 Y8.260 E9.31269
G1 X33.907 Y8.668 E9.48729
G1 X33.321 Y9.035 E9.66190
G1 X32.711 Y9.360 E9.83651
G1 X32.079 Y9.641 E10.01112
G1 X29.383 Y10.618 E10.73535
G1 X31.443 Y11.814 E11.33695
G1 X29.665 Y11.781 E11.78600
G1 X28.102 Y11.686 E12.18146
G1 X27.431 Y11.620 E12.35197
G1 X28.690 Y10.799 E12.73168
G1 X29.829 Y10.139 E13.06407
G1 X30.997 Y9.533 E13.39645
G1 X33.736 Y8.266 E14.15872
G1 E13.35872 F2400.00000
G92 E0
G1 X17.704 Y1.990 F1800.000
G1 E0.80000 F2400.00000
G1 F1800
G1 X17.136 Y2.092 E0.94587
G1 X17.557 Y2.016 E1.05386
G1 E0.25386 F2400.00000
G92 E0
G1 X9.776 Y7.075 F1800.000
G1 E0.80000 F2400.00000
G1 F1800
G1 X9.379 Y7.057 E0.90048
G1 X8.359 Y6.952 E1.15938
G1 X9.149 Y6.549 E1.38323
G1 X9.661 Y6.979 E1.55220
G1 E0.75220 F2400.00000
G92 E0
G1 X10.678 Y3.542 F1800.000
G1 E0.80000 F2400.00000
G1 F1800
G1 X11.332 Y3.813 E0.97879
G1 X12.451 Y4.217 E1.27922
G1 X12.839 Y4.339 E1.38209
G1 X12.504 Y4.650 E1.49761
G1 X10.807 Y3.619 E1.99929
G1 E1.19929 F2400.00000
G92 E0
G1 X8.522 Y2.510 F1800.000
G1 E0.80000 F2400.00000
G1 F1800
G1 X7.595 Y2.195 E1.04722
G1 X7.469 Y2.106 E1.08610
G1 X7.629 Y2.004 E1.13403
G1 X8.390 Y2.439 E1.35544
G1 E0.55544 F2400.00000
G92 E0
G1 X5.376 Y3.479 F1800.000
G1 E0.80000 F2400.00000
G1 F1800
G1 X4.881 Y4.222 E1.02554
G1 X4.251 Y5.080 E1.29441
G1 X4.005 Y5.384 E1.39322
G1 X3.121 Y5.034 E1.63343
G1 X5.252 Y3.563 E2.28739
G1 E1.48739 F2400.00000
G92 E0
; Filament-specific end gcode 
;END gcode for filament

M104 S0 ; turn off temperature
G28 X0  ; home X axis
M84     ; disable motors

M140 S0 ; set bed temperature
; filament used = 48.5mm (0.3cm3)
; total filament cost = 0.0

; avoid_crossing_perimeters = 0
; bed_shape = 0x0,100x0,100x100,0x100
; bed_temperature = 0
; before_layer_gcode = 
; between_objects_gcode = 
; bridge_acceleration = 0
; bridge_fan_speed = 100
; brim_connections_width = 0
; brim_width = 0
; complete_objects = 0
; cooling = 1
; default_acceleration = 0
; disable_fan_first_layers = 3
; duplicate_distance = 6
; end_filament_gcode = "; Filament-specific end gcode \n;END gcode for filament\n"
; end_gcode = M104 S0 ; turn off temperature\nG28 X0  ; home X axis\nM84     ; disable motors\n
; extruder_clearance_height = 20
; extruder_clearance_radius = 20
; extruder_offset = 0x0
; extrusion_axis = E
; extrusion_multiplier = 1
; fan_always_on = 0
; fan_below_layer_time = 60
; filament_colour = #FFFFFF
; filament_cost = 0
; filament_density = 0
; filament_diameter = 3
; filament_max_volumetric_speed = 0
; filament_notes = ""
; first_layer_acceleration = 0
; first_layer_bed_temperature = 0
; first_layer_extrusion_width = 200%
; first_layer_speed = 30
; first_layer_temperature = 5
; gcode_arcs = 0
; gcode_comments = 0
; gcode_flavor = reprap
; has_heatbed = 1
; infill_acceleration = 0
; infill_first = 0
; interior_brim_width = 0
; layer_gcode = 
; max_fan_speed = 100
; max_layer_height = 1
; max_print_speed = 80
; max_volumetric_speed = 0
; min_fan_speed = 35
; min_layer_height = 0.15
; min_print_speed = 10
; min_skirt_length = 0
; notes = 
; nozzle_diameter = 1
; only_retract_when_crossing_perimeters = 1
; ooze_prevention = 0
; output_filename_format = [input_filename_base].gcode
; perimeter_acceleration = 0
; post_process = 
; pressure_advance = 0
; printer_notes = 
; resolution = 0
; retract_before_travel = 2
; retract_layer_change = 0
; retract_length = 0.8
; retract_length_toolchange = 10
; retract_lift = 0
; retract_lift_above = 0
; retract_lift_below = 0
; retract_restart_extra = 0
; retract_restart_extra_toolchange = 0
; retract_speed = 40
; skirt_distance = 6
; skirt_height = 1
; skirts = 0
; slowdown_below_layer_time = 5
; spiral_vase = 0
; standby_temperature_delta = -5
; start_filament_gcode = "; Filament gcode\n"
; start_gcode = G28 ; home all axes\nG1 E1.6 F30 ; lift nozzle\n
; temperature = 0
; threads = 12
; toolchange_gcode = 
; travel_speed = 30
; use_firmware_retraction = 0
; use_relative_e_distances = 0
; use_set_and_wait_bed = 0
; use_set_and_wait_extruder = 0
; use_volumetric_e = 0
; vibration_limit = 0
; wipe = 0
; z_offset = 0
; z_steps_per_mm = 0
; adaptive_slicing = 0
; adaptive_slicing_quality = 75%
; dont_support_bridges = 1
; extrusion_width = 0
; first_layer_height = 1
; infill_only_where_needed = 0
; interface_shells = 0
; layer_height = 0.9
; match_horizontal_surfaces = 0
; raft_layers = 0
; regions_overlap = 0
; seam_position = aligned
; sequential_print_priority = 0
; support_material = 0
; support_material_angle = 0
; support_material_buildplate_only = 0
; support_material_contact_distance = 0.2
; support_material_enforce_layers = 0
; support_material_extruder = 1
; support_material_extrusion_width = 0
; support_material_interface_extruder = 1
; support_material_interface_extrusion_width = 0
; support_material_interface_layers = 3
; support_material_interface_spacing = 0
; support_material_interface_speed = 100%
; support_material_max_layers = 0
; support_material_pattern = pillars
; support_material_spacing = 2.5
; support_material_speed = 60
; support_material_threshold = 60%
; xy_size_compensation = 0
; bottom_infill_pattern = rectilinear
; bottom_solid_layers = 0
; bridge_flow_ratio = 1
; bridge_speed = 60
; external_perimeter_extrusion_width = 0
; external_perimeter_speed = 50%
; external_perimeters_first = 0
; extra_perimeters = 0
; fill_angle = 45
; fill_density = 0%
; fill_gaps = 1
; fill_pattern = stars
; gap_fill_speed = 20
; infill_every_layers = 1
; infill_extruder = 1
; infill_extrusion_width = 0
; infill_overlap = 55%
; infill_speed = 80
; overhangs = 1
; perimeter_extruder = 1
; perimeter_extrusion_width = 0
; perimeter_speed = 30
; perimeters = 1
; small_perimeter_speed = 15
; solid_infill_below_area = 70
; solid_infill_every_layers = 0
; solid_infill_extruder = 1
; solid_infill_extrusion_width = 0
; solid_infill_speed = 20
; thin_walls = 0
; top_infill_extrusion_width = 0
; top_infill_pattern = rectilinear
; top_solid_infill_speed = 15
; top_solid_layers = 0
