; generated by PrusaSlicer 2.3.3+win64 on 2022-02-06 at 01:13:31 UTC

; 

; external perimeters extrusion width = 6.75mm
; perimeters extrusion width = 6.75mm
; infill extrusion width = 6.75mm
; solid infill extrusion width = 6.75mm
; top infill extrusion width = 6.00mm
; first layer extrusion width = 1.00mm

M73 P0 R1
M73 Q0 S1
M201 X400 Y400 Z400 E400 ; sets maximum accelerations, mm/sec^2
M203 X40 Y40 Z40 E50 ; sets maximum feedrates, mm/sec
M204 P400 R400 T400 ; sets acceleration (P, T) and retract acceleration (R), mm/sec^2
M205 X8.00 Y8.00 Z0.40 E4.50 ; sets the jerk limits, mm/sec
M205 S0 T0 ; sets the minimum extruding and travel feed rate, mm/sec
M107
M104 S200 ; set temperature
;TYPE:Custom
G90 ; use absolute coordinates
M83 ; extruder relative mode
G28
G92 E0.0
M109 S200 ; set temperature and wait for it to be reached
G21 ; set units to millimeters
G90 ; use absolute coordinates
M82 ; use absolute distances for extrusion
G92 E0
; Filament gcode
;LAYER_CHANGE
;Z:0.5
;HEIGHT:0.5
;BEFORE_LAYER_CHANGE
;
;WITNESS ME
;AND DELETE AFTER HERE FOR PANCAKES
;
G92 E0.0
;0.5


G1 Z0.500 F1200.000
;AFTER_LAYER_CHANGE
;0.5
G1 X29.370 Y17.985
;TYPE:External perimeter
;WIDTH:1
M73 P3 R1
M73 Q3 S1
G1 F900.000
G1 X29.606 Y17.183 E0.15511
G1 X29.922 Y16.402 E0.31150
M73 P4 R1
M73 Q4 S1
G1 X30.318 Y15.644 E0.47024
G1 X30.815 Y14.877 E0.63987
G1 X31.392 Y14.131 E0.81481
G1 X32.024 Y13.452 E0.98706
G1 X32.715 Y12.844 E1.15774
G1 X33.461 Y12.315 E1.32761
G1 X34.259 Y11.860 E1.49808
G1 X35.105 Y11.481 E1.67001
M73 P5 R1
M73 Q5 S1
G1 X35.560 Y11.314 E1.75994
G1 X36.954 Y10.901 E2.02980
G1 X37.473 Y10.840 E2.12676
G1 X38.884 Y10.826 E2.38858
G1 X39.934 Y10.878 E2.58377
G1 X40.476 Y10.955 E2.68531
G1 X41.006 Y11.100 E2.78720
G1 X42.331 Y11.666 E3.05458
M73 P6 R1
M73 Q6 S1
G1 X43.154 Y12.077 E3.22532
G1 X43.560 Y12.315 E3.31261
G1 X43.949 Y12.573 E3.39933
G1 X44.323 Y12.855 E3.48614
G1 X44.687 Y13.162 E3.57456
G1 X45.346 Y13.824 E3.74799
G1 X45.810 Y14.374 E3.88139
G1 X46.251 Y14.971 E4.01908
G1 X46.652 Y15.620 E4.16084
M73 P7 R1
M73 Q7 S1
G1 X47.015 Y16.326 E4.30815
G1 X47.359 Y17.180 E4.47883
G1 X47.503 Y17.637 E4.56790
G1 X47.714 Y18.545 E4.74080
G1 X47.836 Y19.480 E4.91572
G1 X47.868 Y20.425 E5.09119
G1 X47.814 Y21.373 E5.26744
G1 X47.669 Y22.313 E5.44402
M73 P8 R1
M73 Q8 S1
G1 X47.552 Y22.797 E5.53630
G1 X47.248 Y23.704 E5.71391
G1 X46.857 Y24.578 E5.89152
G1 X46.625 Y25.011 E5.98280
G1 X46.369 Y25.430 E6.07380
G1 X46.088 Y25.836 E6.16543
G1 X45.782 Y26.228 E6.25782
G1 X45.450 Y26.605 E6.35108
G1 X45.092 Y26.966 E6.44538
G1 X44.708 Y27.310 E6.54088
G1 X44.299 Y27.634 E6.63778
G1 X43.864 Y27.938 E6.73627
M73 P9 R1
M73 Q9 S1
G1 X43.399 Y28.222 E6.83748
G1 X42.424 Y28.717 E7.04026
G1 X41.009 Y29.322 E7.32596
G1 X40.580 Y29.469 E7.41002
G1 X39.773 Y29.576 E7.56104
G1 X39.022 Y29.616 E7.70065
G1 X37.468 Y29.629 E7.98914
G1 X37.002 Y29.588 E8.07583
M73 P10 R1
M73 Q10 S1
G1 X36.558 Y29.475 E8.16082
G1 X35.053 Y28.974 E8.45533
G1 X34.319 Y28.659 E8.60352
G1 X33.625 Y28.285 E8.74988
G1 X33.281 Y28.067 E8.82539
G1 X32.647 Y27.606 E8.97083
G1 X32.054 Y27.086 E9.11722
G1 X31.511 Y26.519 E9.26288
G1 X31.251 Y26.208 E9.33803
M73 P11 R1
M73 Q11 S1
G1 X30.783 Y25.582 E9.48315
G1 X30.557 Y25.238 E9.55953
G1 X30.162 Y24.537 E9.70894
G1 X29.825 Y23.789 E9.86121
G1 X29.552 Y23.003 E10.01551
G1 X29.346 Y22.190 E10.17118
G1 X29.266 Y21.759 E10.25238
G1 X29.160 Y20.913 E10.41074
G1 X29.132 Y20.477 E10.49185
G1 X29.134 Y19.637 E10.64761
M73 P12 R1
M73 Q12 S1
G1 X29.207 Y18.870 E10.79060
G92 E0
G1 X41.677 Y10.127 F1200.000
M73 P13 R1
M73 Q13 S1
G1 F900.000
G1 X41.582 Y9.815 E0.06056
G1 X41.546 Y9.526 E0.11447
G1 X41.589 Y4.303 E1.08380
M73 P14 R1
M73 Q14 S1
G1 X41.624 Y3.622 E1.21042
G1 X41.819 Y2.832 E1.36144
G1 X43.379 Y3.245 E1.66092
M73 P15 R1
M73 Q15 S1
G1 X44.377 Y3.567 E1.85548
G1 X45.037 Y3.816 E1.98633
G1 X45.687 Y4.092 E2.11749
G1 X46.634 Y4.552 E2.31281
G1 X47.558 Y5.062 E2.50861
G1 X48.162 Y5.437 E2.64064
G1 X48.749 Y5.837 E2.77239
G1 X49.321 Y6.260 E2.90445
M73 P16 R1
M73 Q16 S1
G1 X49.876 Y6.708 E3.03683
G1 X50.415 Y7.179 E3.16957
G1 X50.934 Y7.674 E3.30270
G1 X51.435 Y8.190 E3.43624
G1 X51.916 Y8.729 E3.57025
G1 X52.376 Y9.290 E3.70476
G1 X52.813 Y9.871 E3.83983
G1 X53.227 Y10.473 E3.97536
G1 X53.620 Y11.093 E4.11154
G1 X53.988 Y11.733 E4.24859
M73 P17 R1
M73 Q17 S1
G1 X54.331 Y12.393 E4.38657
G1 X54.648 Y13.072 E4.52559
G1 X54.936 Y13.769 E4.66555
G1 X55.196 Y14.483 E4.80658
G1 X55.426 Y15.214 E4.94883
G1 X55.628 Y15.961 E5.09243
G1 X55.799 Y16.723 E5.23732
G1 X55.944 Y17.496 E5.38333
G1 X56.256 Y19.488 E5.75740
M73 P18 R1
M73 Q18 S1
G1 X56.295 Y20.221 E5.89359
G1 X56.273 Y21.122 E6.06096
G1 X56.222 Y21.583 E6.14701
G1 X55.835 Y23.641 E6.53551
G1 X55.650 Y24.438 E6.68744
G1 X55.432 Y25.218 E6.83771
M73 P19 R1
M73 Q19 S1
G1 X54.927 Y26.700 E7.12829
G1 X54.630 Y27.423 E7.27331
G1 X54.306 Y28.122 E7.41617
G1 X53.954 Y28.798 E7.55770
G1 X53.576 Y29.453 E7.69802
G1 X53.172 Y30.085 E7.83724
G1 X52.744 Y30.695 E7.97547
G1 X52.293 Y31.281 E8.11277
M73 P20 R1
M73 Q20 S1
G1 X51.820 Y31.845 E8.24923
G1 X51.327 Y32.384 E8.38490
G1 X50.814 Y32.900 E8.51984
G1 X50.284 Y33.391 E8.65407
G1 X49.736 Y33.858 E8.78763
G1 X49.173 Y34.301 E8.92054
G1 X48.595 Y34.718 E9.05280
G1 X48.003 Y35.109 E9.18443
G1 X47.400 Y35.475 E9.31543
G1 X46.785 Y35.815 E9.44579
M73 P21 R1
M73 Q21 S1
G1 X46.160 Y36.129 E9.57550
G1 X45.524 Y36.417 E9.70509
G1 X44.252 Y36.917 E9.95867
G1 X43.595 Y37.134 E10.08715
G1 X41.718 Y37.641 E10.44783
G1 X41.582 Y36.804 E10.60516
M73 P22 R1
M73 Q22 S1
G1 X41.560 Y35.672 E10.81524
G1 X41.558 Y31.215 E11.64231
G1 X41.593 Y30.405 E11.79284
G1 X41.769 Y30.071 E11.86290
G1 X41.941 Y29.916 E11.90581
M73 P23 R1
M73 Q23 S1
G1 X42.165 Y29.794 E11.95310
G1 X42.875 Y29.493 E12.09622
G1 X43.435 Y29.215 E12.21228
G1 X43.971 Y28.902 E12.32745
G1 X44.485 Y28.555 E12.44252
G1 X44.977 Y28.178 E12.55757
G1 X45.445 Y27.769 E12.67294
G1 X45.891 Y27.328 E12.78917
G1 X46.313 Y26.854 E12.90714
G1 X46.749 Y26.308 E13.03669
G1 X47.151 Y25.746 E13.16496
G1 X47.516 Y25.169 E13.29165
M73 P24 R1
M73 Q24 S1
G1 X47.839 Y24.580 E13.41632
G1 X48.107 Y23.970 E13.53999
G1 X48.421 Y23.017 E13.72607
G1 X48.573 Y22.351 E13.85291
G1 X48.701 Y21.465 E14.01909
G1 X48.737 Y21.034 E14.09929
G1 X48.760 Y20.167 E14.26023
G1 X48.719 Y19.333 E14.41512
G1 X48.616 Y18.529 E14.56558
M73 P25 R1
M73 Q25 S1
G1 X48.457 Y17.753 E14.71254
G1 X48.242 Y17.007 E14.85657
G1 X47.974 Y16.291 E14.99858
G1 X47.655 Y15.602 E15.13951
G1 X47.287 Y14.939 E15.28005
G1 X46.872 Y14.301 E15.42144
G1 X46.655 Y14.002 E15.49001
G1 X46.171 Y13.413 E15.63149
G1 X45.638 Y12.864 E15.77342
G1 X45.056 Y12.349 E15.91758
M73 P26 R1
M73 Q26 S1
G1 X44.432 Y11.867 E16.06402
G1 X43.770 Y11.422 E16.21190
G1 X42.838 Y10.900 E16.41011
G1 X42.343 Y10.704 E16.50893
G92 E0
G1 X40.655 Y9.855 F1200.000
G1 F900.000
G1 X39.663 Y9.931 E0.18460
G1 X39.201 Y9.939 E0.27028
G1 X38.303 Y9.897 E0.43721
M73 P27 R1
M73 Q27 S1
G1 X37.382 Y9.778 E0.60954
G1 X37.372 Y2.637 E1.93472
M73 P28 R1
M73 Q28 S1
G1 X38.337 Y2.594 E2.11395
G1 X40.577 Y2.609 E2.52966
G1 X40.671 Y3.598 E2.71390
G1 X40.690 Y4.096 E2.80637
G1 X40.660 Y8.955 E3.70819
G92 E0
M73 P29 R1
M73 Q29 S1
G1 X40.617 Y30.507 F1200.000
M73 P31 R1
M73 Q31 S1
G1 F900.000
G1 X40.664 Y30.507 E0.00872
G1 X40.667 Y36.487 E1.11841
M73 P32 R1
M73 Q32 S1
G1 X40.615 Y37.807 E1.36371
M73 P33 R1
M73 Q33 S1
G1 X38.122 Y37.867 E1.82648
G1 X37.887 Y37.810 E1.87133
G1 X37.566 Y37.551 E1.94777
G1 X37.460 Y37.316 E1.99579
G1 X37.394 Y37.017 E2.05245
G1 X37.367 Y31.302 E3.11307
M73 P34 R1
M73 Q34 S1
G1 X37.446 Y30.522 E3.25857
G1 X39.717 Y30.505 E3.67997
G92 E0
G1 X36.462 Y30.942 F1200.000
M73 P35 R1
M73 Q35 S1
G1 F900.000
G1 X36.495 Y37.279 E1.17591
M73 P36 R0
M73 Q36 S0
G1 X36.349 Y37.861 E1.28730
G1 X4.261 Y37.864 E7.24181
M73 P40 R0
M73 Q40 S0
G1 X4.240 Y35.843 E7.61679
M73 P41 R0
M73 Q41 S0
G1 X4.240 Y5.633 E13.22292
M73 P45 R0
M73 Q45 S0
G1 X4.244 Y4.636 E13.40796
G1 X4.298 Y2.664 E13.77402
G1 X5.276 Y2.609 E13.95584
M73 P46 R0
M73 Q46 S0
G1 X6.278 Y2.594 E14.14189
G1 X33.962 Y2.582 E19.27906
M73 P50 R0
M73 Q50 S0
G1 X36.476 Y2.615 E19.74578
G1 X36.489 Y9.398 E21.00453
M73 P51 R0
M73 Q51 S0
G1 X36.448 Y9.740 E21.06851
G1 X36.334 Y9.978 E21.11744
G1 X36.063 Y10.200 E21.18245
G1 X34.534 Y10.747 E21.48376
G1 X33.938 Y11.020 E21.60547
G1 X33.368 Y11.328 E21.72567
M73 P52 R0
M73 Q52 S0
G1 X32.874 Y11.637 E21.83387
G1 X32.398 Y11.976 E21.94223
G1 X31.941 Y12.341 E22.05087
G1 X31.502 Y12.732 E22.15991
G1 X31.083 Y13.150 E22.26970
G1 X30.683 Y13.592 E22.38037
G1 X30.305 Y14.062 E22.49225
G1 X29.706 Y14.931 E22.68803
G1 X29.272 Y15.700 E22.85204
G1 X28.916 Y16.483 E23.01163
M73 P53 R0
M73 Q53 S0
G1 X28.635 Y17.285 E23.16919
G1 X28.429 Y18.105 E23.32614
G1 X28.296 Y18.944 E23.48384
G1 X28.235 Y19.803 E23.64357
G1 X28.248 Y20.687 E23.80763
G1 X28.282 Y21.126 E23.88947
G1 X28.365 Y21.790 E24.01359
G1 X28.482 Y22.425 E24.13339
G1 X28.725 Y23.344 E24.30989
M73 P54 R0
M73 Q54 S0
G1 X29.034 Y24.220 E24.48222
G1 X29.278 Y24.769 E24.59366
G1 X29.708 Y25.559 E24.76052
G1 X30.201 Y26.308 E24.92690
G1 X30.571 Y26.777 E25.03793
G1 X30.979 Y27.225 E25.15020
G1 X31.420 Y27.654 E25.26436
G1 X31.892 Y28.063 E25.38041
G1 X32.397 Y28.452 E25.49875
G1 X32.934 Y28.822 E25.61974
M73 P55 R0
M73 Q55 S0
G1 X33.498 Y29.170 E25.74268
G1 X34.050 Y29.458 E25.85820
G1 X35.030 Y29.885 E26.05660
G1 X35.988 Y30.242 E26.24627
G92 E0
G1 X57.092 Y18.839 F1200.000
M73 P58 R0
M73 Q58 S0
G1 F900.000
G1 X57.880 Y19.120 E0.15518
G1 X58.939 Y17.887 E0.45686
G1 X59.529 Y17.151 E0.63196
G1 X59.931 Y16.571 E0.76291
G1 X60.329 Y15.918 E0.90469
G1 X60.752 Y15.144 E1.06840
G1 X61.159 Y14.331 E1.23715
M73 P59 R0
M73 Q59 S0
G1 X61.412 Y14.084 E1.30278
G1 X61.699 Y13.750 E1.38442
G1 X62.062 Y13.910 E1.45791
G1 X61.966 Y14.729 E1.61102
G1 X61.618 Y15.436 E1.75723
G1 X61.209 Y16.196 E1.91730
G1 X60.538 Y17.279 E2.15385
G1 X60.113 Y17.858 E2.28709
G1 X58.758 Y19.468 E2.67761
M73 P60 R0
M73 Q60 S0
G1 X57.952 Y19.989 E2.85577
G1 X59.494 Y20.783 E3.17757
G1 X60.178 Y21.016 E3.31171
G1 X60.857 Y21.323 E3.44998
G1 X61.054 Y21.433 E3.49184
G1 X62.060 Y22.084 E3.71430
G1 X62.624 Y22.515 E3.84597
M73 P61 R0
M73 Q61 S0
G1 X63.169 Y23.319 E4.02628
G1 X62.962 Y23.635 E4.09623
G1 X62.718 Y23.565 E4.14340
G1 X62.071 Y23.224 E4.27911
G1 X61.485 Y22.783 E4.41514
G1 X60.485 Y22.135 E4.63629
G1 X59.736 Y21.790 E4.78934
G1 X59.228 Y22.284 E4.92091
G1 X59.370 Y22.825 E5.02470
M73 P62 R0
M73 Q62 S0
G1 X59.471 Y23.048 E5.07008
G1 X60.308 Y24.523 E5.38476
G1 X60.915 Y25.694 E5.62949
G1 X61.274 Y26.481 E5.79007
G1 X61.593 Y27.278 E5.94945
G1 X61.855 Y28.089 E6.10752
G1 X62.053 Y28.926 E6.26717
G1 X62.128 Y29.344 E6.34585
M73 P63 R0
M73 Q63 S0
G1 X62.252 Y30.333 E6.53095
G1 X62.285 Y31.035 E6.66138
G1 X62.193 Y31.223 E6.70020
G1 X62.111 Y31.510 E6.75555
G1 X61.995 Y31.815 E6.81597
G1 X61.602 Y31.791 E6.88911
G1 X61.507 Y31.407 E6.96253
G1 X61.397 Y31.176 E7.01001
G1 X61.350 Y30.322 E7.16874
G1 X61.226 Y29.357 E7.34925
G1 X61.015 Y28.398 E7.53136
G1 X60.707 Y27.461 E7.71454
M73 P64 R0
M73 Q64 S0
G1 X60.437 Y26.800 E7.84697
G1 X60.145 Y26.158 E7.97780
G1 X59.512 Y24.928 E8.23462
G1 X58.375 Y22.936 E8.66011
G1 X58.032 Y22.389 E8.78002
G1 X57.553 Y22.169 E8.87789
M73 P65 R0
M73 Q65 S0
G1 X56.987 Y22.347 E8.98796
G1 X56.759 Y23.580 E9.22061
G1 X56.574 Y24.426 E9.38123
G1 X56.240 Y25.624 E9.61207
G1 X55.842 Y26.772 E9.83751
G1 X55.381 Y27.870 E10.05851
G1 X54.866 Y28.924 E10.27637
M73 P66 R0
M73 Q66 S0
G1 X54.593 Y29.425 E10.38222
G1 X53.999 Y30.407 E10.59509
G1 X53.356 Y31.337 E10.80499
G1 X52.659 Y32.219 E11.01347
G1 X51.908 Y33.055 E11.22216
G1 X51.519 Y33.448 E11.32476
G1 X50.687 Y34.212 E11.53439
M73 P67 R0
M73 Q67 S0
G1 X49.804 Y34.926 E11.74506
G1 X48.866 Y35.591 E11.95842
G1 X47.870 Y36.210 E12.17602
G1 X47.359 Y36.497 E12.28474
G1 X46.280 Y37.042 E12.50918
G1 X45.146 Y37.535 E12.73865
G1 X44.564 Y37.753 E12.85398
M73 P68 R0
M73 Q68 S0
G1 X43.872 Y37.983 E12.98923
G1 X42.454 Y38.368 E13.26185
G1 X41.298 Y38.566 E13.47958
G1 X40.352 Y38.698 E13.65675
G1 X38.206 Y38.759 E14.05522
G1 X37.209 Y38.685 E14.24072
M73 P69 R0
M73 Q69 S0
G1 X36.667 Y38.697 E14.34130
G1 X36.169 Y38.745 E14.43426
G1 X35.693 Y38.754 E14.52248
G1 X4.757 Y38.756 E20.26325
M73 P73 R0
M73 Q73 S0
G1 X4.310 Y38.722 E20.34646
G1 X3.717 Y38.599 E20.45897
G1 X3.453 Y38.494 E20.51155
G1 X3.376 Y37.774 E20.64604
M73 P74 R0
M73 Q74 S0
G1 X3.348 Y37.304 E20.73334
G1 X3.338 Y4.090 E26.89699
M73 P78 R0
M73 Q78 S0
G1 X3.374 Y3.759 E26.95868
G1 X3.418 Y2.800 E27.13689
M73 P79 R0
M73 Q79 S0
G1 X3.601 Y1.828 E27.32038
G1 X4.598 Y1.709 E27.50682
G1 X5.040 Y1.702 E27.58869
G1 X35.854 Y1.689 E33.30691
M73 P83 R0
M73 Q83 S0
G1 X36.861 Y1.744 E33.49404
G1 X37.877 Y1.691 E33.68282
M73 P84 R0
M73 Q84 S0
G1 X39.809 Y1.699 E34.04149
G1 X40.250 Y1.724 E34.12344
G1 X40.681 Y1.792 E34.20436
G1 X41.147 Y1.899 E34.29311
G1 X41.656 Y1.980 E34.38865
G1 X42.133 Y2.028 E34.47777
G1 X42.577 Y2.106 E34.56139
G1 X43.504 Y2.347 E34.73902
G1 X44.417 Y2.633 E34.91652
M73 P85 R0
M73 Q85 S0
G1 X45.308 Y2.961 E35.09290
G1 X46.179 Y3.332 E35.26851
G1 X47.027 Y3.747 E35.44376
G1 X47.853 Y4.208 E35.61927
G1 X48.658 Y4.716 E35.79576
G1 X49.443 Y5.273 E35.97451
G1 X49.934 Y5.651 E36.08957
G1 X50.884 Y6.452 E36.32002
M73 P86 R0
M73 Q86 S0
G1 X51.326 Y6.860 E36.43162
G1 X52.178 Y7.721 E36.65643
G1 X52.571 Y8.158 E36.76560
G1 X53.325 Y9.081 E36.98674
G1 X53.670 Y9.547 E37.09440
G1 X54.322 Y10.531 E37.31334
G1 X54.763 Y11.291 E37.47654
M73 P87 R0
M73 Q87 S0
G1 X55.170 Y12.076 E37.64056
G1 X55.525 Y12.856 E37.79949
G1 X55.823 Y13.591 E37.94676
G1 X56.174 Y14.606 E38.14609
G1 X56.472 Y15.657 E38.34877
G1 X56.597 Y16.185 E38.44948
G1 X56.927 Y17.954 E38.78344
G92 E0
M73 P88 R0
M73 Q88 S0
G1 X25.055 Y15.199 F1200.000
M73 P91 R0
M73 Q91 S0
G1 F900.000
G1 X25.252 Y15.907 E0.13650
G1 X25.405 Y16.628 E0.27328
G1 X25.530 Y17.480 E0.43304
G1 X25.569 Y17.892 E0.50982
G1 X25.604 Y18.733 E0.66608
M73 P92 R0
M73 Q92 S0
G1 X25.580 Y19.569 E0.82123
G1 X25.547 Y19.974 E0.89666
G1 X25.437 Y20.802 E1.05169
G1 X25.271 Y21.621 E1.20676
G1 X25.050 Y22.436 E1.36338
G1 X24.776 Y23.242 E1.52142
G1 X24.668 Y23.495 E1.57233
G1 X24.371 Y24.016 E1.68361
G1 X24.224 Y24.225 E1.73116
G1 X24.034 Y24.415 E1.78092
G1 X23.656 Y24.165 E1.86499
G1 X23.513 Y23.991 E1.90696
G1 X23.538 Y23.853 E1.93300
G1 X24.193 Y21.765 E2.33905
M73 P93 R0
M73 Q93 S0
G1 X24.431 Y20.835 E2.51719
G1 X24.583 Y19.907 E2.69173
G1 X24.628 Y19.430 E2.78064
G1 X24.651 Y18.508 E2.95170
G1 X24.585 Y17.586 E3.12317
G1 X24.431 Y16.672 E3.29531
M73 P94 R0
M73 Q94 S0
G1 X24.190 Y15.771 E3.46842
G1 X24.032 Y15.310 E3.55883
G1 X23.577 Y14.226 E3.77688
G1 X23.528 Y14.071 E3.80712
G1 X23.494 Y13.873 E3.84441
G1 X23.716 Y13.645 E3.90336
G1 X23.784 Y13.597 E3.91889
G1 X23.970 Y13.516 E3.95646
G1 X24.180 Y13.582 E3.99731
G1 X24.354 Y13.703 E4.03664
G1 X24.493 Y13.901 E4.08151
G1 X24.722 Y14.363 E4.17720
G92 E0
G1 X38.716 Y20.947 F1200.000
M73 P96 R0
M73 Q96 S0
G1 F900.000
G1 X38.892 Y20.703 E0.05599
G1 X39.120 Y20.503 E0.11214
G1 X39.401 Y20.353 E0.17126
G1 X39.807 Y20.261 E0.24863
G1 X40.310 Y20.264 E0.34197
G1 X40.632 Y20.329 E0.40292
G1 X40.922 Y20.450 E0.46121
G1 X41.176 Y20.638 E0.51985
G1 X41.374 Y20.885 E0.57852
G1 X41.504 Y21.170 E0.63678
G1 X41.575 Y21.477 E0.69528
G1 X41.599 Y21.805 E0.75632
G1 X41.580 Y22.122 E0.81517
M73 P97 R0
M73 Q97 S0
G1 X41.509 Y22.425 E0.87285
G1 X41.370 Y22.706 E0.93104
G1 X41.161 Y22.944 E0.98979
G1 X40.899 Y23.117 E1.04823
G1 X40.605 Y23.227 E1.10641
G1 X40.290 Y23.286 E1.16589
G1 X39.944 Y23.306 E1.23013
G1 X39.657 Y23.288 E1.28349
G1 X39.378 Y23.221 E1.33680
G1 X39.118 Y23.097 E1.39012
G1 X38.895 Y22.918 E1.44329
G1 X38.717 Y22.689 E1.49706
G1 X38.596 Y22.424 E1.55112
G1 X38.527 Y22.139 E1.60544
G1 X38.506 Y21.813 E1.66616
G92 E0
G1 X37.514 Y22.013 F1200.000
G1 F900.000
G1 X37.495 Y21.756 E0.04774
G1 X37.509 Y21.538 E0.08827
G1 X37.550 Y21.314 E0.13050
G1 X37.712 Y20.863 E0.21941
M73 P98 R0
M73 Q98 S0
G1 X37.970 Y20.426 E0.31358
G1 X38.124 Y20.229 E0.36009
G1 X38.511 Y19.843 E0.46144
