; generated by Slic3r 1.3.0 on 2022-02-12 at 21:02:38

; external perimeters extrusion width = 1.10mm (12.24mm^3/s)
; perimeters extrusion width = 1.07mm (23.56mm^3/s)
; infill extrusion width = 1.07mm (62.83mm^3/s)
; solid infill extrusion width = 1.07mm (15.71mm^3/s)
; top infill extrusion width = 1.07mm (11.78mm^3/s)

M107
M104 S5 ; set temperature
G28 ; home all axes
G1 E1.6 F30 ; lift nozzle

; Filament gcode

M109 S5 ; set temperature and wait for it to be reached
G21 ; set units to millimeters
G90 ; use absolute coordinates
M82 ; use absolute distances for extrusion
G92 E0
G1 Z1.000 F1800.000
G1 E-0.80000 F2400.00000
G92 E0
G1 X44.564 Y15.259 F1800.000
G1 E0.80000 F2400.00000
G1 F1800
G1 X46.216 Y12.019 E1.71852
G1 X46.533 Y11.283 E1.92097
G1 X46.678 Y10.877 E2.02980
G1 X46.831 Y10.287 E2.18367
G1 X46.935 Y9.674 E2.34074
G1 X47.065 Y8.254 E2.70110
G1 X47.096 Y8.043 E2.75492
G1 X47.159 Y7.856 E2.80472
G1 X47.225 Y7.748 E2.83669
G1 X47.337 Y7.652 E2.87410
G1 X47.538 Y7.559 E2.92980
G1 X47.748 Y7.538 E2.98306
G1 X48.068 Y7.579 E3.06464
G1 X48.219 Y7.864 E3.14607
G1 X48.315 Y8.190 E3.23193
G1 X48.354 Y8.432 E3.29382
G1 X48.373 Y8.736 E3.37089
G1 X48.368 Y9.028 E3.44459
G1 X48.305 Y9.644 E3.60103
G1 X48.205 Y10.254 E3.75730
G1 X48.067 Y10.838 E3.90880
G1 X47.798 Y11.682 E4.13243
G1 X46.921 Y13.848 E4.72273
G1 X48.587 Y13.906 E5.14390
G1 X48.799 Y13.960 E5.19903
G1 X48.946 Y14.095 E5.24951
G1 X49.025 Y14.205 E5.28386
G1 X49.206 Y14.581 E5.38921
G1 X49.002 Y14.923 E5.48967
G1 X48.849 Y15.121 E5.55293
G1 X48.489 Y15.482 E5.68165
G1 X48.202 Y15.706 E5.77356
G1 X47.909 Y15.904 E5.86305
G1 X47.268 Y16.282 E6.05108
G1 X45.557 Y17.166 E6.53742
G1 X46.778 Y18.709 E7.03456
G1 X47.169 Y19.261 E7.20520
G1 X47.517 Y19.830 E7.37369
G1 X47.828 Y20.421 E7.54249
G1 X48.102 Y21.029 E7.71080
G1 X48.217 Y21.336 E7.79370
G1 X48.289 Y21.602 E7.86331
G1 X48.347 Y22.039 E7.97465
G1 X47.985 Y22.257 E8.08142
G1 X47.772 Y22.328 E8.13803
G1 X47.426 Y22.342 E8.22549
G1 X47.147 Y21.998 E8.33754
G1 X46.119 Y20.153 E8.87082
G1 X44.593 Y17.709 E9.59860
G1 X44.248 Y19.076 E9.95462
G1 X43.274 Y18.913 E10.20411
G1 X43.367 Y17.820 E10.48117
G1 X43.393 Y17.127 E10.65614
G1 X43.362 Y15.938 E10.95673
G1 X43.240 Y14.784 E11.24969
G1 X43.097 Y14.032 E11.44307
G1 X44.063 Y13.778 E11.69554
G1 X44.516 Y15.117 E12.05244
G1 E11.25244 F2400.00000
G92 E0
G1 X43.382 Y12.923 F1800.000
G1 E0.80000 F2400.00000
G1 F1800
G1 X42.568 Y10.996 E1.58771
G1 X42.200 Y10.259 E1.89788
G1 X41.780 Y9.521 E2.21722
G1 X41.153 Y8.593 E2.63909
G1 X40.470 Y7.736 E3.05158
G1 X40.017 Y7.232 E3.30667
G1 X39.438 Y6.670 E3.61042
G1 X38.835 Y6.143 E3.91196
G1 X38.191 Y5.636 E4.22050
G1 X37.299 Y5.038 E4.62492
G1 X36.693 Y4.682 E4.88960
G1 X35.765 Y4.210 E5.28119
G1 X35.262 Y3.989 E5.48818
G1 X34.432 Y3.662 E5.82417
G1 F1800
G1 X33.630 Y3.406 E6.14733
G1 X33.528 Y3.402 E6.18675
G1 F1800
G1 X33.322 Y3.394 E6.26828
G1 F1800
G1 X33.117 Y3.385 E6.35266
G1 F1800
G1 X32.912 Y3.376 E6.43989
G1 F1800
G1 X32.707 Y3.368 E6.52996
G1 F1800
G1 X32.502 Y3.359 E6.62289
G1 F1800
G1 X32.297 Y3.351 E6.71866
G1 F1800
G1 X32.092 Y3.342 E6.81728
G1 F1800
G1 X32.046 Y3.352 E6.84055
G1 X31.974 Y3.304 F1800.000
G1 F1800
G1 X32.046 Y3.352 E6.88282
G1 X32.030 Y3.457 E6.93479
G1 F1800
G1 X32.014 Y3.562 E6.98575
G1 F1800
G1 X31.998 Y3.668 E7.03526
G1 F1800
G1 X31.983 Y3.773 E7.08331
G1 F1800
G1 X31.967 Y3.878 E7.12991
G1 F1800
G1 X31.951 Y3.983 E7.17506
G1 F1800
G1 X31.935 Y4.088 E7.21875
G1 F1800
G1 X31.920 Y4.193 E7.26099
G1 F1800
G1 X31.904 Y4.298 E7.30177
G1 F1800
G1 X31.888 Y4.403 E7.34110
G1 F1800
G1 X31.858 Y4.802 E7.48354
G1 F1800
G1 X31.855 Y8.057 E8.61779
G1 X31.834 Y8.206 E8.67030
G1 F1800
G1 X31.792 Y8.505 E8.77900
G1 F1800
G1 X31.750 Y8.803 E8.89127
G1 F1800
G1 X31.719 Y8.916 E8.93626
G1 X31.626 Y8.950 E8.97430
G1 F1800
G1 X31.534 Y8.976 E9.00989
G1 F1800
G1 X31.426 Y9.002 E9.05017
G1 F1800
G1 X31.317 Y9.029 E9.08902
G1 F1800
G1 X31.209 Y9.055 E9.12643
G1 F1800
G1 X31.100 Y9.081 E9.16240
G1 F1800
G1 X30.992 Y9.107 E9.19694
G1 F1800
G1 X30.777 Y9.122 E9.26100
G1 F1800
G1 X30.515 Y9.131 E9.33570
G1 F1800
G1 X29.979 Y9.116 E9.48272
G1 X29.600 Y9.077 E9.58733
G1 F1800
G1 X29.437 Y9.037 E9.63514
G1 F1800
G1 X29.329 Y8.998 E9.66925
G1 F1800
G1 X29.221 Y8.959 E9.70486
G1 F1800
G1 X29.114 Y8.920 E9.74199
G1 F1800
G1 X29.006 Y8.881 E9.78063
G1 F1800
G1 X28.899 Y8.843 E9.82077
G1 F1800
G1 X28.791 Y8.804 E9.86242
G1 F1800
G1 X28.737 Y8.784 E9.88400
G1 X28.687 Y8.827 F1800.000
G1 F1800
G1 X28.737 Y8.784 E9.90824
G1 X28.702 Y8.562 E9.99183
G1 F1800
G1 X28.673 Y8.273 E10.09657
G1 F1800
G1 X28.656 Y8.057 E10.17200
G1 X28.662 Y6.015 E10.88539
G1 X28.662 Y6.015 F1800.000
G1 F1800
G1 X28.667 Y4.318 E11.46392
G1 F1800
G1 X28.667 Y4.193 E11.50783
G1 F1800
G1 X28.667 Y4.069 E11.55343
G1 F1800
G1 X28.667 Y3.944 E11.60072
G1 F1800
G1 X28.667 Y3.819 E11.64970
G1 F1800
G1 X28.667 Y3.695 E11.70037
G1 F1800
G1 X28.667 Y3.570 E11.75274
G1 F1800
G1 X28.667 Y3.445 E11.80679
G1 F1800
G1 X28.667 Y3.320 E11.86254
G1 F1800
G1 X28.667 Y3.196 E11.91997
G1 X28.998 Y3.124 E12.07619
G1 F1800
G1 X29.219 Y3.075 E12.17725
G1 F1800
G1 X29.440 Y3.027 E12.27522
G1 F1800
G1 X29.661 Y2.979 E12.37011
G1 F1800
G1 X29.882 Y2.931 E12.46193
G1 F1800
G1 X30.034 Y2.908 E12.52222
G1 X30.585 Y2.925 E12.73862
G1 X30.686 Y2.951 E12.77954
G1 F1800
G1 X30.888 Y3.003 E12.86316
G1 F1800
G1 X31.090 Y3.055 E12.94959
G1 F1800
G1 X31.292 Y3.106 E13.03883
G1 F1800
G1 X31.494 Y3.158 E13.13088
G1 F1800
G1 X31.696 Y3.210 E13.22574
G1 F1800
G1 X31.898 Y3.261 E13.32342
G1 F1800
G1 X31.974 Y3.304 E13.36535
G1 E12.56535 F2400.00000
G92 E0
G1 X28.667 Y3.196 F1800.000
G1 E0.80000 F2400.00000
G1 F1800
G1 X28.449 Y3.148 E0.90411
G1 F1800
G1 X28.232 Y3.099 E1.00519
G1 F1800
G1 X28.015 Y3.051 E1.10323
G1 F1800
G1 X27.797 Y3.003 E1.19824
G1 F1800
G1 X27.580 Y2.955 E1.29021
G1 F1800
G1 X27.362 Y2.906 E1.37914
G1 F1800
G1 X4.624 Y2.907 E10.16058
G1 F1800
G1 X4.334 Y2.956 E10.27654
G1 F1800
G1 X4.044 Y3.006 E10.39668
G1 F1800
G1 X3.754 Y3.056 E10.52097
G1 F1800
G1 X3.552 Y3.104 E10.61138
G1 F1800
G1 X3.440 Y3.151 E10.66605
G1 F1800
G1 X3.383 Y3.174 E10.69409
G1 X3.334 Y3.415 E10.80738
G1 F1800
G1 X3.285 Y3.657 E10.91724
G1 F1800
G1 X3.236 Y3.898 E11.02369
G1 F1800
G1 X3.187 Y4.140 E11.12672
G1 F1800
G1 X3.138 Y4.381 E11.22633
G1 F1800
G1 X3.138 Y29.232 E20.92578
G1 X3.156 Y29.538 E21.04526
G1 X3.184 Y29.644 E21.08800
G1 F1800
G1 X3.239 Y29.855 E21.17538
G1 F1800
G1 X3.294 Y30.067 E21.26560
G1 F1800
G1 X3.349 Y30.279 E21.35864
G1 F1800
G1 X3.404 Y30.491 E21.45451
G1 F1800
G1 X3.460 Y30.703 E21.55320
G1 X3.809 Y30.771 E21.71369
G1 F1800
G1 X4.042 Y30.817 E21.81766
G1 F1800
G1 X4.275 Y30.862 E21.91859
G1 F1800
G1 X4.508 Y30.908 E22.01647
G1 F1800
G1 X4.625 Y30.930 E22.06390
G1 X27.367 Y30.940 E31.15122
G1 X27.474 Y30.917 E31.19531
G1 F1800
G1 X27.690 Y30.871 E31.28561
G1 F1800
G1 X27.906 Y30.825 E31.37881
G1 F1800
G1 X28.122 Y30.778 E31.47491
G1 F1800
G1 X28.338 Y30.732 E31.57391
G1 F1800
G1 X28.553 Y30.686 E31.67581
G1 F1800
G1 X28.661 Y30.663 E31.72821
G1 X28.661 Y30.540 E31.78653
G1 F1800
G1 X28.661 Y30.417 E31.84314
G1 F1800
G1 X28.661 Y30.294 E31.89804
G1 F1800
G1 X28.660 Y30.172 E31.95123
G1 F1800
G1 X28.660 Y30.049 E32.00270
G1 F1800
G1 X28.660 Y29.926 E32.05246
G1 F1800
G1 X28.660 Y29.803 E32.10050
G1 F1800
G1 X28.660 Y29.680 E32.14683
G1 F1800
G1 X28.659 Y29.557 E32.19145
G1 F1800
G1 X28.659 Y29.435 E32.23436
G1 F1800
G1 X28.661 Y25.808 E33.45052
G1 X28.679 Y25.594 E33.52244
G1 F1800
G1 X28.709 Y25.306 E33.62233
G1 F1800
G1 X28.733 Y25.157 E33.67622
G1 F1800
G1 X28.758 Y25.009 E33.73199
G1 X28.674 Y24.942 E33.77167
G1 F1800
G1 X28.601 Y24.885 E33.80504
G1 F1800
G1 X28.518 Y24.826 E33.84001
G1 F1800
G1 X28.427 Y24.765 E33.87643
G1 F1800
G1 X28.335 Y24.704 E33.91142
G1 F1800
G1 X28.244 Y24.644 E33.94499
G1 F1800
G1 X28.149 Y24.590 E33.97685
G1 F1800
G1 X27.867 Y24.468 E34.06392
G1 F1800
G1 X27.487 Y24.334 E34.17245
G1 F1800
G1 X27.131 Y24.206 E34.27054
G1 X26.525 Y23.950 E34.44067
G1 X25.727 Y23.506 E34.67698
G1 F1800
G1 X25.416 Y23.297 E34.77073
G1 X24.907 Y22.907 E34.93085
G1 X24.428 Y22.475 E35.09184
G1 X23.928 Y21.932 E35.27617
G1 X23.505 Y21.389 E35.44783
G1 X23.048 Y20.678 E35.65895
G1 X22.723 Y20.044 E35.83685
G1 X22.457 Y19.372 E36.01736
G1 F1800
G1 X22.272 Y18.721 E36.19104
G1 X22.182 Y18.270 E36.30913
G1 X22.107 Y17.703 E36.45610
G1 X22.077 Y17.090 E36.61365
G1 X22.094 Y16.535 E36.75641
G1 X22.165 Y15.839 E36.93598
G1 X22.222 Y15.484 E37.02847
G1 X22.444 Y14.577 E37.26816
G1 X22.614 Y14.074 E37.40467
G1 X22.893 Y13.428 E37.58547
G1 X23.285 Y12.730 E37.79092
G1 X23.613 Y12.254 E37.93944
G1 X23.871 Y11.926 E38.04657
G1 F1800
G1 X24.254 Y11.501 E38.18926
G1 X24.583 Y11.185 E38.30313
G1 X25.034 Y10.800 E38.45102
G1 X25.528 Y10.443 E38.60287
G1 X26.059 Y10.117 E38.75829
G1 X26.450 Y9.916 E38.86792
G1 X26.856 Y9.734 E38.97895
G1 X27.719 Y9.412 E39.20859
G1 F1800
G1 X27.925 Y9.329 E39.26639
G1 F1800
G1 X28.063 Y9.255 E39.30842
G1 F1800
G1 X28.162 Y9.191 E39.34175
G1 F1800
G1 X28.261 Y9.127 E39.37660
G1 F1800
G1 X28.360 Y9.063 E39.41298
G1 F1800
G1 X28.459 Y8.999 E39.45088
G1 F1800
G1 X28.558 Y8.935 E39.49030
G1 F1800
G1 X28.623 Y8.881 E39.51956
G1 F1800
G1 X28.687 Y8.827 E39.54992
G1 E38.74992 F2400.00000
G92 E0
G1 X31.719 Y8.916 F1800.000
G1 E0.80000 F2400.00000
G1 F1800
G1 X31.790 Y8.985 E0.83795
G1 F1800
G1 X31.861 Y9.055 E0.87452
G1 F1800
G1 X31.933 Y9.124 E0.90969
G1 F1800
G1 X32.004 Y9.194 E0.94348
G1 F1800
G1 X32.075 Y9.263 E0.97587
G1 F1800
G1 X32.146 Y9.332 E1.00687
G1 F1800
G1 X32.212 Y9.390 E1.03299
G1 F1800
G1 X32.318 Y9.461 E1.06981
G1 F1800
G1 X32.469 Y9.555 E1.11925
G1 F1800
G1 X32.620 Y9.650 E1.16650
G1 F1800
G1 X33.139 Y9.878 E1.31019
G1 X33.648 Y10.134 E1.45486
G1 F1800
G1 X34.050 Y10.365 E1.56883
G1 X34.600 Y10.739 E1.73281
G1 X35.322 Y11.358 E1.96713
G1 X35.633 Y11.684 E2.07820
G1 X36.093 Y12.238 E2.25558
G1 X36.628 Y13.033 E2.49161
G1 F1800
G1 X36.941 Y13.628 E2.66400
G1 X37.201 Y14.255 E2.83811
G1 X37.339 Y14.679 E2.95242
G1 X37.458 Y15.141 E3.07477
G1 X37.532 Y15.562 E3.18444
G1 X37.606 Y16.194 E3.34737
G1 X37.635 Y16.808 E3.50508
G1 X37.610 Y17.493 E3.68079
G1 X37.556 Y17.982 E3.80703
G1 X37.460 Y18.539 E3.95186
G1 X37.330 Y19.076 E4.09368
G1 X37.096 Y19.754 E4.27744
G1 X36.660 Y20.678 E4.53951
G1 X36.319 Y21.241 E4.70815
G1 X35.965 Y21.724 E4.86181
G1 F1800
G1 X35.728 Y22.014 E4.95496
G1 X35.274 Y22.501 E5.12054
G1 X34.767 Y22.949 E5.28862
G1 X34.216 Y23.361 E5.45954
G1 F1800
G1 X33.616 Y23.733 E5.64018
G1 X33.103 Y23.998 E5.78817
G1 X32.844 Y24.097 E5.85906
G1 F1800
G1 X32.586 Y24.234 E5.93746
G1 F1800
G1 X32.328 Y24.370 E6.01950
G1 F1800
G1 X32.228 Y24.442 E6.05543
G1 F1800
G1 X32.154 Y24.510 E6.08619
G1 F1800
G1 X32.081 Y24.578 E6.11836
G1 F1800
G1 X32.007 Y24.646 E6.15193
G1 F1800
G1 X31.934 Y24.715 E6.18692
G1 F1800
G1 X31.860 Y24.783 E6.22331
G1 F1800
G1 X31.787 Y24.851 E6.26111
G1 F1800
G1 X31.713 Y24.919 E6.30031
G1 X31.633 Y24.892 F1800.000
G1 F1800
G1 X31.713 Y24.919 E6.33292
G1 X31.759 Y25.105 E6.40654
G1 F1800
G1 X31.790 Y25.241 E6.45860
G1 F1800
G1 X31.827 Y25.553 E6.57283
G1 F1800
G1 X31.854 Y25.808 E6.66349
G1 X31.877 Y29.036 E7.80462
G1 X31.892 Y29.232 E7.87428
G1 F1800
G1 X31.916 Y29.482 E7.96534
G1 F1800
G1 X31.932 Y29.590 E8.00620
G1 F1800
G1 X31.949 Y29.697 E8.04855
G1 F1800
G1 X31.965 Y29.804 E8.09240
G1 F1800
G1 X31.981 Y29.912 E8.13774
G1 F1800
G1 X31.997 Y30.019 E8.18457
G1 F1800
G1 X32.014 Y30.127 E8.23290
G1 F1800
G1 X32.030 Y30.234 E8.28272
G1 F1800
G1 X32.046 Y30.341 E8.33403
G1 F1800
G1 X32.063 Y30.449 E8.38684
G1 X31.880 Y30.544 E8.48692
G1 F1800
G1 X31.759 Y30.608 E8.55192
G1 F1800
G1 X31.637 Y30.672 E8.61513
G1 F1800
G1 X31.516 Y30.736 E8.67656
G1 F1800
G1 X31.288 Y30.795 E8.77888
G1 F1800
G1 X31.060 Y30.855 E8.87842
G1 F1800
G1 X30.833 Y30.914 E8.97519
G1 F1800
G1 X30.109 Y30.939 E9.26410
G1 X29.952 Y30.939 E9.32707
G1 X29.844 Y30.916 E9.37097
G1 F1800
G1 X29.629 Y30.870 E9.46113
G1 F1800
G1 X29.414 Y30.824 E9.55415
G1 F1800
G1 X29.199 Y30.778 E9.65002
G1 F1800
G1 X28.984 Y30.732 E9.74874
G1 F1800
G1 X28.769 Y30.686 E9.85031
G1 F1800
G1 X28.661 Y30.663 E9.90252
G1 E9.10252 F2400.00000
G92 E0
G1 X32.063 Y30.449 F1800.000
G1 E0.80000 F2400.00000
G1 F1800
G1 X32.185 Y30.481 E0.86149
G1 F1800
G1 X32.312 Y30.503 E0.92250
G1 F1800
G1 X32.439 Y30.524 E0.98183
G1 F1800
G1 X32.628 Y30.525 E1.06607
G1 F1800
G1 X32.878 Y30.505 E1.17489
G1 F1800
G1 X33.128 Y30.485 E1.28050
G1 F1800
G1 X33.378 Y30.465 E1.38289
G1 F1800
G1 X33.628 Y30.445 E1.48207
G1 F1800
G1 X34.455 Y30.180 E1.81566
G1 X35.329 Y29.840 E2.17586
G1 F1800
G1 X35.848 Y29.607 E2.38908
G1 X36.594 Y29.224 E2.70357
G1 X37.485 Y28.690 E3.09290
G1 X38.236 Y28.162 E3.43717
G1 X38.878 Y27.649 E3.74528
G1 X39.347 Y27.237 E3.97914
G1 F1800
G1 X39.960 Y26.642 E4.30572
G1 X40.776 Y25.724 E4.77481
G1 X41.215 Y25.150 E5.05111
G1 X41.573 Y24.632 E5.29160
G1 X41.833 Y24.229 E5.47476
G1 X42.192 Y23.602 E5.75118
G1 X42.483 Y23.030 E5.99607
G1 X42.777 Y22.379 E6.26902
G1 X43.150 Y21.384 E6.67513
G1 E5.87513 F2400.00000
G92 E0
G1 X31.633 Y24.892 F1800.000
G1 E0.80000 F2400.00000
G1 F1800
G1 X31.545 Y24.862 E0.83438
G1 F1800
G1 X31.450 Y24.832 E0.87028
G1 F1800
G1 X31.295 Y24.806 E0.92434
G1 F1800
G1 X31.140 Y24.780 E0.97634
G1 F1800
G1 X30.985 Y24.754 E1.02627
G1 F1800
G1 X30.831 Y24.728 E1.07415
G1 F1800
G1 X30.676 Y24.703 E1.11997
G1 F1800
G1 X29.667 Y24.739 E1.40557
G1 F1800
G1 X29.537 Y24.777 E1.44566
G1 F1800
G1 X29.407 Y24.816 E1.48755
G1 F1800
G1 X29.277 Y24.854 E1.53124
G1 F1800
G1 X29.147 Y24.893 E1.57674
G1 F1800
G1 X29.018 Y24.931 E1.62404
G1 F1800
G1 X28.888 Y24.970 E1.67315
G1 F1800
G1 X28.758 Y25.009 E1.72406
G1 E0.92406 F2400.00000
G92 E0
G1 X18.791 Y13.874 F1800.000
G1 E0.80000 F2400.00000
G1 F1800
G1 X18.787 Y13.921 E0.81041
G1 F1800
G1 X18.775 Y13.978 E0.82399
G1 F1800
G1 X18.762 Y14.035 E0.83831
G1 F1800
G1 X18.749 Y14.092 E0.85338
G1 F1800
G1 X18.743 Y14.121 E0.86128
G1 X18.795 Y14.221 E0.89165
G1 F1800
G1 X18.938 Y14.562 E0.99550
G1 F1800
G1 X19.291 Y15.632 E1.32144
G1 X19.496 Y16.532 E1.58852
G1 X19.614 Y17.450 E1.85595
G1 X19.636 Y18.041 E2.02693
G1 X19.607 Y18.640 E2.20058
G1 F1800
G1 X19.578 Y19.003 E2.30305
G1 X19.485 Y19.599 E2.47311
G1 X19.368 Y20.123 E2.62462
G1 F1800
G1 X19.177 Y20.747 E2.81329
G1 X19.035 Y21.108 E2.92571
G1 X18.832 Y21.557 E3.06832
G1 X18.765 Y21.666 E3.10532
G1 F1800
G1 X18.707 Y21.679 E3.12178
G1 X18.765 Y21.666 F1800.000
G1 F1800
G1 X18.765 Y21.703 E3.13225
G1 F1800
G1 X18.766 Y21.719 E3.13639
G1 E2.33639 F2400.00000
G92 E0
G1 X33.054 Y15.714 F1800.000
G1 E0.80000 F2400.00000
G1 F1800
G1 X33.039 Y15.987 E0.88586
G1 F1800
G1 X33.001 Y16.199 E0.95180
G1 X32.922 Y16.451 E1.03235
G1 X32.739 Y16.809 E1.15553
G1 X32.451 Y17.161 E1.29458
G1 X32.204 Y17.367 E1.39297
G1 X31.973 Y17.508 E1.47565
G1 F1800
G1 X31.731 Y17.617 E1.55905
G1 X31.407 Y17.708 E1.66482
G1 X31.046 Y17.742 E1.77841
G1 X30.599 Y17.690 E1.91982
G1 F1800
G1 X30.342 Y17.607 E2.00277
G1 X30.120 Y17.503 E2.07776
G1 X29.778 Y17.269 E2.20445
G1 X29.620 Y17.128 E2.26937
G1 X29.413 Y16.880 E2.36841
G1 X29.206 Y16.511 E2.49799
G1 F1800
G1 X29.152 Y16.394 E2.53845
G1 X29.065 Y16.095 E2.63649
G1 X29.029 Y15.644 E2.77891
G1 F1800
G1 X29.055 Y15.419 E2.84993
G1 F1800
G1 X29.167 Y15.002 E2.98182
G1 F1800
G1 X29.355 Y14.634 E3.10474
G1 X29.569 Y14.357 E3.20918
G1 X29.708 Y14.223 E3.26671
G1 F1800
G1 X29.922 Y14.051 E3.35045
G1 X30.161 Y13.912 E3.43468
G1 F1800
G1 X30.455 Y13.800 E3.53350
G1 X30.738 Y13.731 E3.62504
G1 X30.952 Y13.712 E3.69257
G1 X31.406 Y13.749 E3.83553
G1 X31.733 Y13.835 E3.94186
G1 F1800
G1 X32.065 Y13.986 E4.05325
G1 X32.455 Y14.282 E4.20307
G1 X32.683 Y14.547 E4.31001
G1 X32.862 Y14.848 E4.41690
G1 X32.954 Y15.091 E4.49649
G1 F1800
G1 X33.016 Y15.311 E4.56816
G1 X33.046 Y15.564 E4.64816
G1 E3.84816 F2400.00000
G92 E0
; Filament-specific end gcode 
;END gcode for filament

M104 S0 ; turn off temperature
G28 X0  ; home X axis
M84     ; disable motors

M140 S0 ; set bed temperature
; filament used = 84.7mm (0.6cm3)
; total filament cost = 0.0

