; generated by PrusaSlicer 2.3.3+win64 on 2022-02-06 at 04:36:30 UTC

; 

; external perimeters extrusion width = 4.50mm
; perimeters extrusion width = 4.50mm
; infill extrusion width = 4.50mm
; solid infill extrusion width = 4.50mm
; top infill extrusion width = 4.00mm
; first layer extrusion width = 0.50mm

M73 P0 R1
M73 Q0 S1
M201 X400 Y400 Z400 E400 ; sets maximum accelerations, mm/sec^2
M203 X40 Y40 Z40 E50 ; sets maximum feedrates, mm/sec
M204 P400 R400 T400 ; sets acceleration (P, T) and retract acceleration (R), mm/sec^2
M205 X8.00 Y8.00 Z0.40 E4.50 ; sets the jerk limits, mm/sec
M205 S0 T0 ; sets the minimum extruding and travel feed rate, mm/sec
M107
M104 S200 ; set temperature
;TYPE:Custom
G90 ; use absolute coordinates
M83 ; extruder relative mode
G28
G1 E1.5
G92 E0.0
M109 S200 ; set temperature and wait for it to be reached
G21 ; set units to millimeters
G90 ; use absolute coordinates
M82 ; use absolute distances for extrusion
G92 E0
; Filament gcode
;LAYER_CHANGE
;Z:0.5
;HEIGHT:0.5
;BEFORE_LAYER_CHANGE
;
;WITNESS ME
;AND DELETE AFTER HERE FOR PANCAKES
;
G92 E0.0
;0.5


G1 Z0.500 F1200.000
;AFTER_LAYER_CHANGE
;0.5
G1 X26.180 Y14.397
;TYPE:External perimeter
;WIDTH:0.5
M73 P3 R1
M73 Q3 S1
G1 F900.000
G1 X26.370 Y14.126 E0.02702
G1 X26.773 Y13.622 E0.07968
G1 X27.217 Y13.158 E0.13208
G1 X27.458 Y12.937 E0.15881
G1 X27.958 Y12.537 E0.21109
G1 X28.495 Y12.181 E0.26370
G1 X29.065 Y11.873 E0.31656
G1 X29.663 Y11.618 E0.36962
M73 P4 R1
M73 Q4 S1
G1 X29.979 Y11.507 E0.39694
G1 X30.617 Y11.332 E0.45097
G1 X31.282 Y11.212 E0.50616
G1 X31.990 Y11.151 E0.56414
G1 X32.914 Y11.167 E0.63961
G1 X33.526 Y11.234 E0.68982
G1 X34.144 Y11.348 E0.74115
G1 X34.770 Y11.509 E0.79393
G1 X35.232 Y11.660 E0.83361
G1 X35.672 Y11.831 E0.87216
G1 X36.091 Y12.023 E0.90977
G1 X36.489 Y12.235 E0.94652
M73 P5 R1
M73 Q5 S1
G1 X36.868 Y12.467 E0.98282
G1 X37.550 Y12.974 E1.05223
G1 X37.868 Y13.259 E1.08708
G1 X38.428 Y13.857 E1.15396
G1 X38.906 Y14.508 E1.21990
G1 X39.303 Y15.199 E1.28495
G1 X39.618 Y15.923 E1.34941
G1 X39.855 Y16.671 E1.41345
G1 X40.013 Y17.436 E1.47718
G1 X40.094 Y18.209 E1.54062
M73 P6 R1
M73 Q6 S1
G1 X40.101 Y18.982 E1.60377
G1 X40.034 Y19.749 E1.66659
G1 X39.894 Y20.501 E1.72901
G1 X39.682 Y21.230 E1.79101
G1 X39.401 Y21.927 E1.85234
G1 X39.111 Y22.501 E1.90489
G1 X38.793 Y23.035 E1.95557
G1 X38.447 Y23.529 E2.00485
G1 X38.073 Y23.983 E2.05284
M73 P7 R1
M73 Q7 S1
G1 X37.803 Y24.269 E2.08496
G1 X37.235 Y24.778 E2.14724
G1 X36.614 Y25.218 E2.20933
G1 X35.945 Y25.584 E2.27166
G1 X35.227 Y25.878 E2.33495
G1 X34.463 Y26.100 E2.39989
G1 X33.653 Y26.249 E2.46711
G1 X32.801 Y26.326 E2.53697
G1 X32.347 Y26.339 E2.57402
G1 X31.261 Y26.267 E2.66287
M73 P8 R1
M73 Q8 S1
G1 X30.863 Y26.204 E2.69579
G1 X30.094 Y26.010 E2.76052
G1 X29.369 Y25.745 E2.82350
G1 X28.690 Y25.411 E2.88527
G1 X28.057 Y25.011 E2.94641
G1 X27.471 Y24.546 E3.00749
G1 X26.931 Y24.020 E3.06903
G1 X26.437 Y23.436 E3.13150
G1 X25.989 Y22.794 E3.19538
M73 P9 R1
M73 Q9 S1
G1 X25.640 Y22.183 E3.25283
G1 X25.355 Y21.554 E3.30916
G1 X25.135 Y20.910 E3.36475
G1 X24.979 Y20.254 E3.41977
G1 X24.923 Y19.914 E3.44789
G1 X24.860 Y19.241 E3.50314
G1 X24.858 Y18.554 E3.55922
G1 X24.916 Y17.858 E3.61622
G1 X25.030 Y17.166 E3.67341
G1 X25.109 Y16.825 E3.70204
G1 X25.303 Y16.174 E3.75748
M73 P10 R1
M73 Q10 S1
G1 X25.548 Y15.549 E3.81228
G1 X25.869 Y14.910 E3.87065
G92 E0
G1 X29.260 Y4.831 F1200.000
M73 P11 R1
M73 Q11 S1
G1 F900.000
G1 X30.010 Y4.831 E0.06125
G1 X29.971 Y9.721 E0.46050
M73 P12 R1
M73 Q12 S1
G1 X28.404 Y10.392 E0.59968
G1 X27.933 Y10.640 E0.64307
G1 X27.309 Y11.030 E0.70319
G1 X26.726 Y11.449 E0.76178
G1 X26.184 Y11.897 E0.81919
G1 X25.683 Y12.374 E0.87566
G1 X25.225 Y12.881 E0.93141
M73 P13 R1
M73 Q13 S1
G1 X24.811 Y13.417 E0.98674
G1 X24.440 Y13.982 E1.04192
G1 X24.114 Y14.576 E1.09718
G1 X23.774 Y15.351 E1.16627
G1 X23.504 Y16.168 E1.23652
G1 X23.305 Y17.030 E1.30878
G1 X23.233 Y17.471 E1.34525
G1 X23.148 Y18.289 E1.41235
G1 X23.131 Y18.998 E1.47027
M73 P14 R1
M73 Q14 S1
G1 X23.167 Y19.697 E1.52736
G1 X23.257 Y20.383 E1.58387
G1 X23.400 Y21.056 E1.64007
G1 X23.597 Y21.716 E1.69626
G1 X23.847 Y22.361 E1.75272
G1 X24.151 Y22.990 E1.80974
G1 X24.513 Y23.610 E1.86835
G1 X24.950 Y24.241 E1.93101
G1 X25.444 Y24.852 E1.99517
G1 X25.976 Y25.416 E2.05846
M73 P15 R1
M73 Q15 S1
G1 X26.545 Y25.933 E2.12118
G1 X27.150 Y26.401 E2.18366
G1 X27.791 Y26.821 E2.24622
G1 X28.468 Y27.191 E2.30918
G1 X29.180 Y27.511 E2.37292
G1 X30.017 Y27.818 E2.44569
G1 X30.012 Y32.665 E2.84139
M73 P16 R1
M73 Q16 S1
G1 X4.704 Y32.665 E4.90741
M73 P20 R1
M73 Q20 S1
G1 X4.704 Y4.836 E7.17918
M73 P24 R1
M73 Q24 S1
G1 X28.660 Y4.831 E9.13480
G92 E0
M73 P27 R1
M73 Q27 S1
G1 X32.353 Y4.823 F1200.000
M73 P28 R1
M73 Q28 S1
G1 F900.000
G1 X33.455 Y4.868 E0.09002
G1 X33.446 Y9.343 E0.45535
G1 X32.363 Y9.343 E0.54379
M73 P29 R1
M73 Q29 S1
G1 X32.354 Y5.423 E0.86380
G92 E0
G1 X35.871 Y5.422 F1200.000
M73 P30 R1
M73 Q30 S1
G1 F900.000
G1 X35.871 Y5.205 E0.01776
G1 X37.262 Y5.638 E0.13671
G1 X38.320 Y6.069 E0.22995
G1 X39.348 Y6.590 E0.32406
G1 X39.855 Y6.888 E0.37204
G1 X40.825 Y7.544 E0.46766
G1 X41.747 Y8.286 E0.56422
M73 P31 R1
M73 Q31 S1
G1 X42.189 Y8.691 E0.61321
G1 X42.614 Y9.115 E0.66222
G1 X43.022 Y9.560 E0.71151
G1 X43.414 Y10.027 E0.76127
G1 X44.084 Y10.939 E0.85364
G1 X44.639 Y11.840 E0.94000
G1 X45.128 Y12.792 E1.02741
G1 X45.348 Y13.295 E1.07221
G1 X45.728 Y14.329 E1.16211
M73 P32 R1
M73 Q32 S1
G1 X46.029 Y15.418 E1.25433
G1 X46.246 Y16.558 E1.34906
G1 X46.373 Y17.748 E1.44678
G1 X46.404 Y18.985 E1.54782
G1 X46.378 Y19.694 E1.60572
G1 X46.319 Y20.387 E1.66252
G1 X46.228 Y21.067 E1.71848
M73 P33 R1
M73 Q33 S1
G1 X46.106 Y21.732 E1.77369
G1 X45.954 Y22.383 E1.82821
G1 X45.774 Y23.018 E1.88211
G1 X45.565 Y23.637 E1.93546
G1 X45.330 Y24.240 E1.98832
G1 X45.068 Y24.827 E2.04074
G1 X44.782 Y25.396 E2.09276
G1 X44.471 Y25.947 E2.14444
G1 X44.137 Y26.481 E2.19581
G1 X43.781 Y26.996 E2.24691
G1 X43.403 Y27.491 E2.29777
M73 P34 R1
M73 Q34 S1
G1 X43.006 Y27.967 E2.34841
G1 X42.588 Y28.425 E2.39899
G1 X41.910 Y29.087 E2.47639
G1 X41.192 Y29.698 E2.55336
G1 X40.814 Y29.988 E2.59215
G1 X40.043 Y30.519 E2.66863
G1 X39.238 Y30.996 E2.74500
G1 X38.408 Y31.415 E2.82092
M73 P35 R1
M73 Q35 S1
G1 X37.978 Y31.605 E2.85924
G1 X37.113 Y31.934 E2.93482
G1 X35.918 Y32.295 E3.03677
M73 P35 R0
M73 Q35 S0
G1 X35.855 Y27.875 E3.39762
M73 P36 R0
M73 Q36 S0
G1 X35.883 Y27.451 E3.43236
G1 X36.381 Y27.267 E3.47567
G1 X37.011 Y26.914 E3.53460
G1 X37.705 Y26.469 E3.60195
G1 X38.355 Y25.982 E3.66825
G1 X38.959 Y25.453 E3.73375
G1 X39.512 Y24.883 E3.79860
G1 X40.015 Y24.272 E3.86324
G1 X40.242 Y23.957 E3.89493
G1 X40.661 Y23.287 E3.95940
M73 P37 R0
M73 Q37 S0
G1 X41.020 Y22.582 E4.02401
G1 X41.266 Y21.980 E4.07707
G1 X41.469 Y21.354 E4.13079
G1 X41.628 Y20.706 E4.18527
G1 X41.740 Y20.036 E4.24072
G1 X41.806 Y19.345 E4.29737
G1 X41.823 Y18.634 E4.35541
G1 X41.790 Y17.904 E4.41507
G1 X41.707 Y17.157 E4.47649
G1 X41.605 Y16.604 E4.52233
M73 P38 R0
M73 Q38 S0
G1 X41.464 Y16.071 E4.56740
G1 X41.287 Y15.553 E4.61203
G1 X41.076 Y15.052 E4.65642
G1 X40.833 Y14.567 E4.70072
G1 X40.562 Y14.096 E4.74504
G1 X40.266 Y13.642 E4.78934
G1 X39.765 Y12.970 E4.85778
G1 X39.203 Y12.321 E4.92784
G1 X38.809 Y11.929 E4.97323
G1 X38.392 Y11.564 E5.01844
G1 X37.956 Y11.226 E5.06349
G1 X37.500 Y10.914 E5.10853
M73 P39 R0
M73 Q39 S0
G1 X37.026 Y10.630 E5.15368
G1 X36.534 Y10.372 E5.19907
G1 X35.871 Y10.070 E5.25849
G1 X35.871 Y6.022 E5.58892
G92 E0
G1 X33.452 Y28.210 F1200.000
M73 P42 R0
M73 Q42 S0
G1 F900.000
G1 X33.452 Y32.660 E0.36324
M73 P43 R0
M73 Q43 S0
G1 X32.333 Y32.660 E0.45462
G1 X32.333 Y28.210 E0.81786
G1 X32.852 Y28.210 E0.86026
G92 E0
G1 X48.149 Y13.220 F1200.000
M73 P46 R0
M73 Q46 S0
G1 F900.000
G1 X48.681 Y14.792 E0.13549
G1 X49.564 Y13.060 E0.29424
G1 X49.889 Y12.306 E0.36121
G1 X50.025 Y11.925 E0.39426
M73 P47 R0
M73 Q47 S0
G1 X50.173 Y11.352 E0.44254
G1 X50.275 Y10.751 E0.49236
G1 X50.412 Y9.257 E0.61483
G1 X50.568 Y8.986 E0.64036
G1 X50.634 Y8.733 E0.66172
G1 X50.740 Y8.485 E0.68373
G1 X50.756 Y8.265 E0.70176
G1 X50.961 Y8.040 E0.72659
G1 X51.304 Y7.824 E0.75967
G1 X51.688 Y7.708 E0.79241
G1 X52.006 Y7.691 E0.81844
G1 X52.350 Y7.864 E0.84982
G1 X52.798 Y8.195 E0.89530
G1 X52.910 Y8.318 E0.90888
G1 X53.094 Y8.619 E0.93771
G1 X53.376 Y9.488 E1.01228
M73 P48 R0
M73 Q48 S0
G1 X53.519 Y9.857 E1.04458
G1 X53.512 Y10.205 E1.07302
G1 X53.439 Y10.938 E1.13310
G1 X53.320 Y11.658 E1.19272
G1 X53.155 Y12.354 E1.25110
G1 X52.843 Y13.336 E1.33518
G1 X52.316 Y14.634 E1.44959
G1 X52.863 Y14.624 E1.49420
G1 X53.202 Y14.672 E1.52220
M73 P49 R0
M73 Q49 S0
G1 X53.362 Y14.722 E1.53580
G1 X53.559 Y14.812 E1.55351
G1 X53.822 Y15.005 E1.58014
G1 X54.025 Y15.233 E1.60505
G1 X54.189 Y15.504 E1.63091
G1 X54.354 Y15.864 E1.66325
G1 X54.354 Y16.569 E1.72080
G1 X54.061 Y17.059 E1.76738
G1 X53.841 Y17.345 E1.79683
G1 X53.601 Y17.604 E1.82565
G1 X53.350 Y17.836 E1.85357
G1 X52.987 Y18.121 E1.89122
G1 X52.620 Y18.369 E1.92740
G1 X51.879 Y18.805 E1.99760
G1 X50.899 Y19.311 E2.08761
M73 P50 R0
M73 Q50 S0
G1 X51.612 Y20.212 E2.18138
G1 X52.067 Y20.855 E2.24567
G1 X52.476 Y21.523 E2.30959
G1 X52.840 Y22.214 E2.37341
G1 X53.161 Y22.926 E2.43715
G1 X53.310 Y23.326 E2.47198
G1 X53.413 Y23.709 E2.50434
G1 X53.456 Y24.030 E2.53079
G1 X53.432 Y24.355 E2.55743
G1 X53.329 Y24.668 E2.58427
G1 X53.151 Y24.947 E2.61135
G1 X53.013 Y25.088 E2.62741
G1 X52.762 Y25.272 E2.65279
M73 P51 R0
M73 Q51 S0
G1 X52.386 Y25.441 E2.68644
G1 X52.133 Y25.502 E2.70768
G1 X51.773 Y25.517 E2.73712
G1 X51.587 Y25.490 E2.75244
G1 X51.406 Y25.436 E2.76789
G1 X51.232 Y25.356 E2.78350
G1 X51.071 Y25.252 E2.79916
G1 X50.798 Y24.990 E2.83006
G1 X50.644 Y24.781 E2.85122
G1 X49.495 Y22.719 E3.04393
G1 X48.887 Y21.745 E3.13769
G1 X48.530 Y23.160 E3.25687
M73 P52 R0
M73 Q52 S0
G1 X48.280 Y23.979 E3.32676
G1 X47.994 Y24.776 E3.39589
G1 X47.672 Y25.550 E3.46433
G1 X47.204 Y26.512 E3.55167
G1 X46.676 Y27.436 E3.63850
G1 X46.089 Y28.321 E3.72524
G1 X45.442 Y29.171 E3.81240
M73 P53 R0
M73 Q53 S0
G1 X45.100 Y29.577 E3.85576
G1 X44.366 Y30.369 E3.94389
G1 X43.576 Y31.122 E4.03302
G1 X43.163 Y31.481 E4.07767
G1 X42.288 Y32.176 E4.16887
G1 X41.584 Y32.675 E4.23928
G1 X40.861 Y33.131 E4.30905
G1 X40.120 Y33.546 E4.37842
M73 P54 R0
M73 Q54 S0
G1 X39.361 Y33.922 E4.44757
G1 X38.584 Y34.260 E4.51669
G1 X37.792 Y34.561 E4.58592
G1 X36.983 Y34.828 E4.65541
G1 X36.157 Y35.063 E4.72551
G1 X35.307 Y35.248 E4.79656
G1 X34.458 Y35.370 E4.86655
G1 X33.615 Y35.435 E4.93560
M73 P55 R0
M73 Q55 S0
G1 X32.771 Y35.455 E5.00456
G1 X3.378 Y35.429 E7.40397
M73 P59 R0
M73 Q59 S0
G1 X3.158 Y35.415 E7.42198
G1 X2.837 Y35.333 E7.44898
G1 X2.690 Y35.265 E7.46223
G1 X2.441 Y35.077 E7.48765
G1 X2.252 Y34.837 E7.51262
G1 X2.124 Y34.535 E7.53942
G1 X2.071 Y34.229 E7.56475
G1 X1.997 Y32.580 E7.69954
G1 X1.960 Y32.279 E7.72426
G1 X1.960 Y2.523 E10.15330
M73 P64 R0
M73 Q64 S0
G1 X2.390 Y2.523 E10.18845
G1 X2.678 Y2.342 E10.21620
G1 X3.015 Y2.207 E10.24584
G1 X3.378 Y2.137 E10.27600
G1 X3.892 Y2.118 E10.31801
G1 X32.640 Y2.123 E12.66482
M73 P68 R0
M73 Q68 S0
G1 X34.858 Y2.169 E12.84591
M73 P69 R0
M73 Q69 S0
G1 X35.096 Y2.199 E12.86545
G1 X37.312 Y2.830 E13.05356
G1 X37.940 Y3.048 E13.10786
G1 X38.905 Y3.438 E13.19281
G1 X39.830 Y3.868 E13.27602
G1 X40.713 Y4.337 E13.35770
G1 X41.557 Y4.847 E13.43820
M73 P70 R0
M73 Q70 S0
G1 X41.960 Y5.114 E13.47767
G1 X42.722 Y5.668 E13.55455
G1 X43.115 Y5.981 E13.59559
G1 X43.834 Y6.609 E13.67351
G1 X44.512 Y7.275 E13.75108
G1 X44.843 Y7.633 E13.79088
G1 X45.478 Y8.386 E13.87125
G1 X46.065 Y9.177 E13.95172
G1 X46.608 Y10.008 E14.03273
M73 P71 R0
M73 Q71 S0
G1 X47.104 Y10.878 E14.11453
G1 X47.556 Y11.787 E14.19738
G1 X47.931 Y12.661 E14.27499
G92 E0
G1 X21.452 Y15.775 F1200.000
M73 P74 R0
M73 Q74 S0
G1 F900.000
G1 X21.690 Y16.391 E0.05392
G1 X21.997 Y17.460 E0.14473
G1 X22.197 Y18.544 E0.23470
G1 X22.286 Y19.633 E0.32390
M73 P75 R0
M73 Q75 S0
G1 X22.282 Y20.370 E0.38406
G1 X22.226 Y21.112 E0.44478
G1 X22.179 Y21.478 E0.47490
G1 X21.985 Y22.491 E0.55913
G1 X21.809 Y23.119 E0.61235
G1 X21.704 Y23.422 E0.63853
G1 X21.441 Y24.028 E0.69241
G1 X21.213 Y24.431 E0.73022
G1 X21.039 Y24.633 E0.75199
G1 X20.943 Y24.712 E0.76216
G1 X20.677 Y24.846 E0.78648
G1 X20.523 Y24.887 E0.79946
G1 X20.252 Y24.915 E0.82177
G1 X19.938 Y24.784 E0.84952
G1 X19.630 Y24.536 E0.88183
M73 P76 R0
M73 Q76 S0
G1 X19.466 Y24.286 E0.90621
G1 X19.417 Y24.068 E0.92443
G1 X19.433 Y23.813 E0.94532
G1 X19.466 Y23.682 E0.95632
G1 X19.924 Y22.558 E1.05542
G1 X20.121 Y21.917 E1.11022
G1 X20.200 Y21.588 E1.13778
G1 X20.311 Y20.944 E1.19111
G1 X20.345 Y20.613 E1.21832
G1 X20.370 Y19.960 E1.27164
G1 X20.338 Y19.303 E1.32536
G1 X20.299 Y18.966 E1.35303
G1 X20.181 Y18.302 E1.40809
G1 X20.007 Y17.633 E1.46450
M73 P77 R0
M73 Q77 S0
G1 X19.458 Y15.883 E1.61422
G1 X19.427 Y15.670 E1.63178
G1 X19.436 Y15.545 E1.64207
G1 X19.520 Y15.302 E1.66302
G1 X19.612 Y15.168 E1.67631
G1 X19.728 Y15.048 E1.68992
G1 X19.863 Y14.944 E1.70384
G1 X20.159 Y14.788 E1.73118
G1 X20.256 Y14.759 E1.73944
G1 X20.467 Y14.743 E1.75668
G1 X20.612 Y14.766 E1.76869
G1 X20.720 Y14.808 E1.77810
G1 X20.818 Y14.868 E1.78749
G1 X21.019 Y15.069 E1.81072
G1 X21.146 Y15.260 E1.82943
G92 E0
G1 X32.670 Y17.188 F1200.000
M73 P79 R0
M73 Q79 S0
G1 F900.000
G1 X32.720 Y16.980 E0.01751
G1 X32.806 Y16.791 E0.03444
G1 X32.931 Y16.631 E0.05101
G1 X33.086 Y16.506 E0.06732
G1 X33.271 Y16.418 E0.08396
G1 X33.491 Y16.368 E0.10246
G1 X33.948 Y16.371 E0.13974
G1 X34.192 Y16.416 E0.16002
G1 X34.414 Y16.499 E0.17930
G1 X34.671 Y16.694 E0.20565
G1 X34.831 Y16.973 E0.23193
G1 X34.885 Y17.201 E0.25104
G1 X34.899 Y17.440 E0.27057
G1 X34.881 Y17.690 E0.29102
G1 X34.829 Y17.917 E0.31004
G1 X34.735 Y18.121 E0.32835
G1 X34.597 Y18.294 E0.34642
G1 X34.419 Y18.425 E0.36451
G1 X34.211 Y18.512 E0.38292
G1 X33.980 Y18.559 E0.40213
G1 X33.724 Y18.572 E0.42303
G1 X33.498 Y18.553 E0.44156
G1 X33.285 Y18.492 E0.45967
G1 X33.094 Y18.389 E0.47735
G1 X32.933 Y18.248 E0.49486
G1 X32.807 Y18.073 E0.51243
G1 X32.698 Y17.784 E0.53769
G92 E0
G1 X30.561 Y18.081 F1200.000
M73 P80 R0
M73 Q80 S0
G1 F900.000
G1 X30.501 Y17.678 E0.03328
G1 X30.493 Y17.479 E0.04960
G1 X30.502 Y17.264 E0.06714
G1 X30.571 Y16.832 E0.10286
G1 X30.625 Y16.636 E0.11948
G1 X30.779 Y16.237 E0.15433
G1 X30.979 Y15.864 E0.18892
G1 X31.104 Y15.673 E0.20755
G1 X31.401 Y15.300 E0.24646
G1 X31.557 Y15.137 E0.26492
G1 X31.917 Y14.826 E0.30371
G1 X32.105 Y14.693 E0.32250
G1 X32.302 Y14.571 E0.34141
G1 X32.644 Y14.399 E0.37270
G1 X33.186 Y14.223 E0.41924
M73 P81 R0
M73 Q81 S0
G1 X33.580 Y14.167 E0.45166
G1 X33.774 Y14.161 E0.46750
G1 X34.004 Y14.173 E0.48636
G1 X34.466 Y14.250 E0.52459
G1 X34.943 Y14.407 E0.56554
G1 X35.427 Y14.657 E0.61002
G1 X35.641 Y14.803 E0.63112
G1 X36.049 Y15.156 E0.67523
G1 X36.397 Y15.564 E0.71903
G1 X36.670 Y16.002 E0.76111
G1 X36.777 Y16.225 E0.78134
G1 X36.949 Y16.725 E0.82444
G1 X37.001 Y16.971 E0.84498
G1 X37.047 Y17.512 E0.88932
G1 X37.040 Y17.708 E0.90537
G1 X36.976 Y18.119 E0.93930
G1 X36.927 Y18.305 E0.95502
G1 X36.784 Y18.684 E0.98808
M73 P82 R0
M73 Q82 S0
G1 X36.597 Y19.039 E1.02083
G1 X36.339 Y19.412 E1.05785
G1 X36.031 Y19.758 E1.09564
G1 X35.682 Y20.062 E1.13343
G1 X35.305 Y20.315 E1.17047
G1 X34.950 Y20.497 E1.20311
G1 X34.571 Y20.637 E1.23604
G1 X34.385 Y20.685 E1.25171
G1 X33.976 Y20.745 E1.28550
G1 X33.567 Y20.744 E1.31888
G1 X33.147 Y20.678 E1.35359
G1 X32.956 Y20.627 E1.36969
G1 X32.569 Y20.479 E1.40353
G1 X32.206 Y20.286 E1.43707
G1 X32.015 Y20.161 E1.45572
G1 X31.832 Y20.026 E1.47427
G1 X31.486 Y19.716 E1.51220
G1 X31.181 Y19.365 E1.55012
M73 P83 R0
M73 Q83 S0
G1 X31.049 Y19.181 E1.56865
G1 X30.753 Y18.649 E1.61833
;LAYER_CHANGE
;Z:1
;HEIGHT:0.5
;BEFORE_LAYER_CHANGE
;
;WITNESS ME
;AND DELETE AFTER HERE FOR PANCAKES
;
G92 E0.0
;1


G1 Z1.000 F1200.000
;AFTER_LAYER_CHANGE
;1
G92 E0
G1 X50.037 Y16.535
;WIDTH:4.5
M73 P85 R0
M73 Q85 S0
G1 F600
G1 X51.675 Y16.593 E1.49712
G1 X50.911 Y17.054 E2.31187
G1 X49.365 Y17.852 E3.90053
M73 P86 R0
M73 Q86 S0
G1 X49.764 Y17.070 E4.70229
;LAYER_CHANGE
;Z:1.5
;HEIGHT:0.5
;BEFORE_LAYER_CHANGE
;
