; generated by Slic3r 1.3.0 on 2022-02-12 at 17:24:54

; external perimeters extrusion width = 1.10mm (12.24mm^3/s)
; perimeters extrusion width = 1.07mm (23.56mm^3/s)
; infill extrusion width = 1.07mm (62.83mm^3/s)
; solid infill extrusion width = 1.07mm (15.71mm^3/s)
; top infill extrusion width = 1.07mm (11.78mm^3/s)

M107
M104 S5 ; set temperature
G28 ; home all axes
G1 E1.6 F30 ; lift nozzle

; Filament gcode

M109 S5 ; set temperature and wait for it to be reached
G21 ; set units to millimeters
G90 ; use absolute coordinates
M82 ; use absolute distances for extrusion
G92 E0
G1 Z1.000 F1800.000
G1 E-0.60000 F2400.00000
G92 E0
G1 X6.138 Y16.920 F1800.000
G1 E0.60000 F2400.00000
G1 F1800
G1 X6.483 Y15.553 E0.95602
G1 X7.457 Y15.717 E1.20551
G1 X7.364 Y16.809 E1.48257
G1 X7.338 Y17.492 E1.65505
G1 X7.342 Y18.108 E1.81068
G1 X7.418 Y19.274 E2.10575
G1 X7.617 Y20.614 E2.44789
G1 X6.665 Y20.843 E2.69523
G1 X6.166 Y19.370 E3.08793
G1 X4.515 Y22.610 E4.00645
G1 X4.197 Y23.346 E4.20889
G1 X4.053 Y23.752 E4.31773
G1 X3.900 Y24.342 E4.47159
G1 X3.795 Y24.955 E4.62867
G1 X3.666 Y26.376 E4.98903
G1 X3.583 Y26.778 E5.09283
G1 X3.377 Y27.004 E5.17007
G1 X3.194 Y27.069 E5.21920
G1 X2.984 Y27.091 E5.27249
G1 X2.662 Y27.050 E5.35434
G1 X2.480 Y26.683 E5.45799
G1 X2.377 Y26.198 E5.58334
G1 X2.358 Y25.908 E5.65657
G1 X2.390 Y25.287 E5.81375
G1 X2.528 Y24.368 E6.04850
G1 X2.664 Y23.791 E6.19818
G1 X2.933 Y22.947 E6.42181
G1 X3.810 Y20.781 E7.01211
G1 X2.144 Y20.723 E7.43328
G1 X1.932 Y20.669 E7.48841
G1 X1.785 Y20.534 E7.53890
G1 X1.705 Y20.424 E7.57324
G1 X1.525 Y20.048 E7.67859
G1 X1.728 Y19.706 E7.77905
G1 X1.881 Y19.508 E7.84231
G1 X2.242 Y19.148 E7.97103
G1 X2.528 Y18.923 E8.06294
G1 X2.822 Y18.725 E8.15243
G1 X3.463 Y18.346 E8.34059
G1 X5.161 Y17.470 E8.82320
G1 X3.753 Y15.647 E9.40486
G1 X3.210 Y14.792 E9.66081
G1 X2.902 Y14.208 E9.82750
G1 X2.536 Y13.359 E10.06097
G1 X2.439 Y13.010 E10.15270
G1 X2.379 Y12.548 E10.27025
G1 X2.921 Y12.303 E10.42037
G1 X3.305 Y12.287 E10.51744
G1 X3.584 Y12.632 E10.62949
G1 X4.611 Y14.476 E11.16278
G1 X6.058 Y16.793 E11.85266
G1 E11.25266 F2400.00000
G92 E0
G1 X7.581 Y13.245 F1800.000
G1 E0.60000 F2400.00000
G1 F1800
G1 X7.796 Y12.641 E0.84497
G1 X8.216 Y11.659 E1.25312
G1 X8.506 Y11.087 E1.49827
G1 X8.898 Y10.400 E1.80047
G1 X9.396 Y9.643 E2.14654
G1 X9.896 Y8.982 E2.46337
G1 X10.353 Y8.436 E2.73541
G1 X11.033 Y7.725 E3.11144
G1 F1800
G1 X11.499 Y7.288 E3.35076
G1 X12.122 Y6.758 E3.65754
G1 X12.937 Y6.149 E4.03914
G1 X13.813 Y5.587 E4.42942
G1 X14.441 Y5.243 E4.69787
G1 X14.973 Y4.979 E4.92060
G1 F1800
G1 X15.851 Y4.606 E5.28524
G1 X17.113 Y4.181 E5.79371
G1 F1800
G1 X17.477 Y4.127 E5.93969
G1 F1800
G1 X17.842 Y4.073 E6.09066
G1 F1800
G1 X18.014 Y4.081 E6.16346
G1 F1800
G1 X18.186 Y4.089 E6.23857
G1 F1800
G1 X18.307 Y4.112 E6.29364
G1 F1800
G1 X18.427 Y4.136 E6.35024
G1 F1800
G1 X18.548 Y4.159 E6.40838
G1 F1800
G1 X18.668 Y4.182 E6.46804
G1 X18.684 Y4.289 E6.52080
G1 F1800
G1 X18.701 Y4.396 E6.57275
G1 F1800
G1 X18.717 Y4.504 E6.62322
G1 F1800
G1 X18.733 Y4.611 E6.67219
G1 F1800
G1 X18.750 Y4.718 E6.71968
G1 F1800
G1 X18.766 Y4.825 E6.76568
G1 F1800
G1 X18.782 Y4.933 E6.81019
G1 F1800
G1 X18.798 Y5.040 E6.85322
G1 F1800
G1 X18.815 Y5.147 E6.89475
G1 F1800
G1 X18.838 Y5.397 E6.98751
G1 F1800
G1 X18.854 Y5.593 E7.05805
G1 X18.877 Y8.821 E8.21380
G1 X18.941 Y9.388 E8.41812
G1 F1800
G1 X18.971 Y9.524 E8.46922
G1 F1800
G1 X19.010 Y9.682 E8.53108
G1 F1800
G1 X19.018 Y9.710 E8.54249
G1 X18.944 Y9.778 E8.58170
G1 F1800
G1 X18.870 Y9.846 E8.61949
G1 F1800
G1 X18.797 Y9.915 E8.65589
G1 F1800
G1 X18.723 Y9.983 E8.69087
G1 F1800
G1 X18.650 Y10.051 E8.72444
G1 F1800
G1 X18.576 Y10.119 E8.75661
G1 F1800
G1 X18.503 Y10.188 E8.78737
G1 F1800
G1 X18.403 Y10.259 E8.82330
G1 F1800
G1 X18.145 Y10.396 E8.90534
G1 F1800
G1 X17.886 Y10.532 E8.98374
G1 F1800
G1 X17.628 Y10.631 E9.05463
G1 X17.114 Y10.896 E9.20262
G1 X16.514 Y11.268 E9.38326
G1 F1800
G1 X15.964 Y11.680 E9.55418
G1 X15.705 Y11.901 E9.63873
G1 X15.153 Y12.447 E9.83166
G1 X14.765 Y12.905 E9.98088
G1 F1800
G1 X14.411 Y13.389 E10.13455
G1 X14.117 Y13.870 E10.27932
G1 X13.773 Y14.543 E10.47296
G1 X13.572 Y15.037 E10.60968
G1 X13.405 Y15.554 E10.74910
G1 X13.270 Y16.090 E10.89089
G1 X13.159 Y16.748 E11.06199
G1 X13.116 Y17.224 E11.18432
G1 X13.099 Y17.820 E11.33729
G1 X13.124 Y18.436 E11.49532
G1 X13.194 Y19.067 E11.65829
G1 X13.342 Y19.775 E11.84371
G1 X13.530 Y20.374 E12.00458
G1 X13.695 Y20.789 E12.11916
G1 X13.921 Y21.267 E12.25481
G1 F1800
G1 X14.343 Y21.981 E12.46069
G1 X14.769 Y22.560 E12.63912
G1 X15.252 Y23.110 E12.82085
G1 X15.578 Y23.433 E12.93473
G1 X15.930 Y23.731 E13.04946
G1 X16.467 Y24.128 E13.21521
G1 X16.874 Y24.381 E13.33417
G1 X17.672 Y24.787 E13.55646
G1 F1800
G1 X18.111 Y24.979 E13.67885
G1 F1800
G1 X18.262 Y25.074 E13.72611
G1 F1800
G1 X18.413 Y25.168 E13.77554
G1 F1800
G1 X18.518 Y25.239 E13.81237
G1 F1800
G1 X18.584 Y25.297 E13.83849
G1 F1800
G1 X18.655 Y25.366 E13.86949
G1 F1800
G1 X18.727 Y25.436 E13.90188
G1 F1800
G1 X18.798 Y25.505 E13.93567
G1 F1800
G1 X18.869 Y25.574 E13.97084
G1 F1800
G1 X18.940 Y25.644 E14.00740
G1 F1800
G1 X19.012 Y25.713 E14.04536
G1 X18.959 Y25.975 E14.14740
G1 F1800
G1 X18.917 Y26.274 E14.25967
G1 F1800
G1 X18.876 Y26.572 E14.36837
G1 F1800
G1 X18.873 Y29.827 E15.50392
G1 X18.858 Y30.026 E15.57366
G1 F1800
G1 X18.835 Y30.278 E15.66377
G1 F1800
G1 X18.819 Y30.383 E15.70308
G1 F1800
G1 X18.803 Y30.488 E15.74385
G1 F1800
G1 X18.787 Y30.594 E15.78606
G1 F1800
G1 X18.772 Y30.699 E15.82974
G1 F1800
G1 X18.756 Y30.804 E15.87486
G1 F1800
G1 X18.740 Y30.909 E15.92144
G1 F1800
G1 X18.724 Y31.014 E15.96947
G1 F1800
G1 X18.709 Y31.119 E16.01896
G1 F1800
G1 X18.693 Y31.224 E16.06990
G1 F1800
G1 X18.685 Y31.277 E16.09609
G1 X18.590 Y31.280 E16.14300
G1 F1800
G1 X18.417 Y31.282 E16.22685
G1 F1800
G1 X18.244 Y31.285 E16.30829
G1 F1800
G1 X18.071 Y31.287 E16.38732
G1 F1800
G1 X17.899 Y31.289 E16.46394
G1 F1800
G1 X17.726 Y31.291 E16.53815
G1 F1800
G1 X17.553 Y31.293 E16.60995
G1 F1800
G1 X17.380 Y31.296 E16.67933
G1 F1800
G1 X16.136 Y30.908 E17.18423
G1 F1800
G1 X15.468 Y30.641 E17.45726
G1 X14.681 Y30.281 E17.78577
G1 X13.935 Y29.887 E18.10580
G1 X13.039 Y29.337 E18.50492
G1 X12.391 Y28.875 E18.80714
G1 X11.896 Y28.490 E19.04509
G1 X11.182 Y27.859 E19.40688
G1 X10.718 Y27.393 E19.65653
G1 X10.343 Y26.990 E19.86538
G1 X9.872 Y26.427 E20.14376
G1 X9.272 Y25.602 E20.53118
G1 X8.710 Y24.695 E20.93624
G1 X8.163 Y23.633 E21.38953
G1 X7.349 Y21.707 E22.18331
G1 E21.58331 F2400.00000
G92 E0
G1 X19.012 Y25.713 F1800.000
G1 E0.60000 F2400.00000
G1 F1800
G1 X19.068 Y25.693 E0.62314
G1 F1800
G1 X19.142 Y25.666 E0.65322
G1 F1800
G1 X19.251 Y25.640 E0.69422
G1 F1800
G1 X19.359 Y25.614 E0.73379
G1 F1800
G1 X19.468 Y25.587 E0.77192
G1 F1800
G1 X19.576 Y25.561 E0.80861
G1 F1800
G1 X19.684 Y25.535 E0.84387
G1 F1800
G1 X19.823 Y25.511 E0.88649
G1 F1800
G1 X20.085 Y25.502 E0.96259
G1 F1800
G1 X20.372 Y25.506 E1.04280
G1 F1800
G1 X20.752 Y25.512 E1.14610
G1 X20.939 Y25.538 E1.19754
G1 F1800
G1 X21.314 Y25.591 E1.30485
G1 F1800
G1 X21.434 Y25.624 E1.34180
G1 F1800
G1 X21.536 Y25.664 E1.37546
G1 F1800
G1 X21.638 Y25.705 E1.41063
G1 F1800
G1 X21.739 Y25.745 E1.44733
G1 F1800
G1 X21.841 Y25.785 E1.48554
G1 F1800
G1 X21.943 Y25.825 E1.52527
G1 F1800
G1 X21.994 Y25.846 E1.54589
G1 X22.017 Y25.993 E1.60230
G1 F1800
G1 X22.041 Y26.141 E1.65701
G1 F1800
G1 X22.075 Y26.572 E1.81016
G1 F1800
G1 X22.064 Y30.311 E3.09634
G1 F1800
G1 X22.064 Y30.436 E3.14025
G1 F1800
G1 X22.064 Y30.561 E3.18585
G1 F1800
G1 X22.064 Y30.685 E3.23314
G1 F1800
G1 X22.064 Y30.810 E3.28212
G1 F1800
G1 X22.064 Y30.935 E3.33279
G1 F1800
G1 X22.064 Y31.059 E3.38516
G1 F1800
G1 X22.064 Y31.184 E3.43921
G1 F1800
G1 X22.064 Y31.309 E3.49496
G1 F1800
G1 X22.064 Y31.433 E3.55239
G1 X21.732 Y31.506 E3.70865
G1 F1800
G1 X21.511 Y31.554 E3.80973
G1 F1800
G1 X21.290 Y31.602 E3.90773
G1 F1800
G1 X21.070 Y31.650 E4.00265
G1 F1800
G1 X20.849 Y31.698 E4.09449
G1 F1800
G1 X20.697 Y31.721 E4.15466
G1 X20.146 Y31.704 E4.37106
G1 X20.041 Y31.678 E4.41354
G1 F1800
G1 X19.831 Y31.626 E4.50035
G1 F1800
G1 X19.621 Y31.574 E4.59009
G1 F1800
G1 X19.410 Y31.523 E4.68275
G1 F1800
G1 X19.200 Y31.471 E4.77834
G1 F1800
G1 X18.990 Y31.419 E4.87684
G1 F1800
G1 X18.835 Y31.364 E4.95396
G1 F1800
G1 X18.735 Y31.306 E5.00961
G1 F1800
G1 X18.685 Y31.277 E5.03814
G1 E4.43814 F2400.00000
G92 E0
G1 X22.064 Y31.433 F1800.000
G1 E0.60000 F2400.00000
G1 F1800
G1 X22.281 Y31.482 E0.70412
G1 F1800
G1 X22.499 Y31.530 E0.80519
G1 F1800
G1 X22.716 Y31.578 E0.90323
G1 F1800
G1 X22.933 Y31.626 E0.99824
G1 F1800
G1 X23.151 Y31.675 E1.09021
G1 F1800
G1 X23.368 Y31.723 E1.17914
G1 F1800
G1 X46.106 Y31.723 E9.97617
G1 X46.241 Y31.698 E10.02895
G1 F1800
G1 X46.509 Y31.649 E10.13831
G1 F1800
G1 X46.777 Y31.600 E10.25144
G1 F1800
G1 X47.046 Y31.552 E10.36835
G1 F1800
G1 X47.236 Y31.504 E10.45498
G1 F1800
G1 X47.347 Y31.456 E10.50987
G1 X47.396 Y31.215 E10.62183
G1 F1800
G1 X47.445 Y30.973 E10.73179
G1 F1800
G1 X47.495 Y30.731 E10.83834
G1 F1800
G1 X47.544 Y30.490 E10.94145
G1 F1800
G1 X47.593 Y30.248 E11.04114
G1 F1800
G1 X47.593 Y5.397 E20.74060
G1 X47.575 Y5.103 E20.85573
G1 X47.544 Y4.985 E20.90332
G1 F1800
G1 X47.482 Y4.749 E21.00092
G1 F1800
G1 X47.420 Y4.513 E21.10195
G1 F1800
G1 X47.358 Y4.277 E21.20641
G1 F1800
G1 X47.295 Y4.041 E21.31430
G1 F1800
G1 X47.264 Y3.924 E21.36996
G1 X47.007 Y3.874 E21.48965
G1 F1800
G1 X46.750 Y3.824 E21.60566
G1 F1800
G1 X46.492 Y3.774 E21.71797
G1 F1800
G1 X46.235 Y3.724 E21.82660
G1 F1800
G1 X46.106 Y3.699 E21.87907
G1 X23.364 Y3.689 E30.98078
G1 X23.256 Y3.712 E31.02494
G1 F1800
G1 X23.040 Y3.758 E31.11525
G1 F1800
G1 X22.825 Y3.804 E31.20845
G1 F1800
G1 X22.609 Y3.851 E31.30455
G1 F1800
G1 X22.393 Y3.897 E31.40355
G1 F1800
G1 X22.177 Y3.943 E31.50545
G1 F1800
G1 X22.069 Y3.966 E31.55785
G1 X22.069 Y4.028 F1800.000
G1 F1800
G1 X22.069 Y3.966 E31.58702
G1 X21.901 Y3.920 E31.66964
G1 F1800
G1 X21.734 Y3.874 E31.75001
G1 F1800
G1 X21.566 Y3.828 E31.82810
G1 F1800
G1 X21.398 Y3.782 E31.90394
G1 F1800
G1 X21.230 Y3.736 E31.97751
G1 F1800
G1 X21.147 Y3.713 E32.01316
G1 X20.779 Y3.693 E32.16399
G1 F1800
G1 X19.903 Y3.715 E32.51142
G1 F1800
G1 X19.697 Y3.782 E32.59909
G1 F1800
G1 X19.492 Y3.850 E32.68971
G1 F1800
G1 X19.287 Y3.918 E32.78328
G1 F1800
G1 X19.082 Y3.986 E32.87981
G1 F1800
G1 X18.877 Y4.054 E32.97929
G1 F1800
G1 X18.773 Y4.118 E33.03741
G1 F1800
G1 X18.668 Y4.182 E33.09710
G1 E32.49710 F2400.00000
G92 E0
G1 X22.070 Y4.150 F1800.000
G1 E0.60000 F2400.00000
G1 F1800
G1 X22.069 Y4.028 E0.65662
G1 X22.070 Y4.150 F1800.000
G1 F1800
G1 X22.070 Y4.273 E0.71152
G1 F1800
G1 X22.070 Y4.396 E0.76471
G1 F1800
G1 X22.070 Y4.519 E0.81619
G1 F1800
G1 X22.070 Y4.642 E0.86595
G1 F1800
G1 X22.071 Y4.765 E0.91400
G1 F1800
G1 X22.071 Y4.887 E0.96034
G1 F1800
G1 X22.071 Y5.010 E1.00496
G1 F1800
G1 X22.071 Y5.133 E1.04786
G1 F1800
G1 X22.070 Y8.821 E2.28462
G1 F1800
G1 X22.034 Y9.249 E2.43252
G1 F1800
G1 X22.009 Y9.399 E2.48701
G1 F1800
G1 X21.972 Y9.625 E2.57180
G1 X21.896 Y9.656 E2.60212
G1 F1800
G1 X21.821 Y9.688 E2.63152
G1 F1800
G1 X21.746 Y9.718 E2.65942
G1 F1800
G1 X21.673 Y9.746 E2.68603
G1 F1800
G1 X21.469 Y9.787 E2.75409
G1 F1800
G1 X21.264 Y9.828 E2.81927
G1 F1800
G1 X21.060 Y9.869 E2.88158
G1 F1800
G1 X20.856 Y9.909 E2.94101
G1 F1800
G1 X20.754 Y9.911 E2.96922
G1 F1800
G1 X20.055 Y9.927 E3.16908
G1 F1800
G1 X19.900 Y9.901 E3.21592
G1 F1800
G1 X19.745 Y9.875 E3.26483
G1 F1800
G1 X19.590 Y9.849 E3.31580
G1 F1800
G1 X19.436 Y9.823 E3.36882
G1 F1800
G1 X19.281 Y9.798 E3.42391
G1 F1800
G1 X19.186 Y9.767 E3.46049
G1 F1800
G1 X19.098 Y9.738 E3.49546
G1 F1800
G1 X19.018 Y9.710 E3.52862
G1 E2.92862 F2400.00000
G92 E0
G1 X21.972 Y9.625 F1800.000
G1 E0.60000 F2400.00000
G1 F1800
G1 X22.051 Y9.681 E0.63607
G1 F1800
G1 X22.131 Y9.738 E0.67085
G1 F1800
G1 X22.210 Y9.794 E0.70434
G1 F1800
G1 X22.289 Y9.851 E0.73655
G1 F1800
G1 X22.369 Y9.907 E0.76746
G1 F1800
G1 X22.448 Y9.964 E0.79710
G1 F1800
G1 X22.556 Y10.025 E0.83322
G1 F1800
G1 X22.721 Y10.101 E0.88413
G1 F1800
G1 X22.886 Y10.177 E0.93310
G1 F1800
G1 X23.601 Y10.420 E1.13081
G1 F1800
G1 X24.077 Y10.621 E1.26015
G1 X24.674 Y10.924 E1.42783
G1 X25.408 Y11.396 E1.64643
G1 X25.926 Y11.808 E1.81228
G1 X26.300 Y12.157 E1.94052
G1 X26.745 Y12.633 E2.10384
G1 X27.045 Y12.999 E2.22228
G1 F1800
G1 X27.497 Y13.641 E2.42545
G1 X27.823 Y14.200 E2.59269
G1 X28.069 Y14.724 E2.74235
G1 X28.272 Y15.258 E2.89009
G1 X28.431 Y15.803 E3.03690
G1 X28.574 Y16.520 E3.22589
G1 X28.640 Y17.189 E3.39982
G1 X28.647 Y17.890 E3.58102
G1 F1800
G1 X28.581 Y18.678 E3.77957
G1 X28.478 Y19.295 E3.93674
G1 X28.339 Y19.875 E4.08665
G1 X28.115 Y20.555 E4.26631
G1 X27.836 Y21.201 E4.44307
G1 X27.574 Y21.690 E4.58249
G1 X27.275 Y22.162 E4.72283
G1 X26.700 Y22.887 E4.95509
G1 F1800
G1 X26.149 Y23.446 E5.14560
G1 X25.416 Y24.036 E5.37388
G1 F1800
G1 X24.866 Y24.397 E5.53793
G1 X24.365 Y24.674 E5.68098
G1 X23.757 Y24.945 E5.84712
G1 X23.360 Y25.097 E5.95329
G1 F1800
G1 X22.909 Y25.259 E6.07790
G1 F1800
G1 X22.718 Y25.342 E6.13406
G1 F1800
G1 X22.618 Y25.406 E6.16739
G1 F1800
G1 X22.519 Y25.470 E6.20225
G1 F1800
G1 X22.420 Y25.534 E6.23862
G1 F1800
G1 X22.321 Y25.598 E6.27652
G1 F1800
G1 X22.222 Y25.662 E6.31594
G1 F1800
G1 X22.145 Y25.717 E6.34871
G1 F1800
G1 X22.090 Y25.763 E6.37432
G1 F1800
G1 X22.040 Y25.806 E6.39860
G1 F1800
G1 X21.994 Y25.846 E6.42141
G1 E5.82141 F2400.00000
G92 E0
G1 X31.909 Y20.836 F1800.000
G1 E0.60000 F2400.00000
G1 F1800
G1 X31.923 Y20.788 E0.60985
G1 F1800
G1 X31.937 Y20.741 E0.62031
G1 F1800
G1 X31.947 Y20.694 E0.63109
G1 F1800
G1 X31.954 Y20.647 E0.64215
G1 F1800
G1 X31.965 Y20.595 E0.65521
G1 F1800
G1 X31.980 Y20.537 E0.67054
G1 F1800
G1 X31.987 Y20.508 E0.67858
G1 X31.920 Y20.367 E0.72066
G1 F1800
G1 X31.793 Y20.082 E0.80890
G1 F1800
G1 X31.624 Y19.596 E0.95845
G1 X31.362 Y18.698 E1.23063
G1 X31.188 Y17.795 E1.49801
G1 X31.137 Y17.368 E1.62301
G1 F1800
G1 X31.102 Y16.875 E1.76303
G1 X31.100 Y16.282 E1.93089
G1 X31.166 Y15.555 E2.13772
G1 X31.336 Y14.619 E2.40691
G1 X31.552 Y13.882 E2.62458
G1 F1800
G1 X31.798 Y13.285 E2.81202
G1 X31.953 Y12.977 E2.91229
G1 F1800
G1 X31.995 Y12.956 E2.92547
G1 F1800
G1 X32.023 Y12.950 E2.93323
G1 E2.33323 F2400.00000
G92 E0
G1 X17.712 Y18.502 F1800.000
G1 E0.60000 F2400.00000
G1 F1800
G1 X17.771 Y18.291 E0.66833
G1 F1800
G1 X17.923 Y17.938 E0.78495
G1 X18.068 Y17.711 E0.86690
G1 X18.279 Y17.468 E0.96455
G1 X18.638 Y17.188 E1.10266
G1 F1800
G1 X19.114 Y16.977 E1.26460
G1 X19.459 Y16.901 E1.37450
G1 X19.784 Y16.892 E1.47557
G1 X20.060 Y16.923 E1.56194
G1 X20.379 Y17.019 E1.66564
G1 F1800
G1 X20.637 Y17.141 E1.75223
G1 X20.867 Y17.288 E1.83499
G1 X21.110 Y17.501 E1.93327
G1 X21.330 Y17.766 E2.03758
G1 F1800
G1 X21.579 Y18.235 E2.20258
G1 X21.666 Y18.534 E2.29937
G1 X21.702 Y18.985 E2.43986
G1 X21.649 Y19.356 E2.55642
G1 F1800
G1 X21.502 Y19.760 E2.68663
G1 X21.376 Y19.995 E2.76727
G1 X21.292 Y20.108 E2.80996
G1 X21.078 Y20.359 E2.90984
G1 X20.809 Y20.579 E3.01503
G1 X20.693 Y20.651 E3.05628
G1 F1800
G1 X20.356 Y20.808 E3.17176
G1 X20.211 Y20.849 E3.21866
G1 F1800
G1 X19.993 Y20.899 E3.29019
G1 X19.778 Y20.915 E3.35880
G1 X19.325 Y20.881 E3.50398
G1 F1800
G1 X18.997 Y20.794 E3.60938
G1 X18.793 Y20.704 E3.67893
G1 F1800
G1 X18.562 Y20.578 E3.75906
G1 X18.275 Y20.348 E3.87090
G1 X18.046 Y20.083 E3.97734
G1 X17.872 Y19.787 E4.08177
G1 F1800
G1 X17.820 Y19.673 E4.12069
G1 X17.714 Y19.318 E4.23601
G1 X17.689 Y19.099 E4.30482
G1 F1800
G1 X17.679 Y18.834 E4.38725
G1 X17.693 Y18.651 E4.44447
G1 E3.84447 F2400.00000
G92 E0
; Filament-specific end gcode 
;END gcode for filament

M104 S0 ; turn off temperature
G28 X0  ; home X axis
M84     ; disable motors

M140 S0 ; set bed temperature
; filament used = 84.7mm (0.6cm3)
; total filament cost = 0.0

; avoid_crossing_perimeters = 0
; bed_shape = 0x0,100x0,100x100,0x100
; bed_temperature = 0
; before_layer_gcode = 
; between_objects_gcode = 
; bridge_acceleration = 0
; bridge_fan_speed = 100
; brim_connections_width = 0
; brim_width = 0
; complete_objects = 0
; cooling = 1
