; generated by Slic3r 1.3.0 on 2022-02-12 at 17:39:31

; external perimeters extrusion width = 1.10mm (12.24mm^3/s)
; perimeters extrusion width = 1.07mm (23.56mm^3/s)
; infill extrusion width = 1.07mm (62.83mm^3/s)
; solid infill extrusion width = 1.07mm (15.71mm^3/s)
; top infill extrusion width = 1.07mm (11.78mm^3/s)

M107
M104 S5 ; set temperature
G28 ; home all axes
G1 E1.6 F30 ; lift nozzle

; Filament gcode

M109 S5 ; set temperature and wait for it to be reached
G21 ; set units to millimeters
G90 ; use absolute coordinates
M82 ; use absolute distances for extrusion
G92 E0
G1 Z1.000 F1800.000
G1 E-0.60000 F2400.00000
G92 E0
G1 X5.760 Y25.453 F1800.000
G1 E0.60000 F2400.00000
G1 F1800
G1 X5.624 Y25.592 E0.63337
G1 F1800
G1 X5.489 Y25.731 E0.66421
G1 F1800
G1 X5.353 Y25.869 E0.69253
G1 F1800
G1 X4.413 Y27.476 E0.94014
G1 F1800
G1 X3.621 Y28.873 E1.16929
G1 F1800
G1 X3.322 Y29.443 E1.26835
G1 F1800
G1 X3.121 Y29.847 E1.34273
G1 F1800
G1 X2.952 Y30.320 E1.42951
G1 X2.868 Y30.683 E1.49378
G1 X2.885 Y30.981 E1.54538
G1 X2.917 Y31.073 E1.56220
G1 X3.008 Y31.130 E1.58071
G1 F1800
G1 X3.152 Y31.174 E1.60505
G1 F1800
G1 X3.362 Y31.213 E1.63677
G1 F1800
G1 X3.573 Y31.253 E1.66569
G1 F1800
G1 X3.678 Y31.272 E1.67875
G1 X3.972 Y31.208 E1.71558
G1 F1800
G1 X4.447 Y31.085 E1.77904
G1 F1800
G1 X4.905 Y30.958 E1.84556
G1 F1800
G1 X5.452 Y30.786 E1.93068
G1 F1800
G1 X6.077 Y30.565 E2.03724
G1 X6.195 Y30.504 E2.05864
G1 F1800
G1 X6.431 Y30.380 E2.10504
G1 X6.385 Y30.295 E2.12190
G1 F1800
G1 X6.355 Y30.238 E2.13228
G1 F1800
G1 X6.325 Y30.181 E2.14181
G1 F1800
G1 X6.294 Y30.124 E2.15047
G1 F1800
G1 X6.264 Y30.067 E2.15827
G1 F1800
G1 X6.234 Y30.010 E2.16521
G1 F1800
G1 X6.203 Y29.953 E2.17128
G1 F1800
G1 X6.173 Y29.896 E2.17650
G1 F1800
G1 X6.110 Y29.728 E2.18860
G1 F1800
G1 X6.023 Y29.332 E2.21110
G1 F1800
G1 X5.968 Y29.050 E2.22377
G1 X5.938 Y28.040 E2.26838
G1 F1800
G1 X5.993 Y27.093 E2.30157
G1 X6.075 Y26.503 E2.32241
G1 F1800
G1 X6.123 Y26.227 E2.32937
G1 F1800
G1 X6.103 Y26.063 E2.33465
G1 F1800
G1 X6.085 Y25.962 E2.33933
G1 F1800
G1 X6.062 Y25.910 E2.34236
G1 F1800
G1 X6.033 Y25.852 E2.34653
G1 F1800
G1 X5.998 Y25.785 E2.35235
G1 F1800
G1 X5.961 Y25.734 E2.35809
G1 F1800
G1 X5.925 Y25.683 E2.36467
G1 F1800
G1 X5.888 Y25.632 E2.37209
G1 F1800
G1 X5.851 Y25.581 E2.38037
G1 F1800
G1 X5.815 Y25.530 E2.38949
G1 F1800
G1 X5.778 Y25.479 E2.39946
G1 F1800
G1 X5.760 Y25.453 E2.40486
G1 X5.885 Y25.161 E2.45972
G1 F1800
G1 X6.028 Y24.838 E2.51639
G1 F1800
G1 X6.274 Y24.371 E2.59503
G1 F1800
G1 X6.589 Y23.874 E2.67834
G1 F1800
G1 X6.930 Y23.378 E2.77031
G1 F1800
G1 X7.271 Y22.882 E2.86926
G1 F1800
G1 X7.512 Y22.534 E2.94377
G1 F1800
G1 X7.825 Y22.111 E3.04004
G1 F1800
G1 X8.624 Y21.132 E3.28336
G1 X9.688 Y19.968 E3.58685
G1 X9.875 Y19.684 E3.65224
G1 F1800
G1 X9.985 Y19.505 E3.69483
G1 F1800
G1 X10.002 Y19.468 E3.70344
G1 X9.969 Y19.330 E3.73306
G1 F1800
G1 X9.537 Y18.265 E3.96569
G1 F1800
G1 X8.978 Y16.827 E4.26646
G1 F1800
G1 X8.455 Y15.218 E4.58397
G1 X8.171 Y14.188 E4.78461
G1 F1800
G1 X7.938 Y13.071 E4.98921
G1 X7.814 Y12.132 E5.15909
G1 X7.766 Y11.270 E5.31397
G1 X7.777 Y10.603 E5.43366
G1 X7.831 Y10.050 E5.53321
G1 X7.907 Y9.599 E5.61515
G1 X8.052 Y9.038 E5.71918
G1 X8.227 Y8.550 E5.81212
G1 X8.603 Y7.815 E5.96018
G1 F1800
G1 X9.132 Y6.892 E6.14300
G1 F1800
G1 X9.385 Y6.394 E6.24376
G1 F1800
G1 X9.559 Y5.949 E6.33384
G1 X9.619 Y5.733 E6.37605
G1 X9.647 Y5.453 E6.42895
G1 X9.633 Y4.980 E6.51811
G1 F1800
G1 X9.572 Y4.344 E6.62988
G1 F1800
G1 X9.467 Y3.645 E6.74829
G1 X9.486 Y3.308 E6.80485
G1 X9.524 Y3.210 E6.82240
G1 X9.682 Y3.086 E6.85597
G1 F1800
G1 X9.890 Y3.003 E6.89129
G1 F1800
G1 X10.206 Y2.968 E6.93706
G1 X12.604 Y2.955 E7.28284
G1 X31.516 Y2.960 E10.01028
G1 X32.382 Y2.940 E10.13521
G1 F1800
G1 X33.824 Y2.924 E10.35530
G1 X34.380 Y2.951 E10.44038
G1 F1800
G1 X34.688 Y3.029 E10.48611
G1 X34.775 Y3.080 E10.50075
G1 F1800
G1 X34.877 Y3.142 E10.51912
G1 X34.969 Y3.265 E10.54266
G1 X35.020 Y3.470 E10.57507
G1 X35.013 Y3.832 E10.63088
G1 F1800
G1 X34.870 Y4.932 E10.81349
G1 X34.309 Y8.301 E11.37587
G1 X33.893 Y10.506 E11.74527
G1 X33.330 Y13.104 E12.18311
G1 F1800
G1 X32.915 Y14.985 E12.47907
G1 X32.589 Y16.177 E12.66879
G1 F1800
G1 X32.441 Y16.638 E12.73773
G1 X32.189 Y17.285 E12.83658
G1 X32.054 Y17.585 E12.88350
G1 X31.741 Y18.181 E12.97931
G1 X31.648 Y18.432 E13.01733
G1 F1800
G1 X31.627 Y18.557 E13.03685
G1 F1800
G1 X31.605 Y18.682 E13.05809
G1 F1800
G1 X31.583 Y18.807 E13.08106
G1 F1800
G1 X31.572 Y18.870 E13.09340
G1 X32.085 Y19.187 E13.21047
G1 F1800
G1 X32.634 Y19.580 E13.33237
G1 F1800
G1 X32.874 Y19.774 E13.38461
G1 X33.468 Y20.328 E13.52251
G1 F1800
G1 X33.842 Y20.706 E13.60710
G1 X34.297 Y21.226 E13.71691
G1 X34.671 Y21.683 E13.81097
G1 X35.291 Y22.532 E13.97811
G1 F1800
G1 X35.518 Y22.884 E14.04785
G1 F1800
G1 X35.657 Y23.105 E14.09449
G1 X35.809 Y23.234 E14.13026
G1 F1800
G1 X35.961 Y23.363 E14.16351
G1 F1800
G1 X36.113 Y23.493 E14.19423
G1 F1800
G1 X36.918 Y24.608 E14.39362
G1 X37.294 Y25.223 E14.49804
G1 X37.469 Y25.595 E14.55767
G1 X37.680 Y26.192 E14.64939
G1 X37.765 Y26.594 E14.70903
G1 X37.834 Y27.297 E14.81141
G1 X37.853 Y27.771 E14.88012
G1 F1800
G1 X37.845 Y28.473 E14.97369
G1 F1800
G1 X37.814 Y28.649 E14.99597
G1 X37.756 Y28.789 E15.01471
G1 X37.677 Y28.899 E15.03155
G1 X37.574 Y28.980 E15.04788
G1 X37.440 Y29.036 E15.06583
G1 F1800
G1 X37.267 Y29.063 E15.08899
G1 X37.044 Y29.043 E15.11841
G1 F1800
G1 X36.703 Y28.987 E15.16768
G1 F1800
G1 X36.057 Y28.840 E15.26703
G1 X35.952 Y28.793 E15.28428
G1 F1800
G1 X35.742 Y28.699 E15.32134
G1 F1800
G1 X35.637 Y28.652 E15.34115
G1 X34.856 Y28.412 E15.48164
G1 X33.830 Y28.035 E15.66973
G1 F1800
G1 X32.834 Y27.642 E15.86199
G1 F1800
G1 X30.702 Y26.751 E16.29342
G1 F1800
G1 X27.900 Y25.499 E16.89881
G1 X25.069 Y24.121 E17.51983
G1 X24.281 Y24.157 E17.67538
G1 F1800
G1 X22.881 Y24.236 E17.93505
G1 F1800
G1 X20.924 Y24.304 E18.27374
G1 F1800
G1 X19.290 Y24.307 E18.53853
G1 X18.153 Y24.264 E18.72281
G1 X17.241 Y24.197 E18.87097
G1 X16.086 Y24.028 E19.06014
G1 F1800
G1 X15.806 Y24.007 E19.10817
G1 X15.604 Y24.160 E19.15148
G1 F1800
G1 X14.914 Y24.845 E19.30938
G1 X14.134 Y25.559 E19.48085
G1 F1800
G1 X12.953 Y26.531 E19.71743
G1 X11.584 Y27.550 E19.98103
G1 F1800
G1 X10.250 Y28.448 E20.24329
G1 F1800
G1 X9.798 Y28.741 E20.33817
G1 X9.111 Y29.149 E20.47887
G1 F1800
G1 X7.804 Y29.824 E20.75073
G1 X6.700 Y30.301 E20.97297
G1 F1800
G1 X6.431 Y30.380 E21.02285
G1 E20.42285 F2400.00000
G92 E0
G1 X35.637 Y28.652 F1800.000
G1 E0.60000 F2400.00000
G1 F1800
G1 X35.661 Y28.618 E0.60718
G1 F1800
G1 X35.693 Y28.572 E0.61620
G1 F1800
G1 X35.725 Y28.527 E0.62447
G1 F1800
G1 X35.758 Y28.481 E0.63199
G1 F1800
G1 X35.790 Y28.436 E0.63875
G1 F1800
G1 X35.822 Y28.390 E0.64476
G1 F1800
G1 X35.855 Y28.345 E0.65002
G1 F1800
G1 X35.887 Y28.299 E0.65452
G1 F1800
G1 X35.919 Y28.254 E0.65828
G1 F1800
G1 X35.958 Y28.161 E0.66366
G1 F1800
G1 X36.004 Y28.022 E0.66951
G1 F1800
G1 X36.027 Y27.953 E0.67140
G1 X35.973 Y27.122 E0.69293
G1 X35.871 Y26.082 E0.71991
G1 X35.644 Y24.761 E0.75456
G1 E0.15456 F2400.00000
G92 E0
G1 X27.463 Y18.213 F1800.000
G1 E0.60000 F2400.00000
G1 F1800
G1 X27.198 Y18.456 E0.65005
G1 X26.866 Y18.651 E0.70384
G1 X26.504 Y18.762 E0.75663
G1 X26.108 Y18.777 E0.81182
G1 X25.888 Y18.745 E0.84290
G1 X25.730 Y18.698 E0.86586
G1 X25.560 Y18.634 E0.89125
G1 X25.370 Y18.532 E0.92128
G1 X25.026 Y18.246 E0.98360
G1 X24.831 Y18.004 E1.02698
G1 X24.619 Y17.605 E1.08991
G1 X24.506 Y17.244 E1.14270
G1 X24.450 Y16.848 E1.19845
G1 X24.478 Y16.312 E1.27327
G1 X24.576 Y15.921 E1.32957
G1 X24.808 Y15.446 E1.40327
G1 X24.999 Y15.206 E1.44604
G1 X25.260 Y14.960 E1.49602
G1 X25.577 Y14.774 E1.54725
G1 X25.821 Y14.681 E1.58377
G1 X26.080 Y14.635 E1.62033
G1 X26.454 Y14.643 E1.67260
G1 X26.735 Y14.716 E1.71300
G1 X27.079 Y14.879 E1.76608
G1 X27.374 Y15.111 E1.81839
G1 X27.616 Y15.392 E1.87010
G1 X27.773 Y15.661 E1.91358
G1 X27.917 Y16.028 E1.96854
G1 X28.005 Y16.470 E2.03140
G1 X28.013 Y16.698 E2.06325
G1 X27.981 Y17.103 E2.11984
G1 X27.889 Y17.474 E2.17318
G1 X27.734 Y17.829 E2.22712
G1 X27.556 Y18.095 E2.27184
G1 X25.930 Y17.201 F1800.000
G1 F1800
G1 X25.927 Y17.216 E2.27349
G1 E1.67349 F2400.00000
G92 E0
G1 X17.078 Y17.031 F1800.000
G1 E0.60000 F2400.00000
G1 F1800
G1 X16.991 Y17.428 E0.65637
G1 X16.800 Y17.865 E0.72243
G1 X16.584 Y18.170 E0.77417
G1 X16.316 Y18.431 E0.82593
G1 X15.995 Y18.631 E0.87826
G1 X15.659 Y18.748 E0.92755
G1 X15.310 Y18.788 E0.97619
G1 X14.917 Y18.737 E1.03115
G1 X14.634 Y18.629 E1.07315
G1 X14.313 Y18.428 E1.12548
G1 X14.045 Y18.169 E1.17723
G1 X13.810 Y17.832 E1.23400
G1 X13.655 Y17.477 E1.28773
G1 X13.562 Y17.104 E1.34091
G1 X13.530 Y16.699 E1.39726
G1 X13.573 Y16.255 E1.45897
G1 X13.679 Y15.876 E1.51345
G1 X13.844 Y15.528 E1.56689
G1 X14.065 Y15.222 E1.61912
G1 X14.333 Y14.968 E1.67019
G1 X14.653 Y14.779 E1.72175
G1 X15.001 Y14.664 E1.77248
G1 X15.312 Y14.634 E1.81573
G1 X15.611 Y14.657 E1.85731
G1 X15.970 Y14.772 E1.90960
G1 X16.286 Y14.961 E1.96052
G1 X16.550 Y15.203 E2.01019
G1 X16.737 Y15.447 E2.05269
G1 X16.824 Y15.586 E2.07540
G1 X16.991 Y15.988 E2.13571
G1 X17.070 Y16.312 E2.18192
G1 X17.102 Y16.717 E2.23814
G1 X17.092 Y16.882 E2.26100
G1 E1.66100 F2400.00000
G92 E0
G1 X18.645 Y14.213 F1800.000
G1 E0.60000 F2400.00000
G1 F1800
G1 X18.670 Y14.049 E0.61387
G1 X18.786 Y13.842 E0.63355
G1 X18.912 Y13.724 E0.64793
G1 X19.090 Y13.619 E0.66519
G1 X19.334 Y13.543 E0.68649
G1 X19.498 Y13.514 E0.70030
G1 X19.757 Y13.492 E0.72199
G1 X20.106 Y13.502 E0.75103
G1 X20.347 Y13.536 E0.77137
G1 X20.616 Y13.610 E0.79462
G1 X20.770 Y13.678 E0.80860
G1 X20.984 Y13.833 E0.83066
G1 X21.077 Y13.964 E0.84395
G1 X21.131 Y14.128 E0.85834
G1 X21.119 Y14.319 E0.87435
G1 X21.062 Y14.450 E0.88621
G1 F1800
G1 X20.923 Y14.642 E0.90838
G1 X20.810 Y14.731 E0.92178
G1 X20.578 Y14.842 E0.94579
G1 X20.300 Y14.910 E0.97248
G1 X20.094 Y14.933 E0.99180
G1 X19.686 Y14.910 E1.02998
G1 F1800
G1 X19.320 Y14.834 E1.06071
G1 X19.014 Y14.709 E1.08792
G1 X18.815 Y14.568 E1.10800
G1 X18.746 Y14.489 E1.11666
G1 X18.674 Y14.359 E1.12891
G1 E0.52891 F2400.00000
G92 E0
G1 X27.459 Y12.261 F1800.000
G1 E0.60000 F2400.00000
G1 F1800
G1 X27.426 Y12.059 E0.62848
G1 X27.420 Y11.793 E0.66544
G1 X27.474 Y11.486 E0.70875
G1 X27.603 Y11.178 E0.75520
G1 X27.759 Y10.934 E0.79543
G1 X27.968 Y10.708 E0.83829
G1 X28.233 Y10.493 E0.88579
G1 X28.604 Y10.301 E0.94385
G1 X29.020 Y10.179 E1.00420
G1 X29.399 Y10.143 E1.05702
G1 X29.782 Y10.162 E1.11044
G1 X30.191 Y10.247 E1.16851
G1 X30.408 Y10.329 E1.20074
G1 X30.609 Y10.435 E1.23228
G1 X30.798 Y10.552 E1.26323
G1 X30.956 Y10.686 E1.29199
G1 X31.211 Y10.965 E1.34463
G1 X31.417 Y11.329 E1.40272
G1 X31.505 Y11.634 E1.44692
G1 X31.525 Y12.034 E1.50256
G1 X31.471 Y12.340 E1.54587
G1 X31.343 Y12.649 E1.59232
G1 X31.187 Y12.892 E1.63255
G1 X30.978 Y13.119 E1.67541
G1 X30.712 Y13.334 E1.72291
G1 X30.341 Y13.526 E1.78097
G1 X29.925 Y13.648 E1.84132
G1 X29.474 Y13.691 E1.90432
G1 X29.162 Y13.669 E1.94777
G1 X28.754 Y13.580 E2.00583
G1 X28.335 Y13.395 E2.06954
G1 X28.148 Y13.274 E2.10052
G1 X27.832 Y12.987 E2.15994
G1 X27.647 Y12.735 E2.20338
G1 X27.499 Y12.405 E2.25363
G1 E1.65363 F2400.00000
G92 E0
G1 X9.650 Y12.078 F1800.000
G1 E0.60000 F2400.00000
G1 F1800
G1 X9.663 Y11.853 E0.63139
G1 X9.741 Y11.528 E0.67781
G1 X9.867 Y11.275 E0.71718
G1 X10.032 Y11.051 E0.75579
G1 X10.169 Y10.917 E0.78256
G1 X10.324 Y10.786 E0.81074
G1 X10.685 Y10.579 E0.86852
G1 X11.097 Y10.447 E0.92875
G1 X11.393 Y10.410 E0.97027
G1 X11.713 Y10.410 E1.01475
G1 X12.110 Y10.479 E1.07080
G1 X12.354 Y10.555 E1.10631
G1 X12.710 Y10.741 E1.16218
G1 X12.984 Y10.962 E1.21104
G1 X13.235 Y11.282 E1.26766
G1 X13.359 Y11.537 E1.30712
G1 X13.449 Y11.923 E1.36219
G1 X13.437 Y12.238 E1.40608
G1 X13.358 Y12.563 E1.45250
G1 X13.233 Y12.816 E1.49187
G1 X13.068 Y13.040 E1.53048
G1 X12.776 Y13.306 E1.58539
G1 X12.546 Y13.446 E1.62283
G1 X12.215 Y13.588 E1.67296
G1 X11.781 Y13.679 E1.73463
G1 X11.337 Y13.681 E1.79637
G1 X10.988 Y13.616 E1.84560
G1 X10.554 Y13.449 E1.91031
G1 X10.401 Y13.359 E1.93496
G1 X10.080 Y13.087 E1.99351
G1 X9.851 Y12.787 E2.04597
G1 X9.697 Y12.426 E2.10056
G1 X9.661 Y12.227 E2.12861
G1 E1.52861 F2400.00000
G92 E0
G1 X18.216 Y10.602 F1800.000
G1 E0.60000 F2400.00000
G1 F1800
G1 X18.191 Y10.260 E0.63180
G1 F1800
G1 X18.205 Y10.018 E0.65461
G1 X18.303 Y9.611 E0.69406
G1 X18.488 Y9.211 E0.73562
G1 X18.621 Y9.006 E0.75858
G1 X18.858 Y8.714 E0.79406
G1 X19.235 Y8.392 E0.84076
G1 X19.407 Y8.277 E0.86021
G1 X19.806 Y8.089 E0.90177
G1 X20.002 Y8.026 E0.92124
G1 X20.334 Y7.956 E0.95317
G1 X20.683 Y7.937 E0.98609
G1 X21.250 Y7.971 E1.03964
G1 F1800
G1 X21.574 Y8.028 E1.06741
G1 X21.877 Y8.119 E1.09424
G1 X22.213 Y8.267 E1.12528
G1 X22.594 Y8.548 E1.16535
G1 X22.752 Y8.737 E1.18621
G1 X22.916 Y9.021 E1.21390
G1 X23.025 Y9.352 E1.24347
G1 X23.084 Y9.765 E1.27871
G1 X23.082 Y10.344 E1.32770
G1 X22.993 Y10.909 E1.37618
G1 F1800
G1 X22.836 Y11.321 E1.41677
G1 X22.720 Y11.503 E1.43665
G1 X22.568 Y11.676 E1.45790
G1 X22.247 Y11.900 E1.49401
G1 X21.796 Y12.055 E1.53787
G1 F1800
G1 X21.341 Y12.111 E1.57637
G1 X21.094 Y12.122 E1.59709
G1 F1800
G1 X20.393 Y12.100 E1.65063
G1 X19.780 Y12.005 E1.69796
G1 F1800
G1 X19.281 Y11.839 E1.74206
G1 X19.004 Y11.692 E1.76832
G1 X18.800 Y11.550 E1.78920
G1 F1800
G1 X18.617 Y11.386 E1.81194
G1 X18.468 Y11.201 E1.83402
G1 X18.347 Y10.996 E1.85608
G1 X18.250 Y10.747 E1.88081
G1 E1.28081 F2400.00000
G92 E0
; Filament-specific end gcode 
;END gcode for filament

M104 S0 ; turn off temperature
G28 X0  ; home X axis
M84     ; disable motors

M140 S0 ; set bed temperature
; filament used = 28.9mm (0.2cm3)
; total filament cost = 0.0

; avoid_crossing_perimeters = 0
; bed_shape = 0x0,100x0,100x100,0x100
; bed_temperature = 0
; before_layer_gcode = 
; between_objects_gcode = 
; bridge_acceleration = 0
; bridge_fan_speed = 100
; brim_connections_width = 0
; brim_width = 0
; complete_objects = 0
; cooling = 1
; default_acceleration = 0
; disable_fan_first_layers = 3
; duplicate_distance = 6
; end_filament_gcode = "; Filament-specific end gcode \n;END gcode for filament\n"
; end_gcode = M104 S0 ; turn off temperature\nG28 X0  ; home X axis\nM84     ; disable motors\n
; extruder_clearance_height = 20
; extruder_clearance_radius = 20
; extruder_offset = 0x0
; extrusion_axis = E
; extrusion_multiplier = 1
; fan_always_on = 0
; fan_below_layer_time = 60
; filament_colour = #FFFFFF
; filament_cost = 0
; filament_density = 0
; filament_diameter = 3
; filament_max_volumetric_speed = 0
; filament_notes = ""
; first_layer_acceleration = 0
; first_layer_bed_temperature = 0
; first_layer_extrusion_width = 200%
; first_layer_speed = 30
; first_layer_temperature = 5
; gcode_arcs = 0
; gcode_comments = 0
; gcode_flavor = reprap
; has_heatbed = 1
; infill_acceleration = 0
; infill_first = 0
; interior_brim_width = 0
; layer_gcode = 
; max_fan_speed = 100
; max_layer_height = 1
; max_print_speed = 80
; max_volumetric_speed = 0
; min_fan_speed = 35
; min_layer_height = 0.15
; min_print_speed = 10
; min_skirt_length = 0
; notes = 
; nozzle_diameter = 1
; only_retract_when_crossing_perimeters = 1
; ooze_prevention = 0
; output_filename_format = [input_filename_base].gcode
; perimeter_acceleration = 0
; post_process = 
; pressure_advance = 0
; printer_notes = 
; resolution = 0
; retract_before_travel = 2
; retract_layer_change = 0
; retract_length = 0.6
; retract_length_toolchange = 10
; retract_lift = 0
; retract_lift_above = 0
; retract_lift_below = 0
; retract_restart_extra = 0
; retract_restart_extra_toolchange = 0
; retract_speed = 40
; skirt_distance = 6
; skirt_height = 1
; skirts = 0
; slowdown_below_layer_time = 5
; spiral_vase = 0
; standby_temperature_delta = -5
; start_filament_gcode = "; Filament gcode\n"
; start_gcode = G28 ; home all axes\nG1 E1.6 F30 ; lift nozzle\n
; temperature = 0
; threads = 12
; toolchange_gcode = 
; travel_speed = 30
; use_firmware_retraction = 0
; use_relative_e_distances = 0
; use_set_and_wait_bed = 0
; use_set_and_wait_extruder = 0
; use_volumetric_e = 0
