; generated by Slic3r 1.3.0 on 2022-02-12 at 22:06:06

; external perimeters extrusion width = 1.10mm (12.24mm^3/s)
; perimeters extrusion width = 1.07mm (23.56mm^3/s)
; infill extrusion width = 1.07mm (62.83mm^3/s)
; solid infill extrusion width = 1.07mm (15.71mm^3/s)
; top infill extrusion width = 1.07mm (11.78mm^3/s)

M107
M104 S5 ; set temperature
G28 ; home all axes
G1 E1.6 F30 ; lift nozzle

; Filament gcode

M109 S5 ; set temperature and wait for it to be reached
G21 ; set units to millimeters
G90 ; use absolute coordinates
M82 ; use absolute distances for extrusion
G92 E0
G1 Z1.000 F1800.000
G1 E-0.80000 F2400.00000
G92 E0
G1 X9.564 Y12.671 F1800.000
G1 E0.80000 F2400.00000
G1 F1800
G1 X9.935 Y10.494 E1.35798
G1 X10.204 Y10.239 E1.45145
G1 X10.405 Y10.287 E1.50365
G1 X10.677 Y9.790 E1.64673
G1 X11.698 Y8.820 E2.00250
G1 X12.244 Y8.167 E2.21742
G1 X12.543 Y7.735 E2.35020
G1 X12.646 Y7.634 E2.38666
G1 X12.789 Y7.366 E2.46338
G1 X12.877 Y7.255 E2.49926
G1 X13.159 Y6.713 E2.65357
G1 X13.255 Y6.347 E2.74906
G1 X13.329 Y5.683 E2.91787
G1 X13.333 Y4.936 E3.10648
G1 X13.258 Y4.210 E3.29080
G1 X13.120 Y3.686 E3.42782
G1 X12.974 Y3.402 E3.50835
G1 X12.706 Y3.096 E3.61100
G1 X12.623 Y3.038 E3.63665
G1 X12.727 Y2.665 E3.73438
G1 X11.833 Y2.176 E3.99172
G1 X11.205 Y1.547 E4.21621
G1 X11.428 Y1.504 E4.27368
G1 X11.452 Y1.469 E4.28442
G1 X11.969 Y1.411 E4.41581
G1 X12.094 Y1.381 E4.44826
G1 X12.874 Y1.367 E4.64542
G1 X13.667 Y1.385 E4.84573
G1 X13.831 Y1.425 E4.88827
G1 X14.390 Y1.469 E5.02999
G1 X14.798 Y1.525 E5.13392
G1 X14.988 Y1.585 E5.18447
G1 X15.449 Y1.665 E5.30260
G1 X15.596 Y1.737 E5.34381
G1 X15.880 Y1.944 E5.43267
G1 X16.057 Y2.116 E5.49509
G1 X16.075 Y2.341 E5.55216
G1 X16.344 Y2.491 E5.62993
G1 X16.406 Y2.615 E5.66488
G1 X16.485 Y2.848 E5.72704
G1 X16.521 Y2.901 E5.74324
G1 X16.604 Y3.223 E5.82716
G1 X17.145 Y4.883 E6.26825
G1 X18.347 Y4.439 E6.59198
G1 X18.492 Y4.357 E6.63410
G1 X18.906 Y4.205 E6.74534
G1 X19.450 Y4.036 E6.88937
G1 X19.956 Y3.921 E7.02038
G1 X20.121 Y3.866 E7.06445
G1 X21.063 Y3.697 E7.30600
G1 X21.372 Y3.673 E7.38439
G1 X22.371 Y3.652 E7.63662
G1 X22.976 Y3.667 E7.78973
G1 X23.047 Y4.093 E7.89880
G1 X24.668 Y4.147 E8.30844
G1 X24.762 Y4.503 E8.40132
G1 X26.584 Y4.626 E8.86260
G1 X27.871 Y4.783 E9.19009
G1 X28.903 Y4.952 E9.45426
G1 X29.202 Y5.024 E9.53190
G1 X29.780 Y5.123 E9.68007
G1 X31.441 Y5.497 E10.11006
G1 X31.736 Y5.583 E10.18772
G1 X31.762 Y5.652 E10.20629
G1 X32.624 Y5.811 E10.42774
G1 X32.960 Y5.916 E10.51667
G1 X33.397 Y6.022 E10.63029
G1 X34.508 Y6.355 E10.92311
G1 X34.716 Y6.434 E10.97945
G1 X35.169 Y6.554 E11.09786
G1 X35.429 Y6.671 E11.16982
G1 X36.130 Y6.795 E11.34956
G1 X36.753 Y6.648 E11.51114
G1 X37.131 Y6.183 E11.66264
G1 X37.404 Y5.456 E11.85872
G1 X37.643 Y5.479 E11.91951
G1 X38.092 Y4.715 E12.14336
G1 X38.162 Y4.390 E12.22728
G1 X38.468 Y4.414 E12.30486
G1 X38.625 Y3.392 E12.56596
G1 X38.723 Y3.142 E12.63375
G1 X38.682 Y2.553 E12.78283
G1 X38.352 Y1.784 E12.99445
G1 X37.574 Y1.382 E13.21543
G1 X37.567 Y1.331 E13.22842
G1 X37.618 Y1.309 E13.24245
G1 X38.484 Y1.247 E13.46170
G1 X39.571 Y1.240 E13.73645
G1 X40.508 Y1.272 E13.97326
G1 X40.855 Y1.309 E14.06135
G1 X41.365 Y1.470 E14.19638
G1 X41.563 Y1.590 E14.25494
G1 X41.721 Y1.747 E14.31115
G1 X41.936 Y2.065 E14.40818
G1 X42.003 Y2.128 E14.43146
G1 X42.150 Y2.368 E14.50251
G1 X42.399 Y2.898 E14.65045
G1 X42.556 Y3.311 E14.76205
G1 X42.729 Y3.919 E14.92152
G1 X42.876 Y4.655 E15.11115
G1 X43.002 Y5.866 E15.41870
G1 X43.032 Y6.564 E15.59512
G1 X43.029 Y7.567 E15.84865
G1 X42.987 Y7.838 E15.91787
G1 X42.925 Y8.602 E16.11144
G1 X42.772 Y9.671 E16.38414
G1 X43.036 Y9.811 E16.45963
G1 X42.495 Y11.378 E16.87824
G1 X42.806 Y11.589 E16.97305
G1 X42.610 Y12.081 E17.10663
G1 X42.520 Y12.239 E17.15263
G1 X42.437 Y12.458 E17.21185
G1 X42.372 Y12.550 E17.24026
G1 X42.090 Y13.181 E17.41490
G1 X41.737 Y13.830 E17.60137
G1 X41.415 Y14.343 E17.75438
G1 X41.381 Y14.433 E17.77876
G1 X41.261 Y14.606 E17.83192
G1 X41.096 Y14.779 E17.89216
G1 X41.031 Y14.918 E17.93092
G1 X40.858 Y15.113 E17.99683
G1 X40.732 Y15.313 E18.05644
G1 X40.336 Y15.760 E18.20747
G1 X38.935 Y17.167 E18.70893
G1 X38.490 Y17.541 E18.85575
G1 X38.299 Y17.661 E18.91270
G1 X38.173 Y17.792 E18.95865
G1 X37.841 Y18.057 E19.06587
G1 X37.340 Y18.413 E19.22106
G1 X37.119 Y18.544 E19.28619
G1 X36.860 Y18.664 E19.35808
G1 X36.750 Y18.755 E19.39417
G1 X36.594 Y18.833 E19.43827
G1 X35.812 Y19.111 E19.64782
G1 X35.835 Y20.916 E20.10371
G1 X35.873 Y21.307 E20.20283
G1 X35.669 Y21.827 E20.34389
G1 X35.645 Y21.844 E20.35131
G1 X35.652 Y21.868 E20.35752
G1 X35.391 Y22.533 E20.53807
G1 X35.308 Y22.901 E20.63321
G1 X35.156 Y23.426 E20.77125
G1 X35.012 Y23.839 E20.88185
G1 X35.093 Y23.392 E20.99676
G1 X35.131 Y22.420 E21.24239
G1 X35.125 Y21.353 E21.51189
G1 X35.089 Y20.927 E21.61992
G1 X34.848 Y19.190 E22.06289
G1 X33.854 Y19.115 E22.31467
G1 X33.736 Y19.063 E22.34710
G1 X32.570 Y18.944 E22.64331
G1 X32.137 Y18.857 E22.75485
G1 X31.411 Y18.770 E22.93944
G1 X31.193 Y18.710 E22.99660
G1 X30.318 Y18.599 E23.21927
G1 X29.909 Y18.522 E23.32441
G1 X28.862 Y18.392 E23.59084
G1 X28.367 Y18.311 E23.71767
G1 X27.274 Y18.199 E23.99521
G1 X26.778 Y18.117 E24.12203
G1 X26.094 Y18.075 E24.29525
G1 X24.359 Y18.045 E24.73342
G1 X22.670 Y18.075 E25.16019
G1 X22.021 Y18.119 E25.32454
G1 X20.836 Y18.375 E25.63081
G1 X20.645 Y18.450 E25.68246
G1 X20.195 Y18.571 E25.80024
G1 X19.725 Y18.778 E25.92986
G1 X19.365 Y19.003 E26.03728
G1 X19.151 Y19.190 E26.10894
G1 X18.750 Y19.652 E26.26346
G1 X18.156 Y20.009 E26.43861
G1 X18.464 Y20.869 E26.66934
G1 X18.480 Y20.969 E26.69508
G1 X18.522 Y21.553 E26.84298
G1 X18.516 Y22.564 E27.09835
G1 X18.482 Y22.857 E27.17265
G1 X18.353 Y23.277 E27.28370
G1 X17.174 Y22.590 E27.62832
G1 X17.292 Y25.570 E28.38165
G1 X17.522 Y26.757 E28.68688
G1 X17.577 Y26.856 E28.71556
G1 X17.601 Y26.969 E28.74477
G1 X17.147 Y27.426 E28.90747
G1 X17.769 Y28.587 E29.24014
G1 X17.519 Y28.861 E29.33396
G1 X17.975 Y29.903 E29.62121
G1 X18.088 Y30.510 E29.77734
G1 X18.116 Y30.541 E29.78788
G1 X18.197 Y32.696 E30.33244
G1 X17.839 Y32.327 E30.46234
G1 X17.653 Y32.077 E30.54101
G1 X16.747 Y30.297 E31.04547
G1 X15.706 Y32.180 E31.58904
G1 X15.535 Y32.620 E31.70817
G1 X15.360 Y33.232 E31.86891
G1 X15.221 Y32.773 E31.98998
G1 X15.139 Y32.716 E32.01524
G1 X15.076 Y32.540 E32.06245
G1 X14.917 Y31.947 E32.21755
G1 X14.817 Y31.213 E32.40453
G1 X14.760 Y31.045 E32.44933
G1 X14.658 Y29.406 E32.86430
G1 X13.217 Y30.382 E33.30383
G1 X13.003 Y29.580 E33.51365
G1 X11.738 Y30.623 E33.92775
G1 X10.742 Y30.879 E34.18768
G1 X10.743 Y30.546 E34.27179
G1 X10.512 Y29.881 E34.44961
G1 X9.738 Y29.627 E34.65532
G1 X7.060 Y30.277 E35.35132
G1 X5.794 Y30.665 E35.68590
G1 X5.653 Y30.740 E35.72607
G1 X5.652 Y30.636 E35.75224
G1 X4.081 Y30.787 E36.15075
G1 X3.901 Y30.840 E36.19815
G1 X3.334 Y30.855 E36.34128
G1 X3.148 Y30.846 E36.38855
G1 X3.120 Y30.667 E36.43425
G1 X2.978 Y30.246 E36.54645
G1 X2.490 Y29.769 E36.71877
G1 X2.423 Y29.453 E36.80027
G1 X2.193 Y29.351 E36.86383
G1 X2.013 Y28.946 E36.97572
G1 X1.887 Y28.562 E37.07779
G1 X1.811 Y28.077 E37.20173
G1 X1.793 Y27.818 E37.26742
G1 X1.790 Y26.942 E37.48855
G1 X1.822 Y26.352 E37.63773
G1 X2.821 Y26.182 E37.89370
G1 X2.701 Y24.752 E38.25617
G1 X2.480 Y23.747 E38.51612
G1 X2.468 Y23.508 E38.57651
G1 X2.476 Y22.821 E38.75004
G1 X2.495 Y22.641 E38.79578
G1 X2.640 Y21.941 E38.97641
G1 X2.724 Y21.693 E39.04251
G1 X4.024 Y23.141 E39.53391
G1 X5.475 Y22.533 E39.93139
G1 X5.410 Y22.152 E40.02899
G1 X5.622 Y22.227 E40.08581
G1 X6.145 Y22.504 E40.23527
G1 X6.232 Y22.564 E40.26194
G1 X6.292 Y22.725 E40.30536
G1 X6.708 Y22.864 E40.41595
G1 X7.307 Y23.365 E40.61332
G1 X8.335 Y23.729 E40.88859
G1 X8.952 Y22.726 E41.18598
G1 X9.184 Y22.196 E41.33206
G1 X9.390 Y21.604 E41.49030
G1 X9.464 Y21.244 E41.58336
G1 X9.512 Y21.174 E41.60462
G1 X9.591 Y20.806 E41.69968
G1 X9.667 Y19.762 E41.96421
G1 X9.707 Y17.453 E42.54737
G1 X9.292 Y17.285 E42.66045
G1 X9.200 Y17.163 E42.69908
G1 X9.003 Y16.822 E42.79844
G1 X8.935 Y16.773 E42.81983
G1 X8.507 Y16.150 E43.01064
G1 X8.361 Y15.882 E43.08780
G1 X8.255 Y15.755 E43.12958
G1 X7.884 Y15.054 E43.32986
G1 X7.835 Y14.885 E43.37420
G1 X7.809 Y14.644 E43.43547
G1 X7.819 Y14.386 E43.50070
G1 X7.851 Y14.224 E43.54256
G1 X8.029 Y13.687 E43.68533
G1 X8.766 Y12.312 E44.07944
G1 X8.895 Y11.914 E44.18494
G1 X9.465 Y12.559 E44.40234
G1 E43.60234 F2400.00000
G92 E0
; Filament-specific end gcode 
;END gcode for filament

M104 S0 ; turn off temperature
G28 X0  ; home X axis
M84     ; disable motors

M140 S0 ; set bed temperature
; filament used = 43.6mm (0.3cm3)
; total filament cost = 0.0

; avoid_crossing_perimeters = 0
; bed_shape = 0x0,100x0,100x100,0x100
; bed_temperature = 0
; before_layer_gcode = 
; between_objects_gcode = 
; bridge_acceleration = 0
; bridge_fan_speed = 100
; brim_connections_width = 0
; brim_width = 0
; complete_objects = 0
; cooling = 1
; default_acceleration = 0
; disable_fan_first_layers = 3
; duplicate_distance = 6
; end_filament_gcode = "; Filament-specific end gcode \n;END gcode for filament\n"
; end_gcode = M104 S0 ; turn off temperature\nG28 X0  ; home X axis\nM84     ; disable motors\n
; extruder_clearance_height = 20
; extruder_clearance_radius = 20
; extruder_offset = 0x0
; extrusion_axis = E
; extrusion_multiplier = 1
; fan_always_on = 0
; fan_below_layer_time = 60
; filament_colour = #FFFFFF
; filament_cost = 0
; filament_density = 0
; filament_diameter = 3
; filament_max_volumetric_speed = 0
; filament_notes = ""
; first_layer_acceleration = 0
; first_layer_bed_temperature = 0
; first_layer_extrusion_width = 200%
; first_layer_speed = 30
; first_layer_temperature = 5
; gcode_arcs = 0
; gcode_comments = 0
; gcode_flavor = reprap
; has_heatbed = 1
; infill_acceleration = 0
; infill_first = 0
; interior_brim_width = 0
; layer_gcode = 
; max_fan_speed = 100
; max_layer_height = 1
; max_print_speed = 80
; max_volumetric_speed = 0
; min_fan_speed = 35
; min_layer_height = 0.15
; min_print_speed = 10
; min_skirt_length = 0
; notes = 
; nozzle_diameter = 1
; only_retract_when_crossing_perimeters = 1
; ooze_prevention = 0
; output_filename_format = [input_filename_base].gcode
; perimeter_acceleration = 0
; post_process = 
; pressure_advance = 0
; printer_notes = 
; resolution = 0
; retract_before_travel = 2
; retract_layer_change = 0
; retract_length = 0.8
; retract_length_toolchange = 10
; retract_lift = 0
; retract_lift_above = 0
; retract_lift_below = 0
; retract_restart_extra = 0
; retract_restart_extra_toolchange = 0
; retract_speed = 40
; skirt_distance = 6
; skirt_height = 1
; skirts = 0
; slowdown_below_layer_time = 5
; spiral_vase = 0
; standby_temperature_delta = -5
; start_filament_gcode = "; Filament gcode\n"
; start_gcode = G28 ; home all axes\nG1 E1.6 F30 ; lift nozzle\n
; temperature = 0
; threads = 12
; toolchange_gcode = 
; travel_speed = 30
; use_firmware_retraction = 0
; use_relative_e_distances = 0
; use_set_and_wait_bed = 0
; use_set_and_wait_extruder = 0
; use_volumetric_e = 0
; vibration_limit = 0
; wipe = 0
; z_offset = 0
; z_steps_per_mm = 0
; adaptive_slicing = 0
; adaptive_slicing_quality = 75%
; dont_support_bridges = 1
; extrusion_width = 0
; first_layer_height = 1
; infill_only_where_needed = 0
; interface_shells = 0
; layer_height = 0.9
; match_horizontal_surfaces = 0
; raft_layers = 0
; regions_overlap = 0
; seam_position = aligned
; sequential_print_priority = 0
; support_material = 0
; support_material_angle = 0
; support_material_buildplate_only = 0
; support_material_contact_distance = 0.2
; support_material_enforce_layers = 0
; support_material_extruder = 1
; support_material_extrusion_width = 0
; support_material_interface_extruder = 1
; support_material_interface_extrusion_width = 0
; support_material_interface_layers = 3
; support_material_interface_spacing = 0
; support_material_interface_speed = 100%
; support_material_max_layers = 0
; support_material_pattern = pillars
; support_material_spacing = 2.5
; support_material_speed = 60
; support_material_threshold = 60%
; xy_size_compensation = 0
; bottom_infill_pattern = rectilinear
; bottom_solid_layers = 0
; bridge_flow_ratio = 1
; bridge_speed = 60
; external_perimeter_extrusion_width = 0
; external_perimeter_speed = 50%
; external_perimeters_first = 0
; extra_perimeters = 0
; fill_angle = 45
; fill_density = 0%
; fill_gaps = 1
; fill_pattern = stars
; gap_fill_speed = 20
; infill_every_layers = 1
; infill_extruder = 1
; infill_extrusion_width = 0
; infill_overlap = 55%
; infill_speed = 80
; overhangs = 1
; perimeter_extruder = 1
; perimeter_extrusion_width = 0
; perimeter_speed = 30
; perimeters = 1
; small_perimeter_speed = 15
; solid_infill_below_area = 70
; solid_infill_every_layers = 0
; solid_infill_extruder = 1
; solid_infill_extrusion_width = 0
; solid_infill_speed = 20
; thin_walls = 0
; top_infill_extrusion_width = 0
; top_infill_pattern = rectilinear
; top_solid_infill_speed = 15
; top_solid_layers = 0
