; generated by Slic3r 1.3.0 on 2022-02-13 at 13:35:32

; external perimeters extrusion width = 1.10mm (12.24mm^3/s)
; perimeters extrusion width = 1.07mm (23.56mm^3/s)
; infill extrusion width = 1.07mm (62.83mm^3/s)
; solid infill extrusion width = 1.07mm (15.71mm^3/s)
; top infill extrusion width = 1.07mm (11.78mm^3/s)

M107
M104 S5 ; set temperature
G28 ; home all axes
G1 E1.6 F30 ; lift nozzle

; Filament gcode

M109 S5 ; set temperature and wait for it to be reached
G21 ; set units to millimeters
G90 ; use absolute coordinates
M82 ; use absolute distances for extrusion
G92 E0
G1 Z1.000 F1800.000
G1 E-0.80000 F2400.00000
G92 E0
G1 X10.532 Y13.013 F1800.000
G1 E0.80000 F2400.00000
G1 F1800
G1 X10.903 Y10.835 E1.35798
G1 X11.172 Y10.580 E1.45145
G1 X11.373 Y10.628 E1.50365
G1 X11.644 Y10.131 E1.64673
G1 X12.666 Y9.162 E2.00250
G1 X13.211 Y8.509 E2.21742
G1 X13.511 Y8.077 E2.35020
G1 X13.614 Y7.975 E2.38666
G1 X13.757 Y7.707 E2.46338
G1 X13.845 Y7.596 E2.49926
G1 X14.127 Y7.054 E2.65357
G1 X14.223 Y6.688 E2.74906
G1 X14.297 Y6.024 E2.91787
G1 X14.301 Y5.277 E3.10648
G1 X14.226 Y4.552 E3.29080
G1 X14.088 Y4.027 E3.42782
G1 X13.942 Y3.744 E3.50835
G1 X13.674 Y3.438 E3.61100
G1 X13.591 Y3.379 E3.63665
G1 X13.694 Y3.006 E3.73438
G1 X12.800 Y2.517 E3.99172
G1 X12.173 Y1.888 E4.21621
G1 X12.396 Y1.845 E4.27368
G1 X12.420 Y1.810 E4.28442
G1 X12.937 Y1.752 E4.41581
G1 X13.061 Y1.722 E4.44826
G1 X13.842 Y1.709 E4.64542
G1 X14.635 Y1.726 E4.84573
G1 X14.798 Y1.767 E4.88827
G1 X15.358 Y1.811 E5.02999
G1 X15.765 Y1.866 E5.13392
G1 X15.956 Y1.926 E5.18447
G1 X16.417 Y2.006 E5.30260
G1 X16.564 Y2.078 E5.34381
G1 X16.848 Y2.285 E5.43267
G1 X17.025 Y2.457 E5.49509
G1 X17.043 Y2.683 E5.55216
G1 X17.312 Y2.832 E5.62993
G1 X17.374 Y2.956 E5.66488
G1 X17.453 Y3.189 E5.72704
G1 X17.489 Y3.243 E5.74324
G1 X17.572 Y3.564 E5.82716
G1 X18.113 Y5.225 E6.26825
G1 X19.315 Y4.780 E6.59198
G1 X19.460 Y4.698 E6.63410
G1 X19.873 Y4.546 E6.74534
G1 X20.418 Y4.377 E6.88937
G1 X20.924 Y4.262 E7.02038
G1 X21.089 Y4.207 E7.06445
G1 X22.030 Y4.038 E7.30600
G1 X22.340 Y4.014 E7.38439
G1 X23.338 Y3.993 E7.63662
G1 X23.944 Y4.009 E7.78973
G1 X24.015 Y4.435 E7.89880
G1 X25.636 Y4.489 E8.30844
G1 X25.730 Y4.844 E8.40132
G1 X27.552 Y4.967 E8.86260
G1 X28.839 Y5.124 E9.19009
G1 X29.871 Y5.294 E9.45426
G1 X30.170 Y5.365 E9.53190
G1 X30.748 Y5.465 E9.68007
G1 X32.409 Y5.838 E10.11006
G1 X32.704 Y5.925 E10.18772
G1 X32.729 Y5.994 E10.20629
G1 X33.592 Y6.152 E10.42774
G1 X33.927 Y6.258 E10.51667
G1 X34.365 Y6.364 E10.63029
G1 X35.475 Y6.696 E10.92311
G1 X35.684 Y6.775 E10.97945
G1 X36.137 Y6.896 E11.09786
G1 X36.397 Y7.012 E11.16982
G1 X37.098 Y7.136 E11.34956
G1 X37.720 Y6.990 E11.51114
G1 X38.098 Y6.524 E11.66264
G1 X38.372 Y5.797 E11.85872
G1 X38.611 Y5.821 E11.91951
G1 X39.059 Y5.056 E12.14336
G1 X39.129 Y4.731 E12.22728
G1 X39.436 Y4.755 E12.30486
G1 X39.593 Y3.734 E12.56596
G1 X39.691 Y3.484 E12.63375
G1 X39.650 Y2.895 E12.78283
G1 X39.319 Y2.125 E12.99445
G1 X38.542 Y1.724 E13.21543
G1 X38.535 Y1.673 E13.22842
G1 X38.586 Y1.650 E13.24245
G1 X39.451 Y1.589 E13.46170
G1 X40.539 Y1.582 E13.73645
G1 X41.476 Y1.614 E13.97326
G1 X41.823 Y1.650 E14.06135
G1 X42.333 Y1.811 E14.19638
G1 X42.531 Y1.931 E14.25494
G1 X42.689 Y2.088 E14.31115
G1 X42.904 Y2.406 E14.40818
G1 X42.971 Y2.469 E14.43146
G1 X43.118 Y2.709 E14.50251
G1 X43.367 Y3.240 E14.65045
G1 X43.523 Y3.653 E14.76205
G1 X43.696 Y4.260 E14.92152
G1 X43.844 Y4.996 E15.11115
G1 X43.970 Y6.207 E15.41870
G1 X44.000 Y6.905 E15.59512
G1 X43.997 Y7.909 E15.84865
G1 X43.955 Y8.180 E15.91787
G1 X43.893 Y8.943 E16.11144
G1 X43.740 Y10.012 E16.38414
G1 X44.004 Y10.153 E16.45963
G1 X43.463 Y11.719 E16.87824
G1 X43.774 Y11.931 E16.97305
G1 X43.578 Y12.422 E17.10663
G1 X43.488 Y12.580 E17.15263
G1 X43.405 Y12.800 E17.21185
G1 X43.340 Y12.891 E17.24026
G1 X43.058 Y13.523 E17.41490
G1 X42.705 Y14.171 E17.60137
G1 X42.383 Y14.684 E17.75438
G1 X42.348 Y14.774 E17.77876
G1 X42.229 Y14.947 E17.83192
G1 X42.064 Y15.120 E17.89216
G1 X41.999 Y15.259 E17.93092
G1 X41.826 Y15.454 E17.99683
G1 X41.700 Y15.654 E18.05644
G1 X41.304 Y16.102 E18.20747
G1 X39.903 Y17.508 E18.70893
G1 X39.458 Y17.883 E18.85575
G1 X39.267 Y18.002 E18.91270
G1 X39.140 Y18.133 E18.95865
G1 X38.809 Y18.398 E19.06587
G1 X38.308 Y18.754 E19.22106
G1 X38.086 Y18.886 E19.28619
G1 X37.828 Y19.006 E19.35808
G1 X37.718 Y19.096 E19.39417
G1 X37.562 Y19.175 E19.43827
G1 X36.780 Y19.453 E19.64782
G1 X36.803 Y21.258 E20.10371
G1 X36.840 Y21.648 E20.20283
G1 X36.636 Y22.168 E20.34389
G1 X36.613 Y22.186 E20.35131
G1 X36.620 Y22.209 E20.35752
G1 X36.359 Y22.875 E20.53807
G1 X36.276 Y23.242 E20.63321
G1 X36.123 Y23.767 E20.77125
G1 X35.980 Y24.181 E20.88185
G1 X36.061 Y23.733 E20.99676
G1 X36.098 Y22.761 E21.24239
G1 X36.093 Y21.694 E21.51189
G1 X36.056 Y21.268 E21.61992
G1 X35.816 Y19.531 E22.06289
G1 X34.822 Y19.456 E22.31467
G1 X34.704 Y19.405 E22.34710
G1 X33.537 Y19.285 E22.64331
G1 X33.104 Y19.198 E22.75485
G1 X32.379 Y19.112 E22.93944
G1 X32.161 Y19.052 E22.99660
G1 X31.286 Y18.940 E23.21927
G1 X30.877 Y18.863 E23.32441
G1 X29.830 Y18.734 E23.59084
G1 X29.335 Y18.653 E23.71767
G1 X28.242 Y18.540 E23.99521
G1 X27.746 Y18.458 E24.12203
G1 X27.062 Y18.417 E24.29525
G1 X25.327 Y18.387 E24.73342
G1 X23.638 Y18.417 E25.16019
G1 X22.989 Y18.460 E25.32454
G1 X21.803 Y18.717 E25.63081
G1 X21.613 Y18.791 E25.68246
G1 X21.163 Y18.913 E25.80024
G1 X20.693 Y19.119 E25.92986
G1 X20.332 Y19.344 E26.03728
G1 X20.119 Y19.532 E26.10894
G1 X19.718 Y19.994 E26.26346
G1 X19.123 Y20.350 E26.43861
G1 X19.432 Y21.210 E26.66934
G1 X19.448 Y21.311 E26.69508
G1 X19.490 Y21.895 E26.84298
G1 X19.484 Y22.906 E27.09835
G1 X19.450 Y23.198 E27.17265
G1 X19.321 Y23.618 E27.28370
G1 X18.142 Y22.931 E27.62832
G1 X18.260 Y25.912 E28.38165
G1 X18.490 Y27.098 E28.68688
G1 X18.544 Y27.197 E28.71556
G1 X18.569 Y27.310 E28.74477
G1 X18.115 Y27.767 E28.90747
G1 X18.737 Y28.928 E29.24014
G1 X18.486 Y29.202 E29.33396
G1 X18.943 Y30.244 E29.62121
G1 X19.056 Y30.852 E29.77734
G1 X19.084 Y30.882 E29.78788
G1 X19.165 Y33.037 E30.33244
G1 X18.807 Y32.668 E30.46234
G1 X18.621 Y32.418 E30.54101
G1 X17.715 Y30.638 E31.04547
G1 X16.673 Y32.522 E31.58904
G1 X16.502 Y32.961 E31.70817
G1 X16.328 Y33.573 E31.86891
G1 X16.188 Y33.115 E31.98998
G1 X16.107 Y33.057 E32.01524
G1 X16.044 Y32.881 E32.06245
G1 X15.885 Y32.288 E32.21755
G1 X15.785 Y31.554 E32.40453
G1 X15.728 Y31.387 E32.44933
G1 X15.625 Y29.747 E32.86430
G1 X14.185 Y30.724 E33.30383
G1 X13.971 Y29.921 E33.51365
G1 X12.706 Y30.964 E33.92775
G1 X11.710 Y31.220 E34.18768
G1 X11.711 Y30.887 E34.27179
G1 X11.480 Y30.223 E34.44961
G1 X10.706 Y29.969 E34.65532
G1 X8.028 Y30.618 E35.35132
G1 X6.761 Y31.006 E35.68590
G1 X6.621 Y31.081 E35.72607
G1 X6.619 Y30.977 E35.75224
G1 X5.049 Y31.129 E36.15075
G1 X4.869 Y31.181 E36.19815
G1 X4.302 Y31.197 E36.34128
G1 X4.115 Y31.187 E36.38855
G1 X4.088 Y31.008 E36.43425
G1 X3.946 Y30.587 E36.54645
G1 X3.458 Y30.110 E36.71877
G1 X3.391 Y29.795 E36.80027
G1 X3.161 Y29.692 E36.86383
G1 X2.981 Y29.287 E36.97572
G1 X2.854 Y28.903 E37.07779
G1 X2.779 Y28.418 E37.20173
G1 X2.761 Y28.159 E37.26742
G1 X2.757 Y27.284 E37.48855
G1 X2.790 Y26.694 E37.63773
G1 X3.789 Y26.524 E37.89370
G1 X3.669 Y25.094 E38.25617
G1 X3.447 Y24.089 E38.51612
G1 X3.436 Y23.850 E38.57651
G1 X3.444 Y23.163 E38.75004
G1 X3.463 Y22.983 E38.79578
G1 X3.608 Y22.282 E38.97641
G1 X3.692 Y22.034 E39.04251
G1 X4.991 Y23.482 E39.53391
G1 X6.443 Y22.874 E39.93139
G1 X6.378 Y22.493 E40.02899
G1 X6.590 Y22.569 E40.08581
G1 X7.113 Y22.846 E40.23527
G1 X7.200 Y22.906 E40.26194
G1 X7.260 Y23.066 E40.30536
G1 X7.676 Y23.205 E40.41595
G1 X8.275 Y23.706 E40.61332
G1 X9.302 Y24.070 E40.88859
G1 X9.919 Y23.067 E41.18598
G1 X10.151 Y22.537 E41.33206
G1 X10.358 Y21.946 E41.49030
G1 X10.432 Y21.585 E41.58336
G1 X10.480 Y21.515 E41.60462
G1 X10.559 Y21.148 E41.69968
G1 X10.634 Y20.103 E41.96421
G1 X10.674 Y17.794 E42.54737
G1 X10.259 Y17.627 E42.66045
G1 X10.167 Y17.504 E42.69908
G1 X9.971 Y17.163 E42.79844
G1 X9.902 Y17.114 E42.81983
G1 X9.475 Y16.492 E43.01064
G1 X9.328 Y16.223 E43.08780
G1 X9.222 Y16.096 E43.12958
G1 X8.852 Y15.395 E43.32986
G1 X8.803 Y15.227 E43.37420
G1 X8.777 Y14.986 E43.43547
G1 X8.787 Y14.727 E43.50070
G1 X8.819 Y14.565 E43.54256
G1 X8.997 Y14.028 E43.68533
G1 X9.734 Y12.653 E44.07944
G1 X9.862 Y12.256 E44.18494
G1 X10.433 Y12.900 E44.40234
G1 E43.60234 F2400.00000
G92 E0
G1 X17.932 Y5.990 F1800.000
G1 E0.80000 F2400.00000
G1 F1800
G1 X29.780 Y17.838 E5.03216
G1 X32.937 Y18.276 E5.83714
G1 X33.141 Y18.332 E5.89062
G1 X33.821 Y18.413 E6.06349
G1 X34.244 Y18.497 E6.17242
G1 X35.551 Y18.632 E6.50439
G1 X35.652 Y18.676 E6.53217
G1 X36.762 Y18.759 E6.81336
G1 X37.133 Y18.627 E6.91275
G1 X23.749 Y5.244 E11.69331
G1 X24.108 Y5.256 E11.78393
G1 X24.193 Y5.579 E11.86815
G1 X26.919 Y5.763 E12.55815
G1 X28.144 Y5.912 E12.86989
G1 X29.103 Y6.070 E13.11543
G1 X29.397 Y6.140 E13.19177
G1 X29.983 Y6.241 E13.34202
G1 X31.204 Y6.515 E13.65802
G1 X31.249 Y6.638 E13.69112
G1 X31.810 Y6.741 E13.83507
G1 X40.820 Y15.752 E17.05372
G1 X41.157 Y15.376 E17.18113
G1 X41.283 Y15.175 E17.24105
G1 X41.404 Y15.039 E17.28689
G1 X41.479 Y14.880 E17.33135
G1 X41.698 Y14.649 E17.41172
G1 X42.083 Y14.019 E17.59847
G1 X42.392 Y13.451 E17.76170
G1 X42.636 Y12.905 E17.91283
G1 X42.407 Y12.749 E17.98283
G1 X42.910 Y11.293 E18.37193
G1 X42.823 Y11.246 E18.39692
G1 X42.830 Y11.197 E18.40934
G1 X38.546 Y6.914 E19.93934
G1 X38.730 Y6.688 E20.01291
G1 X38.809 Y6.696 E20.03298
G1 X39.450 Y5.601 E20.35342
G1 X40.036 Y5.647 E20.50170
G1 X40.357 Y3.567 E21.03336
G1 X40.509 Y3.177 E21.13910
G1 X40.455 Y2.398 E21.33638
G1 X40.598 Y2.403 E21.37266
G1 X42.795 Y4.599 E22.15738
G1 E21.35738 F2400.00000
G92 E0
G1 X17.036 Y5.094 F1800.000
G1 E0.80000 F2400.00000
G1 F1800
G1 X14.619 Y2.678 E1.66314
G1 X14.808 Y3.044 E1.76731
G1 X15.009 Y3.806 E1.96624
G1 X15.102 Y4.704 E2.19420
G1 X15.097 Y5.591 E2.41833
G1 X15.005 Y6.419 E2.62872
G1 X14.848 Y7.019 E2.78538
G1 X14.440 Y7.804 E3.00885
G1 X14.346 Y7.920 E3.04657
G1 X14.166 Y8.258 E3.14319
G1 X14.009 Y8.413 E3.19907
G1 X13.920 Y8.542 E3.23852
G1 X23.095 Y17.716 E6.51575
G1 X21.934 Y17.968 E6.81575
G1 X21.712 Y18.054 E6.87589
G1 X21.235 Y18.183 E7.00063
G1 X20.589 Y18.467 E7.17900
G1 X20.058 Y18.799 E7.33704
G1 X19.698 Y19.115 E7.45811
G1 X19.375 Y19.487 E7.58254
G1 X18.704 Y19.889 E7.78013
G1 X11.347 Y12.532 E10.40812
G1 X10.854 Y15.421 E11.14837
G1 X9.678 Y14.092 E11.59672
G1 X9.580 Y14.433 E11.68632
G1 X9.790 Y14.833 E11.80053
G1 X9.907 Y14.973 E11.84662
G1 X10.083 Y15.296 E11.93942
G1 X10.342 Y15.672 E12.05479
G1 X10.455 Y15.753 E12.08998
G1 X10.632 Y16.060 E12.17952
G1 X11.490 Y16.408 E12.41342
G1 X11.442 Y19.191 E13.11659
G1 X17.408 Y25.157 E15.24770
G1 X17.464 Y26.572 E15.60541
G1 X17.512 Y26.817 E15.66842
G1 X16.102 Y26.538 E16.03140
G1 X15.947 Y27.321 E16.23296
G1 X15.589 Y28.812 E16.62014
G1 X15.406 Y28.814 E16.66650
G1 X15.221 Y28.121 E16.84754
G1 X14.447 Y28.760 E17.10086
G1 X9.919 Y24.231 E18.71845
G1 X9.354 Y25.149 E18.99070
G1 X7.106 Y24.353 E19.59300
G1 X6.516 Y23.860 E19.78724
G1 X6.092 Y23.719 E19.90001
G1 X4.459 Y24.403 E20.34732
G1 X4.544 Y25.420 E20.60520
G1 X8.832 Y29.708 E22.13690
G1 X8.191 Y29.864 E22.30354
G1 X7.215 Y30.162 E22.56136
G1 X5.539 Y30.324 E22.98672
G1 X5.166 Y29.959 E23.11828
G1 X5.042 Y29.379 E23.26806
G1 X4.679 Y29.217 E23.36849
G1 X4.642 Y29.105 E23.39830
G1 X4.592 Y28.781 E23.48126
G1 X4.579 Y28.315 E23.59897
G1 X5.705 Y28.123 E23.88731
G1 X5.563 Y26.439 E24.31405
G1 E23.51405 F2400.00000
G92 E0
G1 X16.949 Y28.111 F1800.000
G1 E0.80000 F2400.00000
G1 F1800
G1 X17.040 Y27.651 E0.84203
G1 X16.949 Y28.111 F1800.000
G1 F1800
G1 X16.527 Y29.867 E1.02379
G1 E0.22379 F2400.00000
G92 E0
; Filament-specific end gcode 
;END gcode for filament

M104 S0 ; turn off temperature
G28 X0  ; home X axis
M84     ; disable motors

M140 S0 ; set bed temperature
; filament used = 88.7mm (0.6cm3)
; total filament cost = 0.0

; avoid_crossing_perimeters = 0
; bed_shape = 0x0,100x0,100x100,0x100
; bed_temperature = 0
; before_layer_gcode = 
; between_objects_gcode = 
; bridge_acceleration = 0
; bridge_fan_speed = 100
; brim_connections_width = 0
; brim_width = 0
; complete_objects = 0
; cooling = 1
; default_acceleration = 0
; disable_fan_first_layers = 3
; duplicate_distance = 6
; end_filament_gcode = "; Filament-specific end gcode \n;END gcode for filament\n"
; end_gcode = M104 S0 ; turn off temperature\nG28 X0  ; home X axis\nM84     ; disable motors\n
; extruder_clearance_height = 20
; extruder_clearance_radius = 20
; extruder_offset = 0x0
; extrusion_axis = E
; extrusion_multiplier = 1
; fan_always_on = 0
; fan_below_layer_time = 60
; filament_colour = #FFFFFF
; filament_cost = 0
; filament_density = 0
; filament_diameter = 3
; filament_max_volumetric_speed = 0
; filament_notes = ""
; first_layer_acceleration = 0
; first_layer_bed_temperature = 0
; first_layer_extrusion_width = 200%
; first_layer_speed = 30
; first_layer_temperature = 5
; gcode_arcs = 0
; gcode_comments = 0
; gcode_flavor = reprap
; has_heatbed = 1
; infill_acceleration = 0
; infill_first = 0
; interior_brim_width = 0
; layer_gcode = 
; max_fan_speed = 100
; max_layer_height = 1
; max_print_speed = 80
; max_volumetric_speed = 0
; min_fan_speed = 35
; min_layer_height = 0.15
; min_print_speed = 10
; min_skirt_length = 0
; notes = 
; nozzle_diameter = 1
; only_retract_when_crossing_perimeters = 1
; ooze_prevention = 0
; output_filename_format = [input_filename_base].gcode
; perimeter_acceleration = 0
; post_process = 
; pressure_advance = 0
; printer_notes = 
; resolution = 0
; retract_before_travel = 2
; retract_layer_change = 0
; retract_length = 0.8
; retract_length_toolchange = 10
; retract_lift = 0
; retract_lift_above = 0
; retract_lift_below = 0
; retract_restart_extra = 0
; retract_restart_extra_toolchange = 0
; retract_speed = 40
; skirt_distance = 6
; skirt_height = 1
; skirts = 0
; slowdown_below_layer_time = 5
; spiral_vase = 0
; standby_temperature_delta = -5
; start_filament_gcode = "; Filament gcode\n"
; start_gcode = G28 ; home all axes\nG1 E1.6 F30 ; lift nozzle\n
; temperature = 0
; threads = 12
; toolchange_gcode = 
; travel_speed = 30
; use_firmware_retraction = 0
; use_relative_e_distances = 0
; use_set_and_wait_bed = 0
; use_set_and_wait_extruder = 0
; use_volumetric_e = 0
; vibration_limit = 0
; wipe = 0
; z_offset = 0
; z_steps_per_mm = 0
; adaptive_slicing = 0
; adaptive_slicing_quality = 75%
; dont_support_bridges = 1
; extrusion_width = 0
; first_layer_height = 1
; infill_only_where_needed = 0
; interface_shells = 0
; layer_height = 0.9
; match_horizontal_surfaces = 0
; raft_layers = 0
; regions_overlap = 0
; seam_position = aligned
; sequential_print_priority = 0
; support_material = 0
; support_material_angle = 0
; support_material_buildplate_only = 0
; support_material_contact_distance = 0.2
; support_material_enforce_layers = 0
; support_material_extruder = 1
; support_material_extrusion_width = 0
; support_material_interface_extruder = 1
; support_material_interface_extrusion_width = 0
; support_material_interface_layers = 3
; support_material_interface_spacing = 0
; support_material_interface_speed = 100%
; support_material_max_layers = 0
; support_material_pattern = pillars
; support_material_spacing = 2.5
; support_material_speed = 60
; support_material_threshold = 60%
; xy_size_compensation = 0
; bottom_infill_pattern = rectilinear
; bottom_solid_layers = 0
; bridge_flow_ratio = 1
; bridge_speed = 60
; external_perimeter_extrusion_width = 0
; external_perimeter_speed = 50%
; external_perimeters_first = 0
; extra_perimeters = 0
; fill_angle = 45
; fill_density = 18%
; fill_gaps = 1
; fill_pattern = alignedrectilinear
; gap_fill_speed = 20
; infill_every_layers = 1
; infill_extruder = 1
; infill_extrusion_width = 0
; infill_overlap = 55%
; infill_speed = 80
; overhangs = 1
; perimeter_extruder = 1
; perimeter_extrusion_width = 0
; perimeter_speed = 30
; perimeters = 1
; small_perimeter_speed = 15
; solid_infill_below_area = 70
