; generated by PrusaSlicer 2.3.3+win64 on 2022-01-30 at 22:09:36 UTC

; 

; external perimeters extrusion width = 2.81mm
; perimeters extrusion width = 2.81mm
; infill extrusion width = 2.81mm
; solid infill extrusion width = 2.81mm
; top infill extrusion width = 2.50mm
; first layer extrusion width = 1.00mm

M73 P0 R4
M73 Q0 S4
M201 X3000 Y3000 Z100 E10000 ; sets maximum accelerations, mm/sec^2
M203 X200 Y200 Z12 E120 ; sets maximum feedrates, mm/sec
M204 P1250 R1250 T1250 ; sets acceleration (P, T) and retract acceleration (R), mm/sec^2
M205 X8.00 Y8.00 Z0.40 E4.50 ; sets the jerk limits, mm/sec
M205 S0 T0 ; sets the minimum extruding and travel feed rate, mm/sec
M107
M104 S200 ; set temperature
;TYPE:Custom
G90 ; use absolute coordinates
M83 ; extruder relative mode
G92 E0.0
M109 S200 ; set temperature and wait for it to be reached
G21 ; set units to millimeters
G90 ; use absolute coordinates
M83 ; use relative distances for extrusion
; Filament gcode
;LAYER_CHANGE
;Z:0.5
;HEIGHT:0.5
;BEFORE_LAYER_CHANGE
;
;WITNESS ME
;AND DELETE AFTER HERE FOR PANCAKES
;
G92 E0.0
;0.5


G1 E-0.80000 F2100.000
G1 Z0.400 F1200.000
G1 Z0.500
;AFTER_LAYER_CHANGE
;0.5
G1 Z0.900
G1 X12.514 Y17.076
G1 Z0.500
G1 E0.80000 F2100.000
;TYPE:Perimeter
;WIDTH:1
G1 F1200.000
G1 X27.543 Y17.076 E2.78898
M73 P1 R4
G1 X27.543 Y32.105 E2.78898
M73 Q1 S4
G1 X12.514 Y32.105 E2.78898
G1 X12.514 Y17.451 E2.71939
G1 E-0.80000 F2100.000
M73 P2 R4
G1 Z0.900 F1200.000
M73 Q2 S4
G1 X11.621 Y16.183
G1 Z0.500
G1 E0.80000 F2100.000
G1 F1200.000
G1 X28.436 Y16.183 E3.12030
G1 X28.436 Y32.998 E3.12030
G1 X11.621 Y32.998 E3.12030
M73 P3 R4
M73 Q3 S4
G1 X11.621 Y16.558 E3.05071
G1 E-0.80000 F2100.000
G1 Z0.900 F1200.000
G1 X10.728 Y15.291
G1 Z0.500
G1 E0.80000 F2100.000
;TYPE:External perimeter
G1 F1200.000
G1 X29.328 Y15.291 E3.45161
M73 P4 R4
M73 Q4 S4
G1 X29.328 Y33.891 E3.45161
G1 X10.728 Y33.891 E3.45161
M73 P5 R4
G1 X10.728 Y15.666 E3.38202
M73 Q5 S4
G1 X13.143 Y15.938
G1 E-0.80000 F2100.000
G1 Z0.900 F1200.000
G1 X25.462 Y17.344
G1 Z0.500
G1 E0.80000 F2100.000
;TYPE:Solid infill
;WIDTH:1.00397
G1 F1200.000
G1 X26.873 Y18.755 E0.37200
G1 X26.873 Y20.023 E0.23636
G1 X24.596 Y17.746 E0.60037
M73 P6 R4
G1 X23.328 Y17.746 E0.23636
G1 X26.873 Y21.291 E0.93464
M73 Q6 S4
G1 X26.873 Y22.559 E0.23636
G1 X22.060 Y17.746 E1.26891
G1 X20.792 Y17.746 E0.23636
G1 X26.873 Y23.827 E1.60317
G1 X26.873 Y25.095 E0.23636
G1 X19.524 Y17.746 E1.93744
G1 X18.255 Y17.746 E0.23636
G1 X26.873 Y26.364 E2.27171
M73 P7 R4
M73 Q7 S4
G1 X26.873 Y27.632 E0.23636
G1 X16.987 Y17.746 E2.60598
G1 X15.719 Y17.746 E0.23636
G1 X26.873 Y28.900 E2.94024
G1 X26.873 Y30.168 E0.23636
G1 X14.451 Y17.746 E3.27451
M73 P8 R4
M73 Q8 S4
G1 X13.183 Y17.746 E0.23635
G1 X26.873 Y31.436 E3.60874
M73 Q8 S3
G1 X25.605 Y31.436 E0.23636
G1 X13.183 Y19.014 E3.27448
M73 P9 R3
M73 Q9 S3
G1 X13.183 Y20.282 E0.23636
G1 X24.337 Y31.436 E2.94021
G1 X23.069 Y31.436 E0.23636
G1 X13.183 Y21.550 E2.60594
G1 X13.183 Y22.818 E0.23636
G1 X21.801 Y31.436 E2.27167
M73 P10 R3
M73 Q10 S3
G1 X20.533 Y31.436 E0.23636
G1 X13.183 Y24.086 E1.93741
G1 X13.183 Y25.354 E0.23636
G1 X19.265 Y31.436 E1.60314
G1 X17.997 Y31.436 E0.23636
G1 X13.183 Y26.622 E1.26887
G1 X13.183 Y27.890 E0.23636
G1 X16.729 Y31.436 E0.93460
G1 X15.461 Y31.436 E0.23636
G1 X13.183 Y29.158 E0.60033
M73 P11 R3
G1 X13.183 Y30.426 E0.23636
G1 X14.594 Y31.837 E0.37196

;TYPE:Custom
; Filament-specific end gcode 
;END gcode for filament
G4 ; wait
M73 P100 R0
M73 Q100 S0
; filament used [mm] = 1421.48
; filament used [cm3] = 3.42
; total filament used [g] = 0.00
; total filament cost = 0.00
; estimated printing time (normal mode) = 3m 50s
; estimated printing time (silent mode) = 3m 49s

; avoid_crossing_perimeters = 0
; avoid_crossing_perimeters_max_detour = 0
; bed_custom_model = 
; bed_custom_texture = 
; bed_shape = 0x0,250x0,250x210,0x210
; bed_temperature = 0
; before_layer_gcode = ;BEFORE_LAYER_CHANGE\n;\n;WITNESS ME\n;AND DELETE AFTER HERE FOR PANCAKES\n;\nG92 E0.0\n;[layer_z]\n\n
; between_objects_gcode = 
; bottom_fill_pattern = monotonic
; bottom_solid_layers = 3
; bottom_solid_min_thickness = 0
; bridge_acceleration = 0
; bridge_angle = 0
; bridge_fan_speed = 100
; bridge_flow_ratio = 1
; bridge_speed = 30
; brim_width = 0
; clip_multipart_objects = 1
; color_change_gcode = M600
; complete_objects = 0
; cooling = 1
; cooling_tube_length = 5
; cooling_tube_retraction = 91.5
; default_acceleration = 0
; default_filament_profile = "Prusament PLA"
; default_print_profile = 0.15mm QUALITY @MK3
; deretract_speed = 0
; disable_fan_first_layers = 3
; dont_support_bridges = 1
; draft_shield = 0
; duplicate_distance = 6
; elefant_foot_compensation = 0.2
; end_filament_gcode = "; Filament-specific end gcode \n;END gcode for filament\n"
; end_gcode = G4 ; wait
; ensure_vertical_shell_thickness = 0
; external_perimeter_extrusion_width = 0
; external_perimeter_speed = 50%
; external_perimeters_first = 0
; extra_loading_move = -2
; extra_perimeters = 1
; extruder_clearance_height = 20
; extruder_clearance_radius = 20
; extruder_colour = ""
; extruder_offset = 0x0
; extrusion_axis = E
; extrusion_multiplier = 1
; extrusion_width = 0
; fan_always_on = 0
; fan_below_layer_time = 60
; filament_colour = #29B2B2
; filament_cooling_final_speed = 3.4
; filament_cooling_initial_speed = 2.2
; filament_cooling_moves = 4
; filament_cost = 0
; filament_density = 0
; filament_diameter = 1.75
; filament_load_time = 0
; filament_loading_speed = 28
; filament_loading_speed_start = 3
; filament_max_volumetric_speed = 0
; filament_minimal_purge_on_wipe_tower = 15
; filament_notes = ""
; filament_ramming_parameters = "120 100 6.6 6.8 7.2 7.6 7.9 8.2 8.7 9.4 9.9 10.0| 0.05 6.6 0.45 6.8 0.95 7.8 1.45 8.3 1.95 9.7 2.45 10 2.95 7.6 3.45 7.6 3.95 7.6 4.45 7.6 4.95 7.6"
; filament_settings_id = "- default -"
; filament_soluble = 0
; filament_spool_weight = 0
; filament_toolchange_delay = 0
; filament_type = PLA
; filament_unload_time = 0
; filament_unloading_speed = 90
; filament_unloading_speed_start = 100
; filament_vendor = (Unknown)
; fill_angle = 45
; fill_density = 30%
; fill_pattern = rectilinear
; first_layer_acceleration = 0
; first_layer_bed_temperature = 0
; first_layer_extrusion_width = 200%
; first_layer_height = 0.5
; first_layer_speed = 20
; first_layer_temperature = 200
; full_fan_speed_layer = 0
; gap_fill_speed = 20
; gcode_comments = 0
; gcode_flavor = marlin
; gcode_label_objects = 0
; high_current_on_filament_swap = 0
; host_type = octoprint
; infill_acceleration = 0
; infill_anchor = 600%
; infill_anchor_max = 50
; infill_every_layers = 1
; infill_extruder = 1
; infill_extrusion_width = 0
; infill_first = 0
; infill_only_where_needed = 0
; infill_overlap = 25%
; infill_speed = 20
; inherits_cummulative = ;;"Original Prusa i3 MK3S & MK3S+"
; interface_shells = 0
; ironing = 0
; ironing_flowrate = 15%
; ironing_spacing = 0.1
; ironing_speed = 15
; ironing_type = top
; layer_gcode = ;AFTER_LAYER_CHANGE\n;[layer_z]
; layer_height = 0.5
; machine_limits_usage = emit_to_gcode
; machine_max_acceleration_e = 10000,5000
; machine_max_acceleration_extruding = 1250,1250
; machine_max_acceleration_retracting = 1250,1250
; machine_max_acceleration_x = 3000,960
; machine_max_acceleration_y = 3000,960
; machine_max_acceleration_z = 100,200
; machine_max_feedrate_e = 120,120
; machine_max_feedrate_x = 200,100
; machine_max_feedrate_y = 200,100
; machine_max_feedrate_z = 12,12
; machine_max_jerk_e = 4.5,4.5
; machine_max_jerk_x = 8,8
; machine_max_jerk_y = 8,8
; machine_max_jerk_z = 0.4,0.4
; machine_min_extruding_rate = 0,0
; machine_min_travel_rate = 0,0
; max_fan_speed = 100
; max_layer_height = 0.25
; max_print_height = 210
; max_print_speed = 80
; max_volumetric_speed = 0
; min_fan_speed = 35
; min_layer_height = 0.07
; min_print_speed = 10
; min_skirt_length = 0
; notes = 
; nozzle_diameter = 2.5
; only_retract_when_crossing_perimeters = 1
; ooze_prevention = 0
; output_filename_format = [input_filename_base].gcode
; overhangs = 1
; parking_pos_retraction = 92
; pause_print_gcode = M601
; perimeter_acceleration = 0
; perimeter_extruder = 1
; perimeter_extrusion_width = 0
; perimeter_speed = 20
; perimeters = 3
; physical_printer_settings_id = 
; post_process = 
; print_settings_id = pancake
; printer_model = MK3S
; printer_notes = Don't remove the following keywords! These keywords are used in the "compatible printer" condition of the print and filament profiles to link the particular print and filament profiles to this printer profile.\nPRINTER_VENDOR_PRUSA3D\nPRINTER_MODEL_MK3\n
; printer_settings_id = pancake
; printer_technology = FFF
; printer_variant = 0.4
; printer_vendor = 
; raft_layers = 0
; remaining_times = 1
; resolution = 0
; retract_before_travel = 1
; retract_before_wipe = 0%
; retract_layer_change = 1
; retract_length = 0.8
; retract_length_toolchange = 4
; retract_lift = 0.4
; retract_lift_above = 0
; retract_lift_below = 209
; retract_restart_extra = 0
; retract_restart_extra_toolchange = 0
; retract_speed = 35
; seam_position = aligned
; silent_mode = 1
; single_extruder_multi_material = 0
; single_extruder_multi_material_priming = 1
; skirt_distance = 6
; skirt_height = 1
; skirts = 0
; slice_closing_radius = 0.049
; slowdown_below_layer_time = 5
; small_perimeter_speed = 15
; solid_infill_below_area = 70
; solid_infill_every_layers = 0
; solid_infill_extruder = 1
; solid_infill_extrusion_width = 0
; solid_infill_speed = 20
; spiral_vase = 0
; standby_temperature_delta = -5
; start_filament_gcode = "; Filament gcode\n"
; start_gcode = G90 ; use absolute coordinates\nM83 ; extruder relative mode\nG92 E0.0
; support_material = 0
; support_material_angle = 0
; support_material_auto = 1
; support_material_buildplate_only = 0
; support_material_contact_distance = 0.2
; support_material_enforce_layers = 0
; support_material_extruder = 1
; support_material_extrusion_width = 0
; support_material_interface_contact_loops = 0
; support_material_interface_extruder = 1
; support_material_interface_layers = 3
; support_material_interface_spacing = 0
; support_material_interface_speed = 100%
; support_material_pattern = rectilinear
; support_material_spacing = 2.5
; support_material_speed = 60
; support_material_synchronize_layers = 0
; support_material_threshold = 45
; support_material_with_sheath = 1
; support_material_xy_spacing = 50%
; temperature = 200
; template_custom_gcode = 
; thin_walls = 1
; threads = 12
; thumbnails = 
; toolchange_gcode = 
; top_fill_pattern = monotonic
; top_infill_extrusion_width = 0
; top_solid_infill_speed = 15
; top_solid_layers = 3
; top_solid_min_thickness = 0
; travel_speed = 20
; use_firmware_retraction = 0
; use_relative_e_distances = 1
; use_volumetric_e = 0
; variable_layer_height = 1
; wipe = 0
; wipe_into_infill = 0
; wipe_into_objects = 0
; wipe_tower = 0
; wipe_tower_bridging = 10
; wipe_tower_no_sparse_layers = 0
; wipe_tower_rotation_angle = 0
; wipe_tower_width = 60
; wipe_tower_x = 180
; wipe_tower_y = 140
; wiping_volumes_extruders = 70,70
; wiping_volumes_matrix = 0
; xy_size_compensation = 0
; z_offset = 0
