; generated by Slic3r 1.3.0 on 2022-02-12 at 21:18:16

; external perimeters extrusion width = 1.10mm (12.24mm^3/s)
; perimeters extrusion width = 1.07mm (23.56mm^3/s)
; infill extrusion width = 1.07mm (62.83mm^3/s)
; solid infill extrusion width = 1.07mm (15.71mm^3/s)
; top infill extrusion width = 1.07mm (11.78mm^3/s)

M107
M104 S5 ; set temperature
G28 ; home all axes
G1 E1.6 F30 ; lift nozzle

; Filament gcode

M109 S5 ; set temperature and wait for it to be reached
G21 ; set units to millimeters
G90 ; use absolute coordinates
M82 ; use absolute distances for extrusion
G92 E0
G1 Z1.000 F1800.000
G1 E-0.80000 F2400.00000
G92 E0
G1 X7.009 Y8.235 F1800.000
G1 E0.80000 F2400.00000
G1 F1800
G1 X7.320 Y7.974 E0.88343
G1 X8.067 Y7.408 E1.07601
G1 X8.681 Y6.992 E1.22836
G1 X9.419 Y6.548 E1.40529
G1 X10.308 Y6.081 E1.61166
G1 X10.851 Y5.832 E1.73458
G1 X11.944 Y5.401 E1.97580
G1 X12.351 Y5.266 E2.06387
G1 X13.556 Y4.934 E2.32071
G1 X13.942 Y4.849 E2.40206
G1 F1800
G1 X14.301 Y4.729 E2.48429
G1 X14.365 Y4.622 E2.51129
G1 F1800
G1 X14.463 Y4.430 E2.55619
G1 F1800
G1 X14.698 Y3.999 E2.65491
G1 X14.877 Y3.772 E2.71285
G1 X15.132 Y3.521 E2.78460
G1 X15.474 Y3.293 E2.86718
G1 X15.748 Y3.163 E2.92814
G1 X16.009 Y3.084 E2.98287
G1 X16.446 Y3.016 E3.07165
G1 X16.795 Y3.027 E3.14169
G1 X18.021 Y3.283 E3.39321
G1 X18.738 Y3.324 E3.53740
G1 X18.941 Y3.324 E3.57806
G1 X19.585 Y3.253 E3.70811
G1 X19.835 Y3.210 E3.75912
G1 X20.408 Y3.048 E3.87879
G1 X20.697 Y2.946 E3.94016
G1 X21.189 Y2.713 E4.04945
G1 X21.501 Y2.540 E4.12117
G1 X22.010 Y2.179 E4.24642
G1 F1800
G1 X22.368 Y1.890 E4.34226
G1 X22.530 Y1.853 E4.37702
G1 F1800
G1 X22.693 Y1.816 E4.41053
G1 X23.617 Y1.702 E4.59771
G1 X24.229 Y1.659 E4.72095
G1 X25.096 Y1.644 E4.89511
G1 X26.001 Y1.684 E5.07724
G1 F1800
G1 X26.572 Y1.738 E5.19887
G1 X27.491 Y1.874 E5.39599
G1 X27.754 Y1.960 E5.45461
G1 F1800
G1 X28.017 Y2.045 E5.51637
G1 F1800
G1 X28.113 Y2.117 E5.54469
G1 F1800
G1 X28.209 Y2.189 E5.57449
G1 F1800
G1 X28.305 Y2.261 E5.60579
G1 F1800
G1 X28.401 Y2.333 E5.63857
G1 F1800
G1 X28.494 Y2.877 E5.79333
G1 X28.649 Y2.925 E5.83889
G1 F1800
G1 X28.805 Y2.972 E5.88225
G1 F1800
G1 X28.960 Y3.020 E5.92342
G1 F1800
G1 X29.115 Y3.067 E5.96239
G1 F1800
G1 X29.271 Y3.115 E5.99916
G1 F1800
G1 X29.426 Y3.163 E6.03374
G1 F1800
G1 X30.135 Y3.184 E6.17612
G1 X31.011 Y3.253 E6.35273
G1 X31.810 Y3.350 E6.51423
G1 X32.547 Y3.476 E6.66433
G1 X33.541 Y3.694 E6.86875
G1 X34.057 Y3.833 E6.97595
G1 X35.307 Y4.235 E7.23976
G1 X36.924 Y4.916 E7.59194
G1 X38.232 Y5.785 E7.90727
G1 X39.455 Y6.810 E8.22775
G1 X40.555 Y7.966 E8.54820
G1 X40.792 Y8.254 E8.62298
G1 X41.519 Y9.238 E8.86868
G1 X41.768 Y9.623 E8.96076
G1 X42.334 Y10.609 E9.18916
G1 X42.576 Y11.097 E9.29852
G1 X42.991 Y12.063 E9.50962
G1 X43.174 Y12.565 E9.61689
G1 X43.480 Y13.582 E9.83007
G1 X43.644 Y14.280 E9.97402
G1 X43.796 Y15.145 E10.15052
G1 X43.889 Y15.943 E10.31177
G1 X43.935 Y16.735 E10.47096
G1 X43.938 Y17.527 E10.63015
G1 X43.896 Y18.329 E10.79141
G1 X43.797 Y19.203 E10.96790
G1 X43.677 Y19.910 E11.11185
G1 X43.435 Y20.943 E11.32503
G1 X43.283 Y21.455 E11.43231
G1 X42.929 Y22.445 E11.64340
G1 X42.719 Y22.948 E11.75277
G1 X42.215 Y23.967 E11.98117
G1 X41.990 Y24.367 E12.07324
G1 X41.325 Y25.394 E12.31894
G1 X41.107 Y25.696 E12.39372
G1 X40.210 Y26.780 E12.67623
G1 X39.002 Y27.951 E13.01402
G1 X37.744 Y28.915 E13.33228
G1 X37.610 Y28.999 E13.36406
G1 X36.302 Y29.657 E13.65805
G1 X34.843 Y30.239 E13.97337
G1 X34.372 Y30.396 E14.07311
G1 X33.339 Y30.690 E14.28871
G1 X32.666 Y30.847 E14.42763
G1 X31.802 Y31.006 E14.60405
G1 X30.923 Y31.126 E14.78215
G1 F1800
G1 X30.205 Y31.189 E14.93549
G1 X30.127 Y31.217 E14.95316
G1 F1800
G1 X29.970 Y31.273 E14.99066
G1 F1800
G1 X29.814 Y31.328 E15.03034
G1 F1800
G1 X29.658 Y31.384 E15.07218
G1 F1800
G1 X29.501 Y31.440 E15.11620
G1 F1800
G1 X29.345 Y31.496 E15.16238
G1 F1800
G1 X29.295 Y31.920 E15.27899
G1 F1800
G1 X29.271 Y32.132 E15.33511
G1 X29.219 Y32.175 E15.35263
G1 F1800
G1 X29.116 Y32.259 E15.38590
G1 F1800
G1 X29.013 Y32.344 E15.41743
G1 F1800
G1 X28.962 Y32.386 E15.43233
G1 X28.833 Y32.437 E15.46321
G1 F1800
G1 X28.576 Y32.538 E15.52182
G1 F1800
G1 X28.447 Y32.589 E15.54955
G1 X27.538 Y32.782 E15.73599
G1 X26.931 Y32.878 E15.85939
G1 X26.071 Y32.968 E16.03285
G1 X25.205 Y33.007 E16.20670
G1 F1800
G1 X24.592 Y33.002 E16.33447
G1 X23.662 Y32.946 E16.52855
G1 X23.333 Y32.892 E16.59805
G1 X23.241 Y32.830 E16.62121
G1 F1800
G1 X22.849 Y32.553 E16.71771
G1 X22.427 Y32.297 E16.81677
G1 X22.105 Y32.144 E16.88859
G1 F1800
G1 X21.433 Y31.891 E17.03818
G1 X20.723 Y31.732 E17.18969
G1 X19.823 Y31.673 E17.37747
G1 X18.908 Y31.772 E17.56919
G1 X17.700 Y32.104 E17.83014
G1 X17.353 Y32.136 E17.90280
G1 X16.996 Y32.113 E17.97731
G1 X16.572 Y32.005 E18.06840
G1 X16.316 Y31.899 E18.12620
G1 X16.009 Y31.714 E18.20071
G1 X15.740 Y31.480 E18.27515
G1 X15.503 Y31.211 E18.34959
G1 X15.231 Y30.756 E18.46025
G1 F1800
G1 X15.105 Y30.560 E18.51047
G1 X14.862 Y30.495 E18.56508
G1 F1800
G1 X13.125 Y30.146 E18.92905
G1 X12.711 Y30.036 E19.01712
G1 X11.594 Y29.674 E19.25835
G1 X10.949 Y29.424 E19.40046
G1 X10.119 Y29.048 E19.58764
G1 X9.355 Y28.651 E19.76457
G1 X8.717 Y28.274 E19.91692
G1 X7.935 Y27.756 E20.10950
G1 X7.401 Y27.359 E20.24621
G1 X6.551 Y26.650 E20.47361
G1 X6.187 Y26.314 E20.57551
G1 X5.301 Y25.395 E20.83774
G1 X5.086 Y25.149 E20.90483
G1 X4.202 Y24.005 E21.20190
G1 X3.264 Y22.490 E21.56794
G1 X2.693 Y21.433 E21.81478
G1 X2.283 Y20.340 E22.05459
G1 X2.183 Y19.983 E22.13077
G1 X2.019 Y19.204 E22.29439
G1 X1.958 Y18.779 E22.38252
G1 X1.906 Y18.043 E22.53418
G1 X1.907 Y17.430 E22.66006
G1 X1.946 Y16.877 E22.77396
G1 X2.085 Y15.966 E22.96342
G1 X2.139 Y15.727 E23.01376
G1 X2.481 Y14.611 E23.25357
G1 X2.985 Y13.520 E23.50041
G1 X3.744 Y12.084 E23.83424
G1 X4.638 Y10.753 E24.16357
G1 X4.837 Y10.494 E24.23066
G1 X5.664 Y9.522 E24.49289
G1 X6.007 Y9.163 E24.59479
G1 X6.894 Y8.332 E24.84463
G1 E24.04463 F2400.00000
G92 E0
G1 X27.643 Y6.697 F1800.000
G1 E0.80000 F2400.00000
G1 F1800
G1 X27.781 Y6.949 E0.84301
G1 X27.966 Y7.401 E0.91636
G1 X28.132 Y7.865 E0.99017
G1 X28.397 Y8.756 E1.12967
G1 X28.600 Y9.716 E1.27680
G1 X28.730 Y10.740 E1.43156
G1 X28.772 Y11.669 E1.57107
G1 X28.757 Y12.389 E1.67907
G1 X28.661 Y13.401 E1.83162
G1 X28.481 Y14.402 E1.98417
G1 X28.172 Y15.530 E2.15966
G1 F1800
G1 X28.033 Y15.770 E2.20459
G1 F1800
G1 X27.894 Y16.009 E2.25338
G1 F1800
G1 X27.807 Y16.005 E2.26889
G1 F1800
G1 X27.631 Y15.996 E2.29753
G1 F1800
G1 X26.828 Y15.944 E2.41823
G1 X26.200 Y15.843 E2.51357
G1 X25.595 Y15.687 E2.60733
G1 X24.813 Y15.397 E2.73244
G1 X24.243 Y15.116 E2.82778
G1 X24.022 Y14.967 E2.86774
G1 X23.918 Y14.731 E2.90641
G1 X23.629 Y13.769 E3.05705
G1 X23.412 Y12.731 E3.21618
G1 X23.284 Y11.620 E3.38387
G1 X23.262 Y10.696 E3.52255
G1 X23.311 Y9.781 E3.66000
G1 X23.431 Y8.872 E3.79742
G1 X23.620 Y7.976 E3.93484
G1 X23.756 Y7.480 E4.01197
G1 X23.833 Y7.271 E4.04530
G1 X24.088 Y7.058 E4.09515
G1 X24.512 Y6.801 E4.16948
G1 X24.998 Y6.596 E4.24869
G1 X25.575 Y6.449 E4.33796
G1 X25.935 Y6.404 E4.39240
G1 X26.430 Y6.398 E4.46667
G1 X26.922 Y6.456 E4.54096
G1 X27.403 Y6.577 E4.61529
G1 X27.509 Y6.630 E4.63317
G1 E3.83317 F2400.00000
G92 E0
G1 X27.894 Y16.009 F1800.000
G1 E0.80000 F2400.00000
G1 F1800
G1 X27.912 Y16.097 E0.81591
G1 F1800
G1 X27.930 Y16.186 E0.83062
G1 F1800
G1 X27.948 Y16.274 E0.84415
G1 F1800
G1 X27.966 Y16.362 E0.85648
G1 F1800
G1 X27.979 Y16.502 E0.87384
G1 F1800
G1 X28.005 Y17.966 E1.03693
G1 F1800
G1 X28.001 Y18.111 E1.05476
G1 F1800
G1 X27.989 Y18.207 E1.06794
G1 F1800
G1 X27.978 Y18.302 E1.08245
G1 F1800
G1 X27.966 Y18.398 E1.09830
G1 F1800
G1 X27.960 Y18.446 E1.10689
G1 F1800
G1 X28.087 Y18.634 E1.14600
G1 F1800
G1 X28.214 Y18.823 E1.18243
G1 F1800
G1 X28.277 Y18.917 E1.19922
G1 X28.333 Y19.059 E1.22184
G1 X28.586 Y19.794 E1.33672
G1 X28.851 Y20.792 E1.48926
G1 X29.023 Y21.757 E1.63428
G1 X29.117 Y22.734 E1.77928
G1 X29.131 Y23.715 E1.92429
G1 X29.066 Y24.694 E2.06929
G1 X28.923 Y25.664 E2.21429
G1 X28.702 Y26.620 E2.35929
G1 F1800
G1 X28.421 Y27.506 E2.50376
G1 X28.299 Y27.766 E2.54830
G1 X28.067 Y27.901 E2.59012
G1 F1800
G1 X27.594 Y28.052 E2.66354
G1 X27.107 Y28.140 E2.73692
G1 X26.612 Y28.165 E2.81028
G1 X26.250 Y28.142 E2.86405
G1 X25.634 Y28.023 E2.95701
G1 X25.167 Y27.857 E3.03044
G1 X24.671 Y27.592 E3.11377
G1 X24.460 Y27.430 E3.15312
G1 X24.370 Y27.227 E3.18604
G1 X24.050 Y26.216 E3.34321
G1 X23.830 Y25.236 E3.49199
G1 X23.677 Y24.048 E3.66940
G1 X23.642 Y23.124 E3.80637
G1 X23.682 Y22.216 E3.94096
G1 X23.792 Y21.307 E4.07670
G1 X23.852 Y20.957 E4.12922
G1 X24.081 Y19.980 E4.27800
G1 X24.169 Y19.740 E4.31575
G1 X24.383 Y19.577 E4.35558
G1 X24.634 Y19.423 E4.39918
G1 X25.322 Y19.074 E4.51352
G1 X26.045 Y18.803 E4.62786
G1 X26.291 Y18.732 E4.66585
G1 F1800
G1 X26.911 Y18.590 E4.76460
G1 X27.674 Y18.487 E4.88428
G1 F1800
G1 X27.811 Y18.467 E4.90736
G1 E4.10736 F2400.00000
G92 E0
G1 X13.599 Y10.992 F1800.000
G1 E0.80000 F2400.00000
G1 F1800
G1 X13.978 Y12.333 E0.92429
G1 F1800
G1 X14.033 Y12.565 E0.94817
G1 F1800
G1 X14.089 Y12.797 E0.97491
G1 F1800
G1 X14.146 Y13.058 E1.00789
G1 F1800
G1 X14.204 Y13.345 E1.04773
G1 F1800
G1 X14.260 Y13.650 E1.09338
G1 F1800
G1 X14.316 Y13.987 E1.14722
G1 X14.329 Y16.092 E1.47857
G1 F1800
G1 X14.327 Y19.228 E1.94948
G1 F1800
G1 X14.311 Y20.446 E2.14383
G1 X14.223 Y21.129 E2.25372
G1 F1800
G1 X14.166 Y21.445 E2.30142
G1 F1800
G1 X14.104 Y21.765 E2.34651
G1 F1800
G1 X14.043 Y22.085 E2.38786
G1 F1800
G1 X13.975 Y22.367 E2.42124
G1 F1800
G1 X13.908 Y22.648 E2.45061
G1 F1800
G1 X13.821 Y22.946 E2.47776
G1 F1800
G1 X13.675 Y23.448 E2.51906
G1 F1800
G1 X13.528 Y23.951 E2.55414
G1 E1.75414 F2400.00000
G92 E0
G1 X11.201 Y21.010 F1800.000
G1 E0.80000 F2400.00000
G1 F1800
G1 X11.080 Y19.934 E0.87544
G1 F1800
G1 X11.054 Y19.732 E0.89136
G1 F1800
G1 X11.026 Y19.485 E0.91322
G1 F1800
G1 X10.996 Y19.192 E0.94243
G1 F1800
G1 X10.966 Y18.762 E0.99047
G1 F1800
G1 X10.949 Y18.208 E1.05878
G1 F1800
G1 X10.937 Y17.458 E1.15671
G1 X10.968 Y16.600 E1.26879
G1 F1800
G1 X11.001 Y16.165 E1.32073
G1 F1800
G1 X11.021 Y15.960 E1.34267
G1 F1800
G1 X11.042 Y15.725 E1.36579
G1 F1800
G1 X11.124 Y15.031 E1.42737
G1 F1800
G1 X11.206 Y14.337 E1.48102
G1 E0.68102 F2400.00000
G92 E0
G1 X22.685 Y17.491 F1800.000
G1 E0.80000 F2400.00000
G1 F1800
G1 X19.111 Y16.053 E1.29546
G1 X18.993 Y16.031 E1.31087
G1 F1800
G1 X18.757 Y15.989 E1.34502
G1 F1800
G1 X18.639 Y15.968 E1.36376
G1 X18.589 Y16.120 E1.38866
G1 F1800
G1 X18.540 Y16.271 E1.41133
G1 F1800
G1 X18.490 Y16.422 E1.43176
G1 F1800
G1 X18.440 Y16.574 E1.44994
G1 F1800
G1 X18.440 Y19.329 E1.72567
G1 E0.92567 F2400.00000
G92 E0
; Filament-specific end gcode 
;END gcode for filament

M104 S0 ; turn off temperature
G28 X0  ; home X axis
M84     ; disable motors

M140 S0 ; set bed temperature
; filament used = 35.3mm (0.2cm3)
; total filament cost = 0.0

; avoid_crossing_perimeters = 0
; bed_shape = 0x0,100x0,100x100,0x100
; bed_temperature = 0
; before_layer_gcode = 
; between_objects_gcode = 
; bridge_acceleration = 0
; bridge_fan_speed = 100
; brim_connections_width = 0
; brim_width = 0
; complete_objects = 0
; cooling = 1
; default_acceleration = 0
; disable_fan_first_layers = 3
; duplicate_distance = 6
; end_filament_gcode = "; Filament-specific end gcode \n;END gcode for filament\n"
; end_gcode = M104 S0 ; turn off temperature\nG28 X0  ; home X axis\nM84     ; disable motors\n
; extruder_clearance_height = 20
; extruder_clearance_radius = 20
; extruder_offset = 0x0
; extrusion_axis = E
; extrusion_multiplier = 1
; fan_always_on = 0
; fan_below_layer_time = 60
; filament_colour = #FFFFFF
; filament_cost = 0
; filament_density = 0
; filament_diameter = 3
; filament_max_volumetric_speed = 0
; filament_notes = ""
; first_layer_acceleration = 0
; first_layer_bed_temperature = 0
; first_layer_extrusion_width = 200%
; first_layer_speed = 30
; first_layer_temperature = 5
; gcode_arcs = 0
; gcode_comments = 0
; gcode_flavor = reprap
; has_heatbed = 1
; infill_acceleration = 0
; infill_first = 0
; interior_brim_width = 0
; layer_gcode = 
; max_fan_speed = 100
; max_layer_height = 1
; max_print_speed = 80
; max_volumetric_speed = 0
; min_fan_speed = 35
; min_layer_height = 0.15
; min_print_speed = 10
; min_skirt_length = 0
; notes = 
; nozzle_diameter = 1
; only_retract_when_crossing_perimeters = 1
; ooze_prevention = 0
; output_filename_format = [input_filename_base].gcode
; perimeter_acceleration = 0
; post_process = 
; pressure_advance = 0
; printer_notes = 
; resolution = 0
; retract_before_travel = 2
; retract_layer_change = 0
; retract_length = 0.8
; retract_length_toolchange = 10
; retract_lift = 0
; retract_lift_above = 0
; retract_lift_below = 0
; retract_restart_extra = 0
; retract_restart_extra_toolchange = 0
; retract_speed = 40
; skirt_distance = 6
; skirt_height = 1
; skirts = 0
; slowdown_below_layer_time = 5
; spiral_vase = 0
; standby_temperature_delta = -5
; start_filament_gcode = "; Filament gcode\n"
; start_gcode = G28 ; home all axes\nG1 E1.6 F30 ; lift nozzle\n
; temperature = 0
; threads = 12
; toolchange_gcode = 
; travel_speed = 30
; use_firmware_retraction = 0
; use_relative_e_distances = 0
; use_set_and_wait_bed = 0
; use_set_and_wait_extruder = 0
; use_volumetric_e = 0
; vibration_limit = 0
; wipe = 0
; z_offset = 0
; z_steps_per_mm = 0
; adaptive_slicing = 0
; adaptive_slicing_quality = 75%
; dont_support_bridges = 1
; extrusion_width = 0
; first_layer_height = 1
; infill_only_where_needed = 0
; interface_shells = 0
; layer_height = 0.9
; match_horizontal_surfaces = 0
; raft_layers = 0
; regions_overlap = 0
; seam_position = aligned
; sequential_print_priority = 0
; support_material = 0
; support_material_angle = 0
; support_material_buildplate_only = 0
; support_material_contact_distance = 0.2
; support_material_enforce_layers = 0
; support_material_extruder = 1
; support_material_extrusion_width = 0
; support_material_interface_extruder = 1
; support_material_interface_extrusion_width = 0
; support_material_interface_layers = 3
; support_material_interface_spacing = 0
; support_material_interface_speed = 100%
; support_material_max_layers = 0
; support_material_pattern = pillars
; support_material_spacing = 2.5
; support_material_speed = 60
; support_material_threshold = 60%
; xy_size_compensation = 0
; bottom_infill_pattern = rectilinear
; bottom_solid_layers = 0
; bridge_flow_ratio = 1
; bridge_speed = 60
; external_perimeter_extrusion_width = 0
; external_perimeter_speed = 50%
; external_perimeters_first = 0
; extra_perimeters = 0
; fill_angle = 45
; fill_density = 0%
; fill_gaps = 1
; fill_pattern = stars
; gap_fill_speed = 20
; infill_every_layers = 1
; infill_extruder = 1
; infill_extrusion_width = 0
; infill_overlap = 55%
; infill_speed = 80
; overhangs = 1
; perimeter_extruder = 1
; perimeter_extrusion_width = 0
; perimeter_speed = 30
; perimeters = 1
; small_perimeter_speed = 15
; solid_infill_below_area = 70
; solid_infill_every_layers = 0
; solid_infill_extruder = 1
; solid_infill_extrusion_width = 0
; solid_infill_speed = 20
; thin_walls = 1
; top_infill_extrusion_width = 0
; top_infill_pattern = rectilinear
; top_solid_infill_speed = 15
; top_solid_layers = 0
