; generated by Slic3r 1.3.0 on 2022-02-12 at 18:45:19

; external perimeters extrusion width = 1.10mm (12.24mm^3/s)
; perimeters extrusion width = 1.07mm (23.56mm^3/s)
; infill extrusion width = 1.07mm (62.83mm^3/s)
; solid infill extrusion width = 1.07mm (15.71mm^3/s)
; top infill extrusion width = 1.07mm (11.78mm^3/s)

M107
M104 S5 ; set temperature
G28 ; home all axes
G1 E1.6 F30 ; lift nozzle

; Filament gcode

M109 S5 ; set temperature and wait for it to be reached
G21 ; set units to millimeters
G90 ; use absolute coordinates
M82 ; use absolute distances for extrusion
G92 E0
G1 Z1.000 F1800.000
G1 E-0.50000 F2400.00000
G92 E0
G1 X11.331 Y3.661 F1800.000
G1 E0.50000 F2400.00000
G1 F1709.11
G1 X11.518 Y3.611 E0.57305
G1 F1709.11
G1 X11.705 Y3.561 E0.64338
G1 F1709.11
G1 X11.892 Y3.512 E0.71098
G1 F1709.11
G1 X12.079 Y3.462 E0.77586
G1 F1709.11
G1 X12.266 Y3.412 E0.83802
G1 F1709.11
G1 X12.453 Y3.362 E0.89746
G1 F1709.11
G1 X12.547 Y3.337 E0.92643
G1 X36.687 Y3.337 E8.15573
G1 X36.794 Y3.360 E8.18861
G1 F1709.11
G1 X37.009 Y3.406 E8.25720
G1 F1709.11
G1 X37.224 Y3.451 E8.32861
G1 F1709.11
G1 X37.439 Y3.496 E8.40285
G1 F1709.11
G1 X37.654 Y3.542 E8.47990
G1 X37.672 Y3.658 E8.52114
G1 F1709.11
G1 X37.709 Y3.890 E8.60050
G1 F1709.11
G1 X37.746 Y4.122 E8.67677
G1 F1709.11
G1 X37.783 Y4.354 E8.74994
G1 F1709.11
G1 X37.820 Y4.586 E8.82001
G1 F1709.11
G1 X37.574 Y7.199 E9.58215
G1 X37.504 Y7.752 E9.74384
G1 X37.165 Y9.860 E10.36398
G1 X37.043 Y10.507 E10.55514
G1 X36.600 Y12.493 E11.14580
G1 X36.413 Y13.229 E11.36642
G1 X35.879 Y15.086 E11.92761
G1 X35.617 Y15.907 E12.17770
G1 X34.982 Y17.696 E12.72898
G1 F1709.11
G1 X34.644 Y18.564 E13.00986
G1 X34.618 Y18.683 E13.04686
G1 F1709.11
G1 X34.566 Y18.923 E13.12385
G1 F1709.11
G1 X34.487 Y19.283 E13.24378
G1 X34.644 Y19.460 E13.32108
G1 F1709.11
G1 X34.801 Y19.638 E13.39549
G1 F1709.11
G1 X34.958 Y19.816 E13.46700
G1 F1709.11
G1 X35.373 Y20.168 E13.62664
G1 X36.429 Y21.138 E14.04701
G1 X36.981 Y21.689 E14.27577
G1 X37.761 Y22.537 E14.61386
G1 X38.383 Y23.267 E14.89526
G1 X38.983 Y24.034 E15.18070
G1 X39.705 Y25.042 E15.54438
G1 X40.085 Y25.621 E15.74756
G1 X40.864 Y26.926 E16.19352
G1 X41.062 Y27.288 E16.31443
G1 X41.908 Y29.026 E16.88133
G1 F1709.11
G1 X41.920 Y29.189 E16.93139
G1 F1709.11
G1 X41.933 Y29.352 E16.98365
G1 F1709.11
G1 X41.945 Y29.514 E17.03810
G1 F1709.11
G1 X41.958 Y29.677 E17.09475
G1 F1709.11
G1 X41.970 Y29.840 E17.15359
G1 F1709.11
G1 X41.983 Y30.003 E17.21463
G1 F1709.11
G1 X41.995 Y30.165 E17.27786
G1 F1709.11
G1 X42.014 Y30.409 E17.37599
G1 X41.908 Y30.439 E17.42018
G1 F1709.11
G1 X41.802 Y30.469 E17.46288
G1 F1709.11
G1 X41.696 Y30.498 E17.50409
G1 F1709.11
G1 X41.590 Y30.528 E17.54381
G1 F1709.11
G1 X41.412 Y30.538 E17.60536
G1 F1709.11
G1 X41.164 Y30.530 E17.68797
G1 F1709.11
G1 X40.916 Y30.521 E17.76707
G1 F1709.11
G1 X40.668 Y30.512 E17.84266
G1 F1709.11
G1 X40.544 Y30.508 E17.87872
G1 X38.587 Y30.016 E18.46451
G1 X37.716 Y29.768 E18.72748
G1 X35.723 Y29.137 E19.33452
G1 X34.873 Y28.840 E19.59606
G1 X32.917 Y28.088 E20.20453
G1 X32.091 Y27.742 E20.46463
G1 X30.179 Y26.872 E21.07453
G1 X29.319 Y26.447 E21.35303
G1 F1709.11
G1 X27.489 Y25.476 E21.97696
G1 X27.119 Y25.319 E22.09784
G1 X26.751 Y25.365 E22.20964
G1 F1709.11
G1 X25.909 Y25.537 E22.46013
G1 X25.164 Y25.656 E22.68018
G1 X24.348 Y25.752 E22.91987
G1 X23.607 Y25.807 E23.13646
G1 X22.670 Y25.833 E23.40972
G1 X22.043 Y25.825 E23.59275
G1 X20.889 Y25.754 E23.92974
G1 X20.482 Y25.711 E24.04905
G1 X19.226 Y25.522 E24.41964
G1 F1709.11
G1 X18.754 Y25.445 E24.56322
G1 F1709.11
G1 X18.349 Y25.414 E24.69016
G1 X18.136 Y25.580 E24.77475
G1 F1709.11
G1 X17.922 Y25.747 E24.85639
G1 F1709.11
G1 X17.290 Y26.365 E25.11377
G1 X16.284 Y27.273 E25.50820
G1 X15.694 Y27.758 E25.73038
G1 X14.557 Y28.618 E26.14529
G1 X13.986 Y29.010 E26.34699
G1 X12.720 Y29.806 E26.78238
G1 X12.262 Y30.067 E26.93560
G1 X10.785 Y30.829 E27.41948
G1 X10.282 Y31.058 E27.58024
G1 X8.768 Y31.679 E28.05659
G1 X8.314 Y31.840 E28.19688
G1 F1709.11
G1 X6.684 Y32.348 E28.70630
G1 X6.379 Y32.429 E28.80035
G1 X6.289 Y32.424 E28.82727
G1 F1709.11
G1 X6.109 Y32.413 E28.88365
G1 F1709.11
G1 X5.929 Y32.403 E28.94258
G1 F1709.11
G1 X5.749 Y32.392 E29.00406
G1 F1709.11
G1 X5.569 Y32.382 E29.06810
G1 F1709.11
G1 X5.389 Y32.371 E29.13468
G1 F1709.11
G1 X5.209 Y32.361 E29.20382
G1 F1709.11
G1 X5.029 Y32.350 E29.27550
G1 F1709.11
G1 X4.849 Y32.340 E29.34974
G1 X4.843 Y32.304 E29.36471
G1 F1709.11
G1 X4.832 Y32.232 E29.39393
G1 F1709.11
G1 X4.856 Y32.059 E29.46202
G1 F1709.11
G1 X4.881 Y31.886 E29.52779
G1 F1709.11
G1 X4.906 Y31.714 E29.59122
G1 F1709.11
G1 X4.931 Y31.541 E29.65232
G1 F1709.11
G1 X4.956 Y31.368 E29.71110
G1 F1709.11
G1 X4.980 Y31.195 E29.76754
G1 F1709.11
G1 X5.005 Y31.022 E29.82165
G1 F1709.11
G1 X5.030 Y30.849 E29.87343
G1 F1709.11
G1 X5.589 Y29.638 E30.26012
G1 X6.216 Y28.396 E30.66339
G1 X6.840 Y27.256 E31.04025
G1 X7.567 Y26.030 E31.45335
G1 X8.248 Y24.962 E31.82038
G1 X9.075 Y23.761 E32.24332
G1 X9.807 Y22.769 E32.60051
G1 X10.735 Y21.600 E33.03328
G1 F1709.11
G1 X11.535 Y20.656 E33.40826
G1 X11.621 Y20.524 E33.45607
G1 F1709.11
G1 X11.876 Y20.125 E33.60592
G1 X11.801 Y19.828 E33.70302
G1 F1709.11
G1 X11.727 Y19.530 E33.79598
G1 F1709.11
G1 X11.395 Y18.681 E34.06113
G1 X11.030 Y17.617 E34.38812
G1 X10.720 Y16.584 E34.70147
G1 X10.495 Y15.698 E34.96718
G1 X10.208 Y14.337 E35.37148
G1 X10.109 Y13.744 E35.54626
G1 X9.885 Y11.883 E36.09096
G1 X10.105 Y10.614 E36.46527
G1 X10.206 Y10.193 E36.59136
G1 X10.475 Y9.272 E36.87022
G1 X10.664 Y8.737 E37.03512
G1 X10.977 Y7.972 E37.27514
G1 X11.278 Y7.339 E37.47888
G1 F1709.11
G1 X11.745 Y6.441 E37.78478
G1 X11.729 Y6.170 E37.86663
G1 F1709.11
G1 X11.693 Y5.781 E37.98183
G1 X11.434 Y4.762 E38.29134
G1 F1709.11
G1 X11.409 Y4.571 E38.35042
G1 F1709.11
G1 X11.384 Y4.381 E38.41199
G1 F1709.11
G1 X11.359 Y4.190 E38.47604
G1 F1709.11
G1 X11.335 Y3.999 E38.54258
G1 F1709.11
G1 X11.324 Y3.860 E38.59273
G1 F1709.11
G1 X11.326 Y3.811 E38.61093
G1 E38.11093 F2400.00000
G92 E0
G1 X27.662 Y20.144 F1800.000
G1 E0.50000 F2400.00000
G1 F1709.11
G1 X27.662 Y16.098 E1.19636
G1 E0.69636 F2400.00000
G92 E0
G1 X17.193 Y20.048 F1800.000
G1 E0.50000 F2400.00000
G1 F1709.11
G1 X17.193 Y16.098 E1.16927
G1 E0.66927 F2400.00000
G92 E0
G1 X21.182 Y11.084 F1800.000
G1 E0.50000 F2400.00000
G1 F1709.11
G1 X21.519 Y10.627 E0.64344
G1 X21.758 Y10.395 E0.72757
G1 X22.033 Y10.206 E0.81170
G1 X22.353 Y10.056 E0.90108
G1 X22.826 Y9.949 E1.02350
G1 X23.765 Y9.913 E1.26106
G1 X23.419 Y10.785 E1.49784
G1 X23.282 Y10.997 E1.56164
G1 X22.858 Y11.376 E1.70534
G1 X22.681 Y11.508 E1.76096
G1 X22.505 Y11.590 E1.81006
G1 X22.316 Y11.635 E1.85916
G1 X22.122 Y11.640 E1.90825
G1 X21.931 Y11.606 E1.95735
G1 X21.705 Y11.515 E2.01888
G1 X21.298 Y11.179 E2.15215
G1 E1.65215 F2400.00000
G92 E0
; Filament-specific end gcode 
;END gcode for filament

M104 S0 ; turn off temperature
G28 X0  ; home X axis
M84     ; disable motors

M140 S0 ; set bed temperature
; filament used = 41.1mm (0.3cm3)
; total filament cost = 0.0

; avoid_crossing_perimeters = 0
; bed_shape = 0x0,100x0,100x100,0x100
; bed_temperature = 0
; before_layer_gcode = 
; between_objects_gcode = 
; bridge_acceleration = 0
; bridge_fan_speed = 100
; brim_connections_width = 0
; brim_width = 0
; complete_objects = 0
; cooling = 1
; default_acceleration = 0
; disable_fan_first_layers = 3
; duplicate_distance = 6
; end_filament_gcode = "; Filament-specific end gcode \n;END gcode for filament\n"
; end_gcode = M104 S0 ; turn off temperature\nG28 X0  ; home X axis\nM84     ; disable motors\n
; extruder_clearance_height = 20
; extruder_clearance_radius = 20
; extruder_offset = 0x0
; extrusion_axis = E
; extrusion_multiplier = 1
; fan_always_on = 0
; fan_below_layer_time = 60
; filament_colour = #FFFFFF
; filament_cost = 0
; filament_density = 0
; filament_diameter = 3
; filament_max_volumetric_speed = 0
; filament_notes = ""
; first_layer_acceleration = 0
; first_layer_bed_temperature = 0
; first_layer_extrusion_width = 200%
; first_layer_speed = 30
; first_layer_temperature = 5
; gcode_arcs = 0
; gcode_comments = 0
; gcode_flavor = reprap
; has_heatbed = 1
; infill_acceleration = 0
; infill_first = 0
; interior_brim_width = 0
; layer_gcode = 
; max_fan_speed = 100
; max_layer_height = 1
; max_print_speed = 80
; max_volumetric_speed = 0
; min_fan_speed = 35
; min_layer_height = 0.15
; min_print_speed = 10
; min_skirt_length = 0
; notes = 
; nozzle_diameter = 1
; only_retract_when_crossing_perimeters = 1
; ooze_prevention = 0
; output_filename_format = [input_filename_base].gcode
; perimeter_acceleration = 0
; post_process = 
; pressure_advance = 0
; printer_notes = 
; resolution = 0
; retract_before_travel = 2
; retract_layer_change = 0
; retract_length = 0.5
; retract_length_toolchange = 10
; retract_lift = 0
; retract_lift_above = 0
; retract_lift_below = 0
; retract_restart_extra = 0
; retract_restart_extra_toolchange = 0
; retract_speed = 40
; skirt_distance = 6
; skirt_height = 1
; skirts = 0
; slowdown_below_layer_time = 5
; spiral_vase = 0
; standby_temperature_delta = -5
; start_filament_gcode = "; Filament gcode\n"
; start_gcode = G28 ; home all axes\nG1 E1.6 F30 ; lift nozzle\n
; temperature = 0
; threads = 12
; toolchange_gcode = 
; travel_speed = 30
; use_firmware_retraction = 0
; use_relative_e_distances = 0
; use_set_and_wait_bed = 0
; use_set_and_wait_extruder = 0
; use_volumetric_e = 0
; vibration_limit = 0
; wipe = 0
; z_offset = 0
; z_steps_per_mm = 0
; adaptive_slicing = 0
; adaptive_slicing_quality = 75%
; dont_support_bridges = 1
; extrusion_width = 0
; first_layer_height = 1
; infill_only_where_needed = 0
; interface_shells = 0
; layer_height = 0.9
; match_horizontal_surfaces = 0
; raft_layers = 0
; regions_overlap = 0
; seam_position = aligned
; sequential_print_priority = 0
; support_material = 0
; support_material_angle = 0
; support_material_buildplate_only = 0
; support_material_contact_distance = 0.2
; support_material_enforce_layers = 0
; support_material_extruder = 1
; support_material_extrusion_width = 0
; support_material_interface_extruder = 1
; support_material_interface_extrusion_width = 0
; support_material_interface_layers = 3
; support_material_interface_spacing = 0
; support_material_interface_speed = 100%
; support_material_max_layers = 0
; support_material_pattern = pillars
; support_material_spacing = 2.5
; support_material_speed = 60
; support_material_threshold = 60%
; xy_size_compensation = 0
; bottom_infill_pattern = rectilinear
; bottom_solid_layers = 0
; bridge_flow_ratio = 1
; bridge_speed = 60
; external_perimeter_extrusion_width = 0
; external_perimeter_speed = 50%
; external_perimeters_first = 0
; extra_perimeters = 0
; fill_angle = 45
; fill_density = 0%
; fill_gaps = 1
; fill_pattern = stars
; gap_fill_speed = 20
; infill_every_layers = 1
; infill_extruder = 1
; infill_extrusion_width = 0
; infill_overlap = 55%
; infill_speed = 80
; overhangs = 1
; perimeter_extruder = 1
; perimeter_extrusion_width = 0
; perimeter_speed = 30
; perimeters = 1
; small_perimeter_speed = 15
; solid_infill_below_area = 70
; solid_infill_every_layers = 0
; solid_infill_extruder = 1
; solid_infill_extrusion_width = 0
; solid_infill_speed = 20
; thin_walls = 1
; top_infill_extrusion_width = 0
; top_infill_pattern = rectilinear
; top_solid_infill_speed = 15
; top_solid_layers = 0
