; generated by Slic3r 1.3.0 on 2022-02-12 at 18:31:36

; external perimeters extrusion width = 1.10mm (12.24mm^3/s)
; perimeters extrusion width = 1.07mm (23.56mm^3/s)
; infill extrusion width = 1.07mm (62.83mm^3/s)
; solid infill extrusion width = 1.07mm (15.71mm^3/s)
; top infill extrusion width = 1.07mm (11.78mm^3/s)

M107
M104 S5 ; set temperature
G28 ; home all axes
G1 E1.6 F30 ; lift nozzle

; Filament gcode

M109 S5 ; set temperature and wait for it to be reached
G21 ; set units to millimeters
G90 ; use absolute coordinates
M82 ; use absolute distances for extrusion
G92 E0
G1 Z1.000 F1800.000
G1 E-0.50000 F2400.00000
G92 E0
G1 X10.532 Y2.755 F1800.000
G1 E0.50000 F2400.00000
G1 F1800
G1 X10.719 Y2.705 E0.57305
G1 F1800
G1 X10.907 Y2.656 E0.64338
G1 F1800
G1 X11.094 Y2.606 E0.71098
G1 F1800
G1 X11.281 Y2.556 E0.77586
G1 F1800
G1 X11.468 Y2.506 E0.83802
G1 F1800
G1 X11.655 Y2.457 E0.89746
G1 F1800
G1 X11.748 Y2.432 E0.92643
G1 X35.888 Y2.432 E8.15573
G1 X35.996 Y2.455 E8.18861
G1 F1800
G1 X36.211 Y2.500 E8.25720
G1 F1800
G1 X36.426 Y2.545 E8.32861
G1 F1800
G1 X36.640 Y2.591 E8.40285
G1 F1800
G1 X36.855 Y2.636 E8.47990
G1 X36.874 Y2.752 E8.52114
G1 F1800
G1 X36.911 Y2.984 E8.60050
G1 F1800
G1 X36.947 Y3.217 E8.67677
G1 F1800
G1 X36.984 Y3.449 E8.74994
G1 F1800
G1 X37.021 Y3.681 E8.82001
G1 F1800
G1 X36.775 Y6.294 E9.58215
G1 X36.705 Y6.846 E9.74384
G1 X36.367 Y8.955 E10.36398
G1 X36.245 Y9.602 E10.55514
G1 X35.801 Y11.587 E11.14580
G1 X35.615 Y12.324 E11.36642
G1 X35.080 Y14.181 E11.92761
G1 X34.819 Y15.001 E12.17770
G1 X34.183 Y16.790 E12.72898
G1 F1800
G1 X33.846 Y17.658 E13.00986
G1 X33.820 Y17.778 E13.04686
G1 F1800
G1 X33.768 Y18.017 E13.12385
G1 F1800
G1 X33.689 Y18.377 E13.24378
G1 X33.846 Y18.555 E13.32108
G1 F1800
G1 X34.003 Y18.733 E13.39549
G1 F1800
G1 X34.159 Y18.911 E13.46700
G1 F1800
G1 X34.575 Y19.262 E13.62664
G1 X35.630 Y20.232 E14.04701
G1 X36.182 Y20.783 E14.27577
G1 X36.963 Y21.631 E14.61386
G1 X37.585 Y22.362 E14.89526
G1 X38.184 Y23.128 E15.18070
G1 X38.906 Y24.136 E15.54438
G1 X39.286 Y24.715 E15.74756
G1 X40.066 Y26.021 E16.19352
G1 X40.263 Y26.383 E16.31443
G1 X41.109 Y28.121 E16.88133
G1 F1800
G1 X41.122 Y28.283 E16.93139
G1 F1800
G1 X41.134 Y28.446 E16.98365
G1 F1800
G1 X41.147 Y28.609 E17.03810
G1 F1800
G1 X41.159 Y28.772 E17.09475
G1 F1800
G1 X41.172 Y28.934 E17.15359
G1 F1800
G1 X41.184 Y29.097 E17.21463
G1 F1800
G1 X41.197 Y29.260 E17.27786
G1 F1800
G1 X41.216 Y29.504 E17.37599
G1 X41.110 Y29.533 E17.42018
G1 F1800
G1 X41.003 Y29.563 E17.46288
G1 F1800
G1 X40.897 Y29.593 E17.50409
G1 F1800
G1 X40.791 Y29.622 E17.54381
G1 F1800
G1 X40.614 Y29.633 E17.60536
G1 F1800
G1 X40.366 Y29.624 E17.68797
G1 F1800
G1 X40.117 Y29.615 E17.76707
G1 F1800
G1 X39.869 Y29.607 E17.84266
G1 F1800
G1 X39.745 Y29.602 E17.87872
G1 X37.789 Y29.110 E18.46451
G1 X36.918 Y28.862 E18.72748
G1 X34.924 Y28.232 E19.33452
G1 X34.074 Y27.934 E19.59606
G1 X32.118 Y27.183 E20.20453
G1 X31.292 Y26.836 E20.46463
G1 X29.380 Y25.966 E21.07453
G1 X28.520 Y25.541 E21.35303
G1 F1800
G1 X26.690 Y24.570 E21.97696
G1 X26.321 Y24.414 E22.09784
G1 X25.952 Y24.460 E22.20964
G1 F1800
G1 X25.111 Y24.632 E22.46013
G1 X24.366 Y24.751 E22.68018
G1 X23.549 Y24.846 E22.91987
G1 X22.808 Y24.901 E23.13646
G1 X21.872 Y24.928 E23.40972
G1 X21.244 Y24.919 E23.59275
G1 X20.091 Y24.848 E23.92974
G1 X19.684 Y24.805 E24.04905
G1 X18.427 Y24.616 E24.41964
G1 F1800
G1 X17.956 Y24.540 E24.56322
G1 F1800
G1 X17.551 Y24.508 E24.69016
G1 X17.337 Y24.675 E24.77475
G1 F1800
G1 X17.124 Y24.841 E24.85639
G1 F1800
G1 X16.492 Y25.459 E25.11377
G1 X15.486 Y26.367 E25.50820
G1 X14.896 Y26.852 E25.73038
G1 X13.759 Y27.712 E26.14529
G1 X13.187 Y28.104 E26.34699
G1 X11.921 Y28.901 E26.78238
G1 X11.464 Y29.161 E26.93560
G1 X9.986 Y29.924 E27.41948
G1 X9.484 Y30.153 E27.58024
G1 X7.969 Y30.773 E28.05659
G1 X7.515 Y30.934 E28.19688
G1 F1800
G1 X5.886 Y31.443 E28.70630
G1 X5.581 Y31.523 E28.80035
G1 X5.491 Y31.518 E28.82727
G1 F1800
G1 X5.311 Y31.508 E28.88365
G1 F1800
G1 X5.131 Y31.497 E28.94258
G1 F1800
G1 X4.951 Y31.487 E29.00406
G1 F1800
G1 X4.770 Y31.476 E29.06810
G1 F1800
G1 X4.590 Y31.466 E29.13468
G1 F1800
G1 X4.410 Y31.455 E29.20382
G1 F1800
G1 X4.230 Y31.445 E29.27550
G1 F1800
G1 X4.050 Y31.434 E29.34974
G1 X4.044 Y31.398 E29.36471
G1 F1800
G1 X4.033 Y31.327 E29.39393
G1 F1800
G1 X4.058 Y31.154 E29.46202
G1 F1800
G1 X4.083 Y30.981 E29.52779
G1 F1800
G1 X4.108 Y30.808 E29.59122
G1 F1800
G1 X4.132 Y30.635 E29.65232
G1 F1800
G1 X4.157 Y30.462 E29.71110
G1 F1800
G1 X4.182 Y30.289 E29.76754
G1 F1800
G1 X4.207 Y30.117 E29.82165
G1 F1800
G1 X4.232 Y29.944 E29.87343
G1 F1800
G1 X4.791 Y28.733 E30.26012
G1 X5.418 Y27.491 E30.66339
G1 X6.041 Y26.350 E31.04025
G1 X6.768 Y25.124 E31.45335
G1 X7.450 Y24.057 E31.82038
G1 X8.277 Y22.855 E32.24332
G1 X9.009 Y21.864 E32.60051
G1 X9.936 Y20.694 E33.03328
G1 F1800
G1 X10.737 Y19.751 E33.40826
G1 X10.822 Y19.618 E33.45607
G1 F1800
G1 X11.077 Y19.220 E33.60592
G1 X11.003 Y18.922 E33.70302
G1 F1800
G1 X10.928 Y18.625 E33.79598
G1 F1800
G1 X10.596 Y17.775 E34.06113
G1 X10.231 Y16.711 E34.38812
G1 X9.922 Y15.678 E34.70147
G1 X9.696 Y14.792 E34.96718
G1 X9.410 Y13.431 E35.37148
G1 X9.311 Y12.838 E35.54626
G1 X9.086 Y10.978 E36.09096
G1 X9.306 Y9.709 E36.46527
G1 X9.408 Y9.287 E36.59136
G1 X9.676 Y8.366 E36.87022
G1 X9.865 Y7.831 E37.03512
G1 X10.178 Y7.067 E37.27514
G1 X10.479 Y6.434 E37.47888
G1 F1800
G1 X10.946 Y5.535 E37.78478
G1 X10.931 Y5.265 E37.86663
G1 F1800
G1 X10.895 Y4.875 E37.98183
G1 X10.635 Y3.856 E38.29134
G1 F1800
G1 X10.611 Y3.666 E38.35042
G1 F1800
G1 X10.586 Y3.475 E38.41199
G1 F1800
G1 X10.561 Y3.284 E38.47604
G1 F1800
G1 X10.536 Y3.094 E38.54258
G1 F1800
G1 X10.525 Y2.954 E38.59273
G1 F1800
G1 X10.527 Y2.905 E38.61093
G1 E38.11093 F2400.00000
G92 E0
G1 X26.863 Y19.238 F1800.000
G1 E0.50000 F2400.00000
G1 F1800
G1 X26.863 Y15.193 E1.19636
G1 E0.69636 F2400.00000
G92 E0
G1 X16.395 Y19.143 F1800.000
G1 E0.50000 F2400.00000
G1 F1800
G1 X16.395 Y15.193 E1.16927
G1 E0.66927 F2400.00000
G92 E0
G1 X29.077 Y11.599 F1800.000
G1 E0.50000 F2400.00000
G1 F1800
G1 X29.132 Y11.430 E0.54489
G1 X29.221 Y11.276 E0.58977
G1 X29.339 Y11.144 E0.63466
G1 X29.483 Y11.039 E0.67955
G1 X29.646 Y10.967 E0.72444
G1 X29.832 Y10.928 E0.77259
G1 X30.080 Y10.942 E0.83527
G1 X30.254 Y10.999 E0.88155
G1 X30.408 Y11.088 E0.92644
G1 X30.609 Y11.293 E0.99902
G1 X30.683 Y11.425 E1.03715
G1 X30.740 Y11.599 E1.08342
G1 X30.758 Y11.776 E1.12831
G1 X30.740 Y11.952 E1.17320
G1 X30.685 Y12.121 E1.21809
G1 X30.596 Y12.275 E1.26297
G1 X30.477 Y12.407 E1.30786
G1 X30.323 Y12.519 E1.35601
G1 X30.090 Y12.607 E1.41870
G1 X29.908 Y12.626 E1.46497
G1 X29.732 Y12.607 E1.50986
G1 X29.563 Y12.552 E1.55475
G1 X29.409 Y12.463 E1.59964
G1 X29.277 Y12.344 E1.64452
G1 X29.172 Y12.201 E1.68941
G1 X29.100 Y12.038 E1.73430
G1 X29.053 Y11.820 E1.79056
G1 X29.061 Y11.748 E1.80894
G1 E1.30894 F2400.00000
G92 E0
G1 X14.444 Y11.974 F1800.000
G1 E0.50000 F2400.00000
G1 F1800
G1 X14.371 Y12.133 E0.54420
G1 X14.279 Y12.260 E0.58382
G1 X14.167 Y12.361 E0.62205
G1 X14.036 Y12.437 E0.66029
G1 X13.892 Y12.484 E0.69852
G1 X13.741 Y12.500 E0.73675
G1 X13.591 Y12.484 E0.77498
G1 X13.447 Y12.437 E0.81322
G1 X13.274 Y12.337 E0.86363
G1 X13.158 Y12.206 E0.90783
G1 X13.080 Y12.070 E0.94745
G1 X13.033 Y11.926 E0.98568
G1 X13.017 Y11.776 E1.02392
G1 X13.033 Y11.625 E1.06215
G1 X13.080 Y11.481 E1.10038
G1 X13.155 Y11.350 E1.13862
G1 X13.257 Y11.238 E1.17685
G1 X13.379 Y11.149 E1.21508
G1 X13.517 Y11.087 E1.25331
G1 X13.713 Y11.046 E1.30373
G1 X13.886 Y11.066 E1.34793
G1 X14.036 Y11.114 E1.38755
G1 X14.167 Y11.190 E1.42578
G1 X14.308 Y11.317 E1.47370
G1 X14.403 Y11.481 E1.52163
G1 X14.449 Y11.625 E1.55986
G1 X14.460 Y11.825 E1.61041
G1 E1.11041 F2400.00000
G92 E0
G1 X20.383 Y10.178 F1800.000
G1 E0.50000 F2400.00000
G1 F1800
G1 X20.721 Y9.722 E0.64344
G1 X20.960 Y9.490 E0.72757
G1 X21.234 Y9.301 E0.81170
G1 X21.554 Y9.150 E0.90108
G1 X22.027 Y9.043 E1.02350
G1 X22.967 Y9.008 E1.26106
G1 X22.621 Y9.879 E1.49784
G1 X22.483 Y10.091 E1.56164
G1 X22.059 Y10.470 E1.70534
G1 X21.883 Y10.602 E1.76096
G1 X21.707 Y10.685 E1.81006
G1 X21.518 Y10.730 E1.85916
G1 X21.323 Y10.735 E1.90825
G1 X21.132 Y10.701 E1.95735
G1 X20.906 Y10.610 E2.01888
G1 X20.499 Y10.274 E2.15215
G1 E1.65215 F2400.00000
G92 E0
; Filament-specific end gcode 
;END gcode for filament

M104 S0 ; turn off temperature
G28 X0  ; home X axis
M84     ; disable motors

M140 S0 ; set bed temperature
; filament used = 43.5mm (0.3cm3)
; total filament cost = 0.0

; avoid_crossing_perimeters = 0
; bed_shape = 0x0,100x0,100x100,0x100
; bed_temperature = 0
; before_layer_gcode = 
; between_objects_gcode = 
; bridge_acceleration = 0
; bridge_fan_speed = 100
; brim_connections_width = 0
; brim_width = 0
; complete_objects = 0
; cooling = 1
; default_acceleration = 0
; disable_fan_first_layers = 3
; duplicate_distance = 6
; end_filament_gcode = "; Filament-specific end gcode \n;END gcode for filament\n"
; end_gcode = M104 S0 ; turn off temperature\nG28 X0  ; home X axis\nM84     ; disable motors\n
; extruder_clearance_height = 20
; extruder_clearance_radius = 20
; extruder_offset = 0x0
; extrusion_axis = E
; extrusion_multiplier = 1
; fan_always_on = 0
; fan_below_layer_time = 60
; filament_colour = #FFFFFF
; filament_cost = 0
; filament_density = 0
; filament_diameter = 3
; filament_max_volumetric_speed = 0
; filament_notes = ""
; first_layer_acceleration = 0
; first_layer_bed_temperature = 0
; first_layer_extrusion_width = 200%
; first_layer_speed = 30
; first_layer_temperature = 5
; gcode_arcs = 0
; gcode_comments = 0
; gcode_flavor = reprap
; has_heatbed = 1
; infill_acceleration = 0
; infill_first = 0
; interior_brim_width = 0
; layer_gcode = 
; max_fan_speed = 100
; max_layer_height = 1
; max_print_speed = 80
; max_volumetric_speed = 0
; min_fan_speed = 35
; min_layer_height = 0.15
; min_print_speed = 10
; min_skirt_length = 0
; notes = 
; nozzle_diameter = 1
; only_retract_when_crossing_perimeters = 1
; ooze_prevention = 0
; output_filename_format = [input_filename_base].gcode
; perimeter_acceleration = 0
; post_process = 
; pressure_advance = 0
; printer_notes = 
; resolution = 0
; retract_before_travel = 2
; retract_layer_change = 0
; retract_length = 0.5
; retract_length_toolchange = 10
; retract_lift = 0
; retract_lift_above = 0
; retract_lift_below = 0
; retract_restart_extra = 0
; retract_restart_extra_toolchange = 0
; retract_speed = 40
; skirt_distance = 6
; skirt_height = 1
; skirts = 0
; slowdown_below_layer_time = 5
; spiral_vase = 0
; standby_temperature_delta = -5
; start_filament_gcode = "; Filament gcode\n"
; start_gcode = G28 ; home all axes\nG1 E1.6 F30 ; lift nozzle\n
; temperature = 0
; threads = 12
; toolchange_gcode = 
; travel_speed = 30
; use_firmware_retraction = 0
; use_relative_e_distances = 0
; use_set_and_wait_bed = 0
; use_set_and_wait_extruder = 0
; use_volumetric_e = 0
; vibration_limit = 0
; wipe = 0
; z_offset = 0
; z_steps_per_mm = 0
; adaptive_slicing = 0
; adaptive_slicing_quality = 75%
; dont_support_bridges = 1
; extrusion_width = 0
; first_layer_height = 1
; infill_only_where_needed = 0
; interface_shells = 0
; layer_height = 0.9
; match_horizontal_surfaces = 0
; raft_layers = 0
; regions_overlap = 0
; seam_position = aligned
; sequential_print_priority = 0
; support_material = 0
; support_material_angle = 0
; support_material_buildplate_only = 0
; support_material_contact_distance = 0.2
; support_material_enforce_layers = 0
; support_material_extruder = 1
; support_material_extrusion_width = 0
; support_material_interface_extruder = 1
; support_material_interface_extrusion_width = 0
; support_material_interface_layers = 3
; support_material_interface_spacing = 0
; support_material_interface_speed = 100%
; support_material_max_layers = 0
; support_material_pattern = pillars
; support_material_spacing = 2.5
; support_material_speed = 60
; support_material_threshold = 60%
; xy_size_compensation = 0
; bottom_infill_pattern = rectilinear
; bottom_solid_layers = 0
; bridge_flow_ratio = 1
; bridge_speed = 60
; external_perimeter_extrusion_width = 0
; external_perimeter_speed = 50%
; external_perimeters_first = 0
; extra_perimeters = 0
; fill_angle = 45
; fill_density = 0%
; fill_gaps = 1
; fill_pattern = stars
; gap_fill_speed = 20
; infill_every_layers = 1
; infill_extruder = 1
; infill_extrusion_width = 0
; infill_overlap = 55%
; infill_speed = 80
; overhangs = 1
; perimeter_extruder = 1
; perimeter_extrusion_width = 0
; perimeter_speed = 30
; perimeters = 1
; small_perimeter_speed = 15
; solid_infill_below_area = 70
; solid_infill_every_layers = 0
; solid_infill_extruder = 1
; solid_infill_extrusion_width = 0
; solid_infill_speed = 20
; thin_walls = 1
; top_infill_extrusion_width = 0
; top_infill_pattern = rectilinear
; top_solid_infill_speed = 15
; top_solid_layers = 0
